; G-Code generated by Simplify3D(R) Version 4.1.0
; Jan 10, 2019 at 4:30:48 PM
; Settings Summary
;   processName,Process1
;   applyToModels,FishFeed- Halterungsring V1
;   profileName,Creality Ender 3 (modified)
;   profileVersion,2018-12-19 15:52:17
;   baseProfile,
;   printMaterial,PLA
;   printQuality,Medium
;   printExtruders,
;   extruderName,Primary Extruder
;   extruderToolheadNumber,0
;   extruderDiameter,0.4
;   extruderAutoWidth,0
;   extruderWidth,0.35
;   extrusionMultiplier,1.15
;   extruderUseRetract,1
;   extruderRetractionDistance,4
;   extruderExtraRestartDistance,0
;   extruderRetractionZLift,0
;   extruderRetractionSpeed,2400
;   extruderUseCoasting,0
;   extruderCoastingDistance,0.2
;   extruderUseWipe,0
;   extruderWipeDistance,5
;   primaryExtruder,0
;   layerHeight,0.2
;   topSolidLayers,3
;   bottomSolidLayers,3
;   perimeterOutlines,2
;   printPerimetersInsideOut,1
;   startPointOption,2
;   startPointOriginX,0
;   startPointOriginY,0
;   sequentialIslands,0
;   spiralVaseMode,0
;   firstLayerHeightPercentage,120
;   firstLayerWidthPercentage,150
;   firstLayerUnderspeed,0.5
;   useRaft,0
;   raftExtruder,0
;   raftTopLayers,3
;   raftBaseLayers,2
;   raftOffset,3
;   raftSeparationDistance,0.14
;   raftTopInfill,100
;   aboveRaftSpeedMultiplier,0.3
;   useSkirt,1
;   skirtExtruder,0
;   skirtLayers,1
;   skirtOutlines,2
;   skirtOffset,4
;   usePrimePillar,0
;   primePillarExtruder,999
;   primePillarWidth,12
;   primePillarLocation,7
;   primePillarSpeedMultiplier,1
;   useOozeShield,0
;   oozeShieldExtruder,999
;   oozeShieldOffset,2
;   oozeShieldOutlines,1
;   oozeShieldSidewallShape,1
;   oozeShieldSidewallAngle,30
;   oozeShieldSpeedMultiplier,1
;   infillExtruder,0
;   internalInfillPattern,Rectilinear
;   externalInfillPattern,Rectilinear
;   infillPercentage,40
;   outlineOverlapPercentage,15
;   infillExtrusionWidthPercentage,100
;   minInfillLength,5
;   infillLayerInterval,1
;   internalInfillAngles,45,-45
;   overlapInternalInfillAngles,0
;   externalInfillAngles,45,-45
;   generateSupport,1
;   supportExtruder,0
;   supportInfillPercentage,30
;   supportExtraInflation,0
;   supportBaseLayers,0
;   denseSupportExtruder,0
;   denseSupportLayers,0
;   denseSupportInfillPercentage,70
;   supportLayerInterval,1
;   supportHorizontalPartOffset,0.3
;   supportUpperSeparationLayers,1
;   supportLowerSeparationLayers,1
;   supportType,0
;   supportGridSpacing,1.5
;   maxOverhangAngle,45
;   supportAngles,0
;   temperatureName,Primary Extruder,Heated Bed
;   temperatureNumber,0,0
;   temperatureSetpointCount,2,2
;   temperatureSetpointLayers,1,2,1,2
;   temperatureSetpointTemperatures,210,190,60,50
;   temperatureStabilizeAtStartup,1,1
;   temperatureHeatedBed,0,1
;   fanLayers,1,2
;   fanSpeeds,0,100
;   blipFanToFullPower,0
;   adjustSpeedForCooling,1
;   minSpeedLayerTime,15
;   minCoolingSpeedSlowdown,20
;   increaseFanForCooling,0
;   minFanLayerTime,45
;   maxCoolingFanSpeed,100
;   increaseFanForBridging,0
;   bridgingFanSpeed,100
;   use5D,1
;   relativeEdistances,0
;   allowEaxisZeroing,1
;   independentExtruderAxes,0
;   includeM10123,0
;   stickySupport,1
;   applyToolheadOffsets,0
;   gcodeXoffset,0
;   gcodeYoffset,0
;   gcodeZoffset,0
;   overrideMachineDefinition,1
;   machineTypeOverride,0
;   strokeXoverride,220
;   strokeYoverride,220
;   strokeZoverride,250
;   originOffsetXoverride,-5
;   originOffsetYoverride,-5
;   originOffsetZoverride,0
;   homeXdirOverride,-1
;   homeYdirOverride,-1
;   homeZdirOverride,-1
;   flipXoverride,1
;   flipYoverride,-1
;   flipZoverride,1
;   toolheadOffsets,0,0|0,0|0,0|0,0|0,0|0,0
;   overrideFirmwareConfiguration,1
;   firmwareTypeOverride,RepRap (Marlin/Repetier/Sprinter)
;   GPXconfigOverride,r2
;   baudRateOverride,115200
;   overridePrinterModels,1
;   printerModelsOverride
;   startingGcode,G28 ; home all axes,G1 X5 Y10 Z0.2 F3000 ; get ready to prime,G92 E0 ; reset extrusion distance,G1 X160 E15 F600 ; prime nozzle,G1 X180 F5000 ; quick wipe
;   layerChangeGcode,
;   retractionGcode,
;   toolChangeGcode,
;   endingGcode,G28 X0 ; home X axis,M106 S0 ; turn off cooling fan,M104 S0 ; turn off extruder,M140 S0 ; turn off bed,M84 ; disable motors
;   exportFileFormat,gcode
;   celebration,0
;   celebrationSong,Random Song
;   postProcessing,
;   defaultSpeed,2000
;   outlineUnderspeed,0.5
;   solidInfillUnderspeed,0.8
;   supportUnderspeed,0.8
;   rapidXYspeed,4800
;   rapidZspeed,1000
;   minBridgingArea,50
;   bridgingExtraInflation,0
;   bridgingExtrusionMultiplier,1
;   bridgingSpeedMultiplier,1
;   useFixedBridgingAngle,0
;   fixedBridgingAngle,0
;   applyBridgingToPerimeters,0
;   filamentDiameters,1.75|1.75|1.75|1.75|1.75|1.75
;   filamentPricesPerKg,46|46|46|46|46|46
;   filamentDensities,1.25|1.25|1.25|1.25|1.25|1.25
;   useMinPrintHeight,0
;   minPrintHeight,0
;   useMaxPrintHeight,0
;   maxPrintHeight,0
;   useDiaphragm,0
;   diaphragmLayerInterval,20
;   robustSlicing,1
;   mergeAllIntoSolid,0
;   onlyRetractWhenCrossingOutline,1
;   retractBetweenLayers,1
;   useRetractionMinTravel,0
;   retractionMinTravel,3
;   retractWhileWiping,0
;   onlyWipeOutlines,1
;   avoidCrossingOutline,0
;   maxMovementDetourFactor,3
;   toolChangeRetractionDistance,12
;   toolChangeExtraRestartDistance,-0.5
;   toolChangeRetractionSpeed,600
;   externalThinWallType,0
;   internalThinWallType,2
;   thinWallAllowedOverlapPercentage,10
;   singleExtrusionMinLength,1
;   singleExtrusionMinPrintingWidthPercentage,50
;   singleExtrusionMaxPrintingWidthPercentage,200
;   singleExtrusionEndpointExtension,0.2
;   horizontalSizeCompensation,0
G90
M82
M106 S0
M140 S60
M190 S60
M104 S210 T0
M109 S210 T0
G28 ; home all axes
G1 X5 Y10 Z0.2 F3000 ; get ready to prime
G92 E0 ; reset extrusion distance
G1 X160 E15 F600 ; prime nozzle
G1 X180 F5000 ; quick wipe
; process Process1
; layer 1, Z = 0.240
T0
G92 E0.0000
G1 E-4.0000 F2400
; feature skirt
; tool H0.240 W0.525
G1 Z0.240 F1000
G1 X30.034 Y96.215 F4800
G1 E0.0000 F2400
G92 E0.0000
G1 X39.931 Y96.215 E0.5962 F1000
G1 X41.416 Y94.731 E0.7227
G1 X56.322 Y94.731 E1.6207
G1 X57.806 Y96.215 E1.7472
G1 X66.500 Y96.215 E2.2709
G1 X69.304 Y99.020 E2.5098
G1 X69.304 Y107.878 E3.0435
G1 X72.559 Y111.201 E3.3237
G1 X72.650 Y111.300 E3.3318
G1 X74.864 Y113.828 E3.5342
G1 X75.029 Y114.039 E3.5503
G1 X76.985 Y116.854 E3.7568
G1 X77.125 Y117.081 E3.7729
G1 X78.756 Y120.097 E3.9794
G1 X78.870 Y120.339 E3.9956
G1 X80.154 Y123.517 E4.2021
G1 X80.240 Y123.770 E4.2182
G1 X81.162 Y127.071 E4.4247
G1 X81.220 Y127.333 E4.4408
G1 X81.768 Y130.716 E4.6473
G1 X81.796 Y130.982 E4.6634
G1 X81.963 Y134.406 E4.8699
G1 X81.961 Y134.673 E4.8860
G1 X81.746 Y138.095 E5.0925
G1 X81.715 Y138.360 E5.1086
G1 X81.120 Y141.736 E5.3151
G1 X81.058 Y141.996 E5.3312
G1 X80.091 Y145.285 E5.5377
G1 X80.001 Y145.537 E5.5538
G1 X78.673 Y148.697 E5.7603
G1 X78.556 Y148.937 E5.7764
G1 X76.883 Y151.929 E5.9829
G1 X76.740 Y152.155 E5.9991
G1 X74.745 Y154.942 E6.2056
G1 X74.577 Y155.151 E6.2217
G1 X72.283 Y157.698 E6.4282
G1 X72.094 Y157.887 E6.4443
G1 X69.530 Y160.162 E6.6508
G1 X69.321 Y160.329 E6.6669
G1 X66.520 Y162.304 E6.8734
G1 X66.293 Y162.446 E6.8895
G1 X63.289 Y164.098 E7.0960
G1 X63.048 Y164.213 E7.1121
G1 X59.879 Y165.519 E7.3186
G1 X59.626 Y165.607 E7.3347
G1 X57.626 Y166.181 E7.4601
G1 X57.626 Y169.441 E7.6565
G1 X54.822 Y172.246 E7.8954
G1 X42.916 Y172.246 E8.6127
G1 X40.111 Y169.441 E8.8516
G1 X40.111 Y166.181 E9.0480
G1 X38.111 Y165.607 E9.1734
G1 X37.858 Y165.519 E9.1895
G1 X34.689 Y164.213 E9.3960
G1 X34.448 Y164.098 E9.4121
G1 X31.444 Y162.446 E9.6186
G1 X31.218 Y162.304 E9.6347
G1 X28.417 Y160.329 E9.8412
G1 X28.207 Y160.162 E9.8573
G1 X25.644 Y157.887 E10.0638
G1 X25.454 Y157.698 E10.0799
G1 X23.160 Y155.151 E10.2864
G1 X22.993 Y154.942 E10.3025
G1 X20.997 Y152.155 E10.5090
G1 X20.854 Y151.929 E10.5251
G1 X19.182 Y148.937 E10.7316
G1 X19.065 Y148.697 E10.7477
G1 X17.736 Y145.537 E10.9542
G1 X17.647 Y145.285 E10.9704
G1 X16.679 Y141.996 E11.1769
G1 X16.618 Y141.736 E11.1930
G1 X16.023 Y138.360 E11.3995
G1 X15.991 Y138.095 E11.4156
G1 X15.776 Y134.673 E11.6221
G1 X15.774 Y134.406 E11.6382
G1 X15.942 Y130.982 E11.8447
G1 X15.970 Y130.716 E11.8608
G1 X16.518 Y127.333 E12.0673
G1 X16.575 Y127.071 E12.0834
G1 X17.497 Y123.770 E12.2899
G1 X17.583 Y123.517 E12.3060
G1 X18.868 Y120.339 E12.5125
G1 X18.982 Y120.097 E12.5286
G1 X20.612 Y117.081 E12.7351
G1 X20.752 Y116.854 E12.7513
G1 X22.697 Y114.055 E12.9566
G1 X22.861 Y113.846 E12.9726
G1 X25.008 Y111.390 E13.1691
G1 X27.573 Y108.329 E13.4096
G1 X27.229 Y107.986 E13.4389
G1 X27.229 Y99.020 E13.9790
G1 X30.034 Y96.215 E14.2179
G92 E0.0000
G1 E-4.0000 F2400
G1 X30.251 Y96.740 F4800
G1 E0.0000 F2400
G92 E0.0000
G1 X40.148 Y96.740 E0.5962 F1000
G1 X41.633 Y95.256 E0.7227
G1 X56.104 Y95.256 E1.5945
G1 X57.589 Y96.740 E1.7210
G1 X66.283 Y96.740 E2.2447
G1 X68.779 Y99.237 E2.4574
G1 X68.779 Y108.092 E2.9909
G1 X72.179 Y111.564 E3.2836
G1 X72.260 Y111.651 E3.2907
G1 X74.459 Y114.163 E3.4919
G1 X74.606 Y114.351 E3.5062
G1 X76.546 Y117.141 E3.7110
G1 X76.671 Y117.344 E3.7253
G1 X78.287 Y120.333 E3.9300
G1 X78.388 Y120.549 E3.9444
G1 X79.662 Y123.700 E4.1491
G1 X79.738 Y123.925 E4.1635
G1 X80.652 Y127.198 E4.3682
G1 X80.704 Y127.431 E4.3825
G1 X81.247 Y130.786 E4.5873
G1 X81.272 Y131.023 E4.6016
G1 X81.438 Y134.417 E4.8063
G1 X81.437 Y134.655 E4.8207
G1 X81.223 Y138.047 E5.0254
G1 X81.195 Y138.283 E5.0398
G1 X80.605 Y141.630 E5.2445
G1 X80.551 Y141.862 E5.2589
G1 X79.591 Y145.122 E5.4636
G1 X79.511 Y145.347 E5.4779
G1 X78.195 Y148.480 E5.6827
G1 X78.090 Y148.694 E5.6970
G1 X76.432 Y151.660 E5.9017
G1 X76.305 Y151.861 E5.9161
G1 X74.326 Y154.625 E6.1208
G1 X74.177 Y154.810 E6.1352
G1 X71.903 Y157.336 E6.3399
G1 X71.734 Y157.504 E6.3542
G1 X69.193 Y159.760 E6.5590
G1 X69.006 Y159.908 E6.5733
G1 X66.229 Y161.867 E6.7781
G1 X66.027 Y161.993 E6.7924
G1 X63.049 Y163.630 E6.9971
G1 X62.834 Y163.733 E7.0115
G1 X59.692 Y165.028 E7.2162
G1 X59.468 Y165.107 E7.2306
G1 X57.101 Y165.785 E7.3788
G1 X57.101 Y169.224 E7.5860
G1 X54.604 Y171.721 E7.7987
G1 X43.133 Y171.721 E8.4898
G1 X40.636 Y169.224 E8.7025
G1 X40.636 Y165.786 E8.9096
G1 X38.270 Y165.107 E9.0580
G1 X38.045 Y165.028 E9.0723
G1 X34.903 Y163.733 E9.2770
G1 X34.688 Y163.630 E9.2914
G1 X31.710 Y161.993 E9.4961
G1 X31.508 Y161.867 E9.5104
G1 X28.731 Y159.908 E9.7152
G1 X28.545 Y159.760 E9.7295
G1 X26.003 Y157.504 E9.9343
G1 X25.834 Y157.336 E9.9486
G1 X23.560 Y154.810 E10.1533
G1 X23.411 Y154.625 E10.1677
G1 X21.433 Y151.861 E10.3724
G1 X21.305 Y151.660 E10.3868
G1 X19.647 Y148.694 E10.5915
G1 X19.543 Y148.480 E10.6058
G1 X18.226 Y145.347 E10.8106
G1 X18.146 Y145.122 E10.8249
G1 X17.187 Y141.862 E11.0296
G1 X17.132 Y141.630 E11.0440
G1 X16.542 Y138.283 E11.2487
G1 X16.514 Y138.047 E11.2631
G1 X16.301 Y134.655 E11.4678
G1 X16.299 Y134.417 E11.4821
G1 X16.465 Y131.023 E11.6869
G1 X16.490 Y130.786 E11.7012
G1 X17.034 Y127.431 E11.9059
G1 X17.085 Y127.198 E11.9203
G1 X17.999 Y123.925 E12.1250
G1 X18.076 Y123.700 E12.1394
G1 X19.349 Y120.549 E12.3441
G1 X19.450 Y120.333 E12.3585
G1 X21.067 Y117.344 E12.5632
G1 X21.192 Y117.141 E12.5775
G1 X23.120 Y114.367 E12.7811
G1 X23.266 Y114.180 E12.7953
G1 X25.407 Y111.732 E12.9913
G1 X28.284 Y108.298 E13.2611
G1 X27.754 Y107.769 E13.3062
G1 X27.754 Y99.237 E13.8202
G1 X30.251 Y96.740 E14.0329
G92 E0.0000
G1 E-4.0000 F2400
; feature inner perimeter
G1 X32.804 Y101.790 F4800
G1 E0.0000 F2400
G92 E0.0000
G1 X63.729 Y101.790 E1.8630 F750
G1 X63.729 Y105.215 E2.0693
G1 X58.893 Y105.215 E2.3607
G1 X68.514 Y115.039 E3.1890
G1 X70.552 Y117.367 E3.3754
G1 X72.306 Y119.890 E3.5605
G1 X73.767 Y122.592 E3.7456
G1 X74.918 Y125.441 E3.9306
G1 X75.745 Y128.400 E4.1157
G1 X76.236 Y131.432 E4.3008
G1 X76.386 Y134.501 E4.4859
G1 X76.193 Y137.567 E4.6710
G1 X75.660 Y140.593 E4.8561
G1 X74.793 Y143.540 E5.0411
G1 X73.602 Y146.372 E5.2262
G1 X72.103 Y149.054 E5.4113
G1 X70.315 Y151.552 E5.5964
G1 X68.259 Y153.836 E5.7815
G1 X65.962 Y155.875 E5.9665
G1 X63.451 Y157.646 E6.1516
G1 X60.759 Y159.127 E6.3367
G1 X57.919 Y160.297 E6.5218
G1 X54.965 Y161.144 E6.7069
G1 X51.936 Y161.657 E6.8919
G1 X48.889 Y161.828 E7.0758
G1 X45.837 Y161.659 E7.2600
G1 X42.761 Y161.141 E7.4479
G1 X39.819 Y160.297 E7.6323
G1 X36.978 Y159.127 E7.8173
G1 X34.286 Y157.646 E8.0024
G1 X31.776 Y155.875 E8.1875
G1 X29.478 Y153.836 E8.3726
G1 X27.422 Y151.552 E8.5577
G1 X25.634 Y149.054 E8.7427
G1 X24.135 Y146.372 E8.9278
G1 X22.945 Y143.540 E9.1129
G1 X22.077 Y140.593 E9.2980
G1 X21.544 Y137.567 E9.4831
G1 X21.351 Y134.501 E9.6682
G1 X21.501 Y131.432 E9.8532
G1 X21.993 Y128.400 E10.0383
G1 X22.819 Y125.441 E10.2234
G1 X23.970 Y122.592 E10.4085
G1 X25.431 Y119.890 E10.5936
G1 X27.174 Y117.382 E10.7775
G1 X29.244 Y115.015 E10.9669
G1 X37.454 Y105.215 E11.7371
G1 X32.804 Y105.215 E12.0172
G1 X32.804 Y101.790 E12.2235
; feature outer perimeter
G1 X32.279 Y101.265 F4800
G92 E0.0000
G1 X64.254 Y101.265 E1.9263 F500
G1 X64.254 Y105.740 E2.1958
G1 X60.142 Y105.740 E2.4436
G1 X68.899 Y114.682 E3.1975
G1 X70.967 Y117.043 E3.3866
G1 X72.754 Y119.614 E3.5752
G1 X74.243 Y122.368 E3.7638
G1 X75.416 Y125.271 E3.9524
G1 X76.258 Y128.287 E4.1410
G1 X76.759 Y131.377 E4.3297
G1 X76.912 Y134.505 E4.5183
G1 X76.716 Y137.630 E4.7069
G1 X76.172 Y140.713 E4.8955
G1 X75.288 Y143.717 E5.0841
G1 X74.075 Y146.603 E5.2728
G1 X72.547 Y149.336 E5.4614
G1 X70.725 Y151.882 E5.6500
G1 X68.630 Y154.209 E5.8386
G1 X66.289 Y156.287 E6.0272
G1 X63.730 Y158.092 E6.2159
G1 X60.986 Y159.601 E6.4045
G1 X58.092 Y160.794 E6.5931
G1 X55.082 Y161.657 E6.7817
G1 X51.995 Y162.179 E6.9703
G1 X48.889 Y162.354 E7.1577
G1 X45.778 Y162.182 E7.3454
G1 X42.645 Y161.654 E7.5368
G1 X39.646 Y160.794 E7.7248
G1 X36.751 Y159.601 E7.9134
G1 X34.007 Y158.092 E8.1020
G1 X31.449 Y156.287 E8.2906
G1 X29.108 Y154.209 E8.4793
G1 X27.013 Y151.882 E8.6679
G1 X25.190 Y149.336 E8.8565
G1 X23.663 Y146.603 E9.0451
G1 X22.449 Y143.717 E9.2337
G1 X21.565 Y140.713 E9.4224
G1 X21.022 Y137.630 E9.6110
G1 X20.825 Y134.505 E9.7996
G1 X20.978 Y131.377 E9.9882
G1 X21.479 Y128.287 E10.1768
G1 X22.321 Y125.271 E10.3654
G1 X23.494 Y122.368 E10.5541
G1 X24.984 Y119.614 E10.7427
G1 X26.760 Y117.059 E10.9302
G1 X28.845 Y114.674 E11.1210
G1 X36.329 Y105.740 E11.8231
G1 X32.279 Y105.740 E12.0670
G1 X32.279 Y101.265 E12.3366
G92 E0.0000
G1 E-4.0000 F2400
; feature inner perimeter
G1 X36.884 Y111.475 F4800
G1 E0.0000 F2400
G92 E0.0000
G1 X34.204 Y113.097 E0.1887 F750
G1 X31.767 Y115.007 E0.3752
G1 X29.565 Y117.209 E0.5628
G1 X27.645 Y119.660 E0.7504
G1 X26.034 Y122.325 E0.9380
G1 X24.756 Y125.165 E1.1256
G1 X23.829 Y128.138 E1.3132
G1 X23.268 Y131.201 E1.5008
G1 X23.080 Y134.310 E1.6884
G1 X23.268 Y137.418 E1.8760
G1 X23.829 Y140.482 E2.0636
G1 X24.756 Y143.455 E2.2513
G1 X26.034 Y146.295 E2.4389
G1 X27.645 Y148.960 E2.6265
G1 X29.565 Y151.411 E2.8141
G1 X31.767 Y153.613 E3.0017
G1 X34.219 Y155.534 E3.1893
G1 X36.884 Y157.145 E3.3769
G1 X39.724 Y158.423 E3.5645
G1 X42.697 Y159.349 E3.7521
G1 X45.760 Y159.911 E3.9397
G1 X48.869 Y160.099 E4.1273
G1 X51.977 Y159.911 E4.3149
G1 X55.040 Y159.349 E4.5025
G1 X58.014 Y158.423 E4.6901
G1 X60.853 Y157.145 E4.8777
G1 X63.519 Y155.534 E5.0654
G1 X65.970 Y153.613 E5.2530
G1 X68.172 Y151.411 E5.4406
G1 X70.093 Y148.960 E5.6282
G1 X71.704 Y146.295 E5.8158
G1 X72.982 Y143.455 E6.0034
G1 X73.908 Y140.482 E6.1910
G1 X74.470 Y137.418 E6.3786
G1 X74.658 Y134.310 E6.5662
G1 X74.470 Y131.201 E6.7538
G1 X73.908 Y128.138 E6.9414
G1 X72.982 Y125.165 E7.1290
G1 X71.704 Y122.325 E7.3166
G1 X70.093 Y119.660 E7.5042
G1 X68.172 Y117.209 E7.6918
G1 X65.970 Y115.007 E7.8794
G1 X63.519 Y113.086 E8.0671
G1 X60.853 Y111.475 E8.2547
G1 X58.014 Y110.197 E8.4423
G1 X55.040 Y109.270 E8.6299
G1 X51.977 Y108.709 E8.8175
G1 X48.869 Y108.521 E9.0051
G1 X45.760 Y108.709 E9.1927
G1 X42.697 Y109.270 E9.3803
G1 X39.724 Y110.197 E9.5679
G1 X36.884 Y111.475 E9.7555
; feature outer perimeter
G1 X37.128 Y111.941 F4800
G92 E0.0000
G1 X34.503 Y113.530 E0.1849 F500
G1 X32.116 Y115.400 E0.3675
G1 X29.959 Y117.557 E0.5513
