;Generated with Cura_SteamEngine 15.01
; Default start code
G28 ; Home extruder
G1 Z15 F100
M107 ; Turn off fan
G90 ; Absolute positioning
M82 ; Extruder in absolute mode
M190 S50
; Activate all used extruder
M104 T0 S210
G92 E0 ; Reset extruder position
; Wait for all used extruders to reach temperature
M109 T0 S210
;Layer count: 110
;LAYER:0
M107
G0 F9000 X61.719 Y73.791 Z0.300
G0 X61.741 Y73.941
;TYPE:SKIRT
G1 F1800 X61.719 Y73.791 E0.00756
G1 X62.233 Y73.499 E0.03706
G1 X62.609 Y73.160 E0.06231
G1 X62.733 Y73.214 E0.06906
G1 X64.448 Y72.239 E0.16748
G1 X65.622 Y71.573 E0.23482
G1 X65.637 Y71.419 E0.24254
G1 X66.217 Y71.235 E0.27290
G1 X66.627 Y71.002 E0.29643
G1 X66.726 Y71.073 E0.30251
G1 X68.561 Y70.490 E0.39856
G1 X69.931 Y70.047 E0.47040
G1 X69.974 Y69.931 E0.47657
G1 X70.432 Y69.884 E0.49954
G1 X70.863 Y69.745 E0.52213
G1 X70.949 Y69.832 E0.52824
G1 X72.911 Y69.632 E0.62663
G1 X74.441 Y69.470 E0.70339
G1 X74.500 Y69.387 E0.70847
G1 X74.866 Y69.425 E0.72682
G1 X75.275 Y69.382 E0.74734
G1 X75.339 Y69.474 E0.75293
G1 X77.357 Y69.685 E0.85416
G1 X77.357 Y69.686 E0.85421
G1 X78.934 Y69.847 E0.93330
G1 X79.000 Y69.790 E0.93765
G1 X79.295 Y69.884 E0.95309
G1 X79.634 Y69.919 E0.97010
G1 X79.674 Y70.006 E0.97487
G1 X81.672 Y70.644 E1.07951
G1 X83.202 Y71.132 E1.15963
G1 X83.279 Y71.091 E1.16399
G1 X83.543 Y71.241 E1.17913
G1 X83.822 Y71.330 E1.19374
G1 X83.843 Y71.412 E1.19797
G1 X85.702 Y72.468 E1.30463
G1 X87.124 Y73.266 E1.38598
G1 X87.193 Y73.247 E1.38955
G1 X87.377 Y73.408 E1.40175
G1 X87.652 Y73.563 E1.41750
G1 X87.657 Y73.655 E1.42210
G1 X89.261 Y75.065 E1.52865
G1 X90.460 Y76.118 E1.60826
G1 X90.549 Y76.111 E1.61271
G1 X90.736 Y76.361 E1.62829
G1 X90.946 Y76.545 E1.64222
G1 X90.934 Y76.625 E1.64625
G1 X92.205 Y78.321 E1.75199
G1 X93.183 Y79.609 E1.83267
G1 X93.263 Y79.618 E1.83669
G1 X93.380 Y79.869 E1.85051
G1 X93.577 Y80.128 E1.86674
G1 X93.543 Y80.217 E1.87149
G1 X94.440 Y82.135 E1.97713
G1 X95.111 Y83.557 E2.05558
G1 X95.205 Y83.586 E2.06048
G1 X95.285 Y83.925 E2.07786
G1 X95.428 Y84.229 E2.09462
G1 X95.375 Y84.308 E2.09937
G1 X95.850 Y86.333 E2.20314
G1 X95.849 Y86.333 E2.20319
G1 X96.200 Y87.798 E2.27835
G1 X96.298 Y87.848 E2.28383
G1 X96.308 Y88.251 E2.30395
G1 X96.394 Y88.611 E2.32241
G1 X96.319 Y88.681 E2.32753
G1 X96.369 Y90.728 E2.42969
G1 X96.412 Y92.183 E2.50231
G1 X96.509 Y92.256 E2.50836
G1 X96.427 Y92.701 E2.53094
G1 X96.440 Y93.142 E2.55295
G1 X96.335 Y93.200 E2.55894
G1 X95.975 Y95.149 E2.65782
G1 X95.730 Y96.506 E2.72661
G1 X95.823 Y96.602 E2.73328
G1 X95.626 Y97.085 E2.75930
G1 X95.529 Y97.620 E2.78643
G1 X95.393 Y97.655 E2.79344
G1 X94.680 Y99.398 E2.88739
G1 X94.681 Y99.398 E2.88744
G1 X94.178 Y100.633 E2.95397
G1 X94.264 Y100.759 E2.96158
G1 X93.921 Y101.262 E2.99195
G1 X93.667 Y101.886 E3.02557
G1 X93.499 Y101.882 E3.03395
G1 X92.517 Y103.323 E3.12095
G1 X91.824 Y104.341 E3.18239
G1 X91.898 Y104.499 E3.19109
G1 X91.377 Y104.998 E3.22708
G1 X90.946 Y105.631 E3.26529
G1 X90.770 Y105.580 E3.27443
G1 X89.581 Y106.718 E3.35654
G1 X88.747 Y107.529 E3.41458
G1 X88.797 Y107.710 E3.42395
G1 X88.157 Y108.104 E3.46144
G1 X87.548 Y108.697 E3.50385
G1 X87.364 Y108.592 E3.51442
G1 X85.982 Y109.443 E3.59539
G1 X85.106 Y109.991 E3.64694
G1 X85.130 Y110.202 E3.65754
G1 X84.292 Y110.501 E3.70193
G1 X83.417 Y111.049 E3.75343
G1 X83.247 Y110.874 E3.76561
G1 X81.886 Y111.360 E3.83771
G1 X80.998 Y111.685 E3.88488
G1 X80.986 Y111.886 E3.89493
G1 X80.115 Y112.008 E3.93881
G1 X78.979 Y112.423 E3.99915
G1 X78.839 Y112.186 E4.01288
G1 X76.633 Y112.494 E4.12400
G1 X76.575 Y112.743 E4.13676
G1 X75.484 Y112.654 E4.19137
G1 X74.516 Y112.789 E4.24013
G1 X74.433 Y112.568 E4.25191
G1 X72.910 Y112.444 E4.32814
G1 X72.131 Y112.387 E4.36711
G1 X72.022 Y112.633 E4.38054
G1 X70.913 Y112.297 E4.43835
G1 X69.656 Y112.204 E4.50123
G1 X69.640 Y111.911 E4.51587
G1 X68.492 Y111.563 E4.57572
G1 X67.736 Y111.348 E4.61493
G1 X67.578 Y111.576 E4.62877
G1 X66.573 Y111.017 E4.68614
G1 X65.150 Y110.612 E4.75996
G1 X65.222 Y110.266 E4.77759
G1 X64.246 Y109.723 E4.83331
G1 X63.623 Y109.378 E4.86884
G1 X63.412 Y109.578 E4.88334
G1 X62.436 Y108.721 E4.94814
G1 X61.253 Y108.066 E5.01561
G1 X61.376 Y107.790 E5.03068
G1 X60.526 Y107.044 E5.08710
G1 X60.527 Y107.043 E5.08718
G1 X60.027 Y106.612 E5.12011
G1 X59.779 Y106.767 E5.13470
G1 X59.013 Y105.734 E5.19886
G1 X58.009 Y104.866 E5.26507
G1 X58.183 Y104.616 E5.28027
G1 X57.465 Y103.648 E5.34040
G1 X57.042 Y103.078 E5.37581
G1 X56.770 Y103.171 E5.39015
G1 X56.239 Y101.995 E5.45453
G1 X55.456 Y100.940 E5.52007
G1 X55.673 Y100.742 E5.53473
G1 X55.191 Y99.676 E5.59310
G1 X54.878 Y98.988 E5.63080
G1 X54.602 Y99.015 E5.64464
G1 X54.345 Y97.815 E5.70587
G1 X53.840 Y96.705 E5.76671
G1 X54.075 Y96.558 E5.78054
G1 X53.639 Y94.521 E5.88446
G1 X53.374 Y94.484 E5.89781
G1 X53.376 Y93.296 E5.95708
G1 X53.130 Y92.149 E6.01561
G1 X53.378 Y92.057 E6.02880
G1 X53.380 Y90.781 E6.09246
G1 X53.380 Y89.803 E6.14126
G1 X53.175 Y89.713 E6.15243
G1 X53.380 Y88.762 E6.20096
G1 X53.380 Y87.661 E6.25589
G1 X53.627 Y87.615 E6.26843
G1 X53.919 Y86.262 E6.33748
G1 X54.125 Y85.312 E6.38598
G1 X53.935 Y85.172 E6.39775
G1 X54.359 Y84.235 E6.44906
G1 X54.552 Y83.346 E6.49445
G1 X54.763 Y83.342 E6.50498
G1 X55.383 Y81.972 E6.58000
G1 X55.831 Y80.960 E6.63522
G1 X55.711 Y80.808 E6.64488
G1 X56.179 Y80.173 E6.68423
G1 X56.559 Y79.315 E6.73105
G1 X56.784 Y79.353 E6.74243
G1 X57.708 Y78.100 E6.82010
G1 X58.432 Y77.103 E6.88158
G1 X58.366 Y76.945 E6.89012
G1 X58.874 Y76.495 E6.92398
G1 X59.349 Y75.841 E6.96430
G1 X59.539 Y75.906 E6.97432
G1 X60.778 Y74.809 E7.05688
G1 X61.741 Y73.941 E7.12156
G0 F9000 X62.169 Y74.094
G1 F1800 X62.155 Y74.003 E7.12616
G1 X62.466 Y73.826 E7.14401
G1 X62.685 Y73.629 E7.15870
G1 X62.757 Y73.661 E7.16264
G1 X64.646 Y72.587 E7.27105
G1 X65.999 Y71.819 E7.34866
G1 X66.009 Y71.721 E7.35358
G1 X66.380 Y71.603 E7.37300
G1 X66.602 Y71.477 E7.38574
G1 X66.655 Y71.515 E7.38899
G1 X68.682 Y70.871 E7.49510
G1 X68.682 Y70.872 E7.49515
G1 X70.237 Y70.368 E7.57670
G1 X70.261 Y70.304 E7.58011
G1 X70.512 Y70.278 E7.59270
G1 X70.751 Y70.201 E7.60523
G1 X70.798 Y70.249 E7.60858
G1 X72.965 Y70.028 E7.71725
G1 X72.965 Y70.029 E7.71730
G1 X74.663 Y69.849 E7.80249
G1 X74.691 Y69.809 E7.80493
G1 X74.868 Y69.827 E7.81380
G1 X75.081 Y69.805 E7.82449
G1 X75.114 Y69.853 E7.82739
G1 X77.316 Y70.083 E7.93785
G1 X77.316 Y70.084 E7.93790
G1 X79.066 Y70.262 E8.02566
G1 X79.092 Y70.240 E8.02735
G1 X79.206 Y70.277 E8.03333
G1 X79.368 Y70.293 E8.04146
G1 X79.387 Y70.334 E8.04371
G1 X81.551 Y71.026 E8.15706
G1 X81.551 Y71.025 E8.15711
G1 X83.242 Y71.565 E8.24567
G1 X83.274 Y71.548 E8.24748
G1 X83.383 Y71.610 E8.25373
G1 X83.490 Y71.644 E8.25933
G1 X83.498 Y71.675 E8.26093
G1 X85.505 Y72.816 E8.37611
G1 X87.073 Y73.696 E8.46582
G1 X87.091 Y73.691 E8.46675
G1 X87.139 Y73.734 E8.46996
G1 X87.265 Y73.804 E8.47716
G1 X87.267 Y73.846 E8.47925
G1 X88.997 Y75.365 E8.59411
G1 X90.323 Y76.530 E8.68217
G1 X90.361 Y76.527 E8.68407
G1 X90.440 Y76.633 E8.69067
G1 X90.519 Y76.702 E8.69590
G1 X90.515 Y76.732 E8.69741
G1 X91.886 Y78.562 E8.81149
G1 X92.966 Y79.986 E8.90066
G1 X92.995 Y79.989 E8.90211
G1 X93.038 Y80.080 E8.90713
G1 X93.124 Y80.194 E8.91426
G1 X93.109 Y80.233 E8.91634
G1 X94.078 Y82.305 E9.03046
G1 X94.824 Y83.886 E9.11768
G1 X94.868 Y83.900 E9.11998
G1 X94.905 Y84.059 E9.12812
G1 X94.969 Y84.194 E9.13558
G1 X94.945 Y84.229 E9.13770
G1 X95.457 Y86.412 E9.24956
G1 X95.854 Y88.070 E9.33462
G1 X95.904 Y88.096 E9.33743
G1 X95.909 Y88.302 E9.34771
G1 X95.951 Y88.477 E9.35669
G1 X95.914 Y88.511 E9.35919
G1 X95.969 Y90.722 E9.46954
G1 X96.018 Y92.388 E9.55269
G1 X96.071 Y92.428 E9.55600
G1 X96.026 Y92.672 E9.56838
G1 X96.033 Y92.910 E9.58026
G1 X95.976 Y92.941 E9.58350
G1 X95.582 Y95.076 E9.69181
G1 X95.300 Y96.636 E9.77090
G1 X95.354 Y96.692 E9.77478
G1 X95.240 Y96.972 E9.78986
G1 X95.181 Y97.297 E9.80634
G1 X95.098 Y97.318 E9.81062
G1 X94.309 Y99.250 E9.91473
G1 X93.726 Y100.681 E9.99182
G1 X93.780 Y100.760 E9.99660
G1 X93.566 Y101.074 E10.01555
G1 X93.401 Y101.479 E10.03737
G1 X93.292 Y101.476 E10.04281
G1 X92.188 Y103.095 E10.14058
G1 X91.364 Y104.305 E10.21361
G1 X91.413 Y104.409 E10.21935
G1 X91.070 Y104.738 E10.24306
G1 X90.779 Y105.165 E10.26884
G1 X90.660 Y105.130 E10.27503
G1 X89.323 Y106.411 E10.36740
G1 X88.299 Y107.409 E10.43874
G1 X88.331 Y107.526 E10.44479
G1 X87.915 Y107.783 E10.46919
G1 X87.485 Y108.201 E10.49911
G1 X87.355 Y108.127 E10.50657
G1 X85.772 Y109.103 E10.59935
G1 X84.680 Y109.787 E10.66364
G1 X84.696 Y109.932 E10.67091
G1 X84.118 Y110.138 E10.70153
G1 X83.478 Y110.539 E10.73921
G1 X83.354 Y110.411 E10.74810
G1 X81.751 Y110.983 E10.83301
G1 X80.613 Y111.399 E10.89346
G1 X80.605 Y111.535 E10.90026
G1 X80.017 Y111.617 E10.92988
G1 X79.154 Y111.933 E10.97573
G1 X79.047 Y111.753 E10.98617
G1 X76.305 Y112.136 E11.12430
G1 X76.263 Y112.316 E11.13352
G1 X75.475 Y112.252 E11.17297
G1 X74.778 Y112.349 E11.20807
G1 X74.718 Y112.190 E11.21655
G1 X72.967 Y112.047 E11.30420
G1 X71.879 Y111.967 E11.35863
G1 X71.799 Y112.147 E11.36846
G1 X70.987 Y111.901 E11.41079
G1 X70.036 Y111.831 E11.45836
G1 X70.024 Y111.610 E11.46940
G1 X68.560 Y111.166 E11.54573
G1 X67.571 Y110.885 E11.59702
G1 X67.456 Y111.050 E11.60705
G1 X66.727 Y110.645 E11.64866
G1 X65.618 Y110.329 E11.70619
G1 X65.674 Y110.059 E11.71995
G1 X64.433 Y109.369 E11.79079
G1 X63.561 Y108.887 E11.84050
G1 X63.402 Y109.037 E11.85140
G1 X62.669 Y108.393 E11.90008
G1 X61.767 Y107.894 E11.95151
G1 X61.861 Y107.684 E11.96299
G1 X60.790 Y106.743 E12.03411
G1 X60.065 Y106.116 E12.08193
G1 X59.880 Y106.232 E12.09283
G1 X59.309 Y105.462 E12.14065
G1 X58.543 Y104.799 E12.19120
G1 X58.676 Y104.608 E12.20281
G1 X57.787 Y103.410 E12.27723
G1 X57.189 Y102.604 E12.32731
G1 X56.985 Y102.674 E12.33807
G1 X56.587 Y101.793 E12.38630
G1 X55.992 Y100.992 E12.43608
G1 X56.157 Y100.842 E12.44720
G1 X55.555 Y99.511 E12.52008
G1 X55.124 Y98.562 E12.57208
G1 X54.918 Y98.582 E12.58241
G1 X54.726 Y97.688 E12.62803
G1 X54.349 Y96.858 E12.67351
G1 X54.525 Y96.748 E12.68386
G1 X53.971 Y94.165 E12.81566
G1 X53.774 Y94.137 E12.82559
G1 X53.776 Y93.252 E12.86974
G1 X53.594 Y92.405 E12.91296
G1 X53.777 Y92.337 E12.92270
G1 X53.780 Y90.781 E13.00033
G1 X53.780 Y89.542 E13.06214
G1 X53.635 Y89.478 E13.07005
G1 X53.780 Y88.805 E13.10440
G1 X53.780 Y87.994 E13.14486
G1 X53.962 Y87.960 E13.15409
G1 X54.310 Y86.346 E13.23647
G1 X54.571 Y85.144 E13.29783
G1 X54.433 Y85.042 E13.30640
G1 X54.741 Y84.362 E13.34364
G1 X54.876 Y83.740 E13.37539
G1 X55.024 Y83.737 E13.38278
G1 X55.748 Y82.137 E13.47039
G1 X56.295 Y80.902 E13.53778
G1 X56.214 Y80.800 E13.54428
G1 X56.529 Y80.373 E13.57075
G1 X56.800 Y79.761 E13.60414
G1 X56.961 Y79.788 E13.61229
G1 X58.016 Y78.356 E13.70103
G1 X58.888 Y77.156 E13.77503
G1 X58.846 Y77.055 E13.78049
G1 X59.170 Y76.768 E13.80208
G1 X59.499 Y76.315 E13.83002
G1 X59.630 Y76.360 E13.83693
G1 X61.043 Y75.108 E13.93111
G1 X62.169 Y74.094 E14.00671
G1 F2400 E10.00671
G0 F9000 X63.587 Y78.140
;TYPE:WALL-INNER
G1 F2400 E14.00671
G1 F1800 X63.958 Y78.191 E14.02539
G1 X64.328 Y78.179 E14.04386
G1 X64.692 Y78.106 E14.06238
G1 X65.040 Y77.972 E14.08099
G1 X65.361 Y77.780 E14.09965
G1 X65.642 Y77.538 E14.11815
G1 X65.879 Y77.252 E14.13668
G1 X66.064 Y76.932 E14.15512
G1 X66.199 Y76.575 E14.17416
G1 X66.263 Y76.215 E14.19241
G1 X66.267 Y76.037 E14.20129
G1 X66.384 Y75.970 E14.20802
G1 X66.573 Y76.065 E14.21857
G1 X66.922 Y76.171 E14.23677
G1 X67.235 Y76.220 E14.25257
G1 X67.658 Y76.204 E14.27369
G1 X67.938 Y76.156 E14.28786
G1 X68.279 Y76.039 E14.30585
G1 X68.596 Y75.868 E14.32382
G1 X68.879 Y75.647 E14.34173
G1 X69.123 Y75.384 E14.35963
G1 X69.322 Y75.084 E14.37759
G1 X69.469 Y74.755 E14.39557
G1 X69.511 Y74.595 E14.40382
G1 X69.713 Y74.530 E14.41441
G1 X69.896 Y74.665 E14.42576
G1 X70.224 Y74.829 E14.44405
G1 X70.572 Y74.938 E14.46224
G1 X70.947 Y74.987 E14.48111
G1 X71.315 Y74.971 E14.49949
G1 X71.678 Y74.896 E14.51798
G1 X72.019 Y74.760 E14.53630
G1 X72.344 Y74.566 E14.55518
G1 X72.619 Y74.323 E14.57349
G1 X72.850 Y74.043 E14.59160
G1 X72.964 Y73.848 E14.60287
G1 X73.259 Y73.818 E14.61766
G1 X73.407 Y73.977 E14.62850
G1 X73.693 Y74.192 E14.64635
G1 X74.007 Y74.360 E14.66412
G1 X74.346 Y74.474 E14.68196
G1 X74.698 Y74.531 E14.69975
G1 X75.054 Y74.531 E14.71751
G1 X75.406 Y74.473 E14.73531
G1 X75.746 Y74.359 E14.75320
G1 X76.058 Y74.192 E14.77085
G1 X76.354 Y73.970 E14.78931
G1 X76.494 Y73.818 E14.79962
G1 X76.856 Y73.856 E14.81778
G1 X77.009 Y74.082 E14.83140
G1 X77.269 Y74.350 E14.85003
G1 X77.570 Y74.572 E14.86869
G1 X77.906 Y74.741 E14.88745
G1 X78.267 Y74.849 E14.90625
G1 X78.644 Y74.893 E14.92519
G1 X79.013 Y74.874 E14.94362
G1 X79.377 Y74.793 E14.96223
G1 X79.736 Y74.647 E14.98156
G1 X79.955 Y74.505 E14.99458
G1 X80.354 Y74.633 E15.01549
G1 X80.459 Y74.878 E15.02879
G1 X80.658 Y75.186 E15.04708
G1 X80.904 Y75.456 E15.06530
G1 X81.194 Y75.683 E15.08368
G1 X81.519 Y75.858 E15.10209
G1 X81.869 Y75.976 E15.12052
G1 X82.233 Y76.035 E15.13892
G1 X82.596 Y76.033 E15.15703
G1 X82.956 Y75.969 E15.17527
G1 X83.206 Y75.881 E15.18849
G1 X83.602 Y76.105 E15.21119
G1 X83.657 Y76.364 E15.22440
G1 X83.790 Y76.701 E15.24247
G1 X83.975 Y77.012 E15.26053
G1 X84.212 Y77.289 E15.27872
G1 X84.489 Y77.524 E15.29684
G1 X84.805 Y77.708 E15.31508
G1 X85.145 Y77.840 E15.33328
G1 X85.502 Y77.913 E15.35146
G1 X85.866 Y77.926 E15.36963
G1 X86.116 Y77.893 E15.38221
G1 X86.468 Y78.203 E15.40561
G1 X86.469 Y78.466 E15.41873
G1 X86.530 Y78.824 E15.43685
G1 X86.650 Y79.168 E15.45503
G1 X86.823 Y79.484 E15.47300
G1 X87.047 Y79.771 E15.49116
G1 X87.318 Y80.016 E15.50939
G1 X87.621 Y80.213 E15.52742
G1 X87.955 Y80.360 E15.54563
G1 X88.313 Y80.449 E15.56403
G1 X88.566 Y80.468 E15.57669
G1 X88.839 Y80.833 E15.59943
G1 X88.783 Y81.090 E15.61255
G1 X88.767 Y81.458 E15.63093
G1 X88.813 Y81.822 E15.64923
G1 X88.918 Y82.171 E15.66741
G1 X89.081 Y82.503 E15.68587
G1 X89.298 Y82.800 E15.70422
G1 X89.560 Y83.059 E15.72260
G1 X89.862 Y83.269 E15.74095
G1 X90.193 Y83.428 E15.75927
G1 X90.441 Y83.498 E15.77213
G1 X90.620 Y83.880 E15.79317
G1 X90.507 Y84.126 E15.80668
G1 X90.411 Y84.489 E15.82541
G1 X90.378 Y84.860 E15.84399
G1 X90.407 Y85.233 E15.86266
G1 X90.500 Y85.598 E15.88145
G1 X90.655 Y85.941 E15.90023
G1 X90.864 Y86.251 E15.91888
G1 X91.123 Y86.523 E15.93762
G1 X91.426 Y86.748 E15.95645
G1 X91.660 Y86.865 E15.96950
G1 X91.745 Y87.226 E15.98800
G1 X91.588 Y87.428 E16.00077
G1 X91.417 Y87.746 E16.01878
G1 X91.310 Y88.028 E16.03383
G1 X91.240 Y88.381 E16.05178
G1 X91.228 Y88.738 E16.06960
G1 X91.273 Y89.093 E16.08746
G1 X91.376 Y89.438 E16.10542
G1 X91.534 Y89.759 E16.12327
G1 X91.741 Y90.051 E16.14113
G1 X91.993 Y90.304 E16.15894
G1 X92.160 Y90.426 E16.16926
G1 X92.168 Y90.730 E16.18443
G1 X91.992 Y90.864 E16.19547
G1 X91.740 Y91.135 E16.21393
G1 X91.538 Y91.443 E16.23231
G1 X91.390 Y91.779 E16.25062
G1 X91.300 Y92.137 E16.26904
G1 X91.273 Y92.507 E16.28755
G1 X91.307 Y92.875 E16.30599
G1 X91.401 Y93.230 E16.32431
G1 X91.553 Y93.568 E16.34280
G1 X91.762 Y93.877 E16.36141
G1 X91.910 Y94.032 E16.37210
G1 X91.870 Y94.250 E16.38316
G1 X91.718 Y94.313 E16.39137
G1 X91.406 Y94.504 E16.40962
G1 X91.103 Y94.784 E16.43020
G1 X90.915 Y95.010 E16.44487
G1 X90.734 Y95.319 E16.46273
G1 X90.605 Y95.654 E16.48064
G1 X90.532 Y96.005 E16.49853
G1 X90.519 Y96.362 E16.51635
G1 X90.561 Y96.718 E16.53423
G1 X90.662 Y97.062 E16.55212
G1 X90.817 Y97.383 E16.56991
G1 X90.911 Y97.520 E16.57819
G1 X90.858 Y97.650 E16.58520
G1 X90.681 Y97.676 E16.59412
G1 X90.327 Y97.792 E16.61271
G1 X90.000 Y97.966 E16.63119
