; G-Code generated by Simplify3D(R) Version 4.1.0
; Jan 10, 2019 at 9:41:34 AM
; Settings Summary
;   processName,Ender 3
;   applyToModels,FishFeed_CaseDeckel
;   profileName,Creality Ender 3 (modified)
;   profileVersion,2018-12-19 15:52:17
;   baseProfile,
;   printMaterial,PLA
;   printQuality,Medium
;   printExtruders,
;   extruderName,Primary Extruder
;   extruderToolheadNumber,0
;   extruderDiameter,0.4
;   extruderAutoWidth,0
;   extruderWidth,0.35
;   extrusionMultiplier,1.15
;   extruderUseRetract,1
;   extruderRetractionDistance,4
;   extruderExtraRestartDistance,0
;   extruderRetractionZLift,0
;   extruderRetractionSpeed,2400
;   extruderUseCoasting,0
;   extruderCoastingDistance,0.2
;   extruderUseWipe,0
;   extruderWipeDistance,5
;   primaryExtruder,0
;   layerHeight,0.2
;   topSolidLayers,3
;   bottomSolidLayers,3
;   perimeterOutlines,2
;   printPerimetersInsideOut,1
;   startPointOption,2
;   startPointOriginX,0
;   startPointOriginY,0
;   sequentialIslands,0
;   spiralVaseMode,0
;   firstLayerHeightPercentage,120
;   firstLayerWidthPercentage,150
;   firstLayerUnderspeed,0.5
;   useRaft,0
;   raftExtruder,0
;   raftTopLayers,3
;   raftBaseLayers,2
;   raftOffset,3
;   raftSeparationDistance,0.14
;   raftTopInfill,100
;   aboveRaftSpeedMultiplier,0.3
;   useSkirt,1
;   skirtExtruder,0
;   skirtLayers,1
;   skirtOutlines,2
;   skirtOffset,4
;   usePrimePillar,0
;   primePillarExtruder,999
;   primePillarWidth,12
;   primePillarLocation,7
;   primePillarSpeedMultiplier,1
;   useOozeShield,0
;   oozeShieldExtruder,999
;   oozeShieldOffset,2
;   oozeShieldOutlines,1
;   oozeShieldSidewallShape,1
;   oozeShieldSidewallAngle,30
;   oozeShieldSpeedMultiplier,1
;   infillExtruder,0
;   internalInfillPattern,Rectilinear
;   externalInfillPattern,Rectilinear
;   infillPercentage,40
;   outlineOverlapPercentage,15
;   infillExtrusionWidthPercentage,100
;   minInfillLength,5
;   infillLayerInterval,1
;   internalInfillAngles,45,-45
;   overlapInternalInfillAngles,0
;   externalInfillAngles,45,-45
;   generateSupport,1
;   supportExtruder,0
;   supportInfillPercentage,30
;   supportExtraInflation,0
;   supportBaseLayers,0
;   denseSupportExtruder,0
;   denseSupportLayers,0
;   denseSupportInfillPercentage,70
;   supportLayerInterval,1
;   supportHorizontalPartOffset,0.3
;   supportUpperSeparationLayers,1
;   supportLowerSeparationLayers,1
;   supportType,0
;   supportGridSpacing,2
;   maxOverhangAngle,45
;   supportAngles,0
;   temperatureName,Primary Extruder,Heated Bed
;   temperatureNumber,0,0
;   temperatureSetpointCount,2,2
;   temperatureSetpointLayers,1,2,1,2
;   temperatureSetpointTemperatures,210,190,60,50
;   temperatureStabilizeAtStartup,1,1
;   temperatureHeatedBed,0,1
;   fanLayers,1,2
;   fanSpeeds,0,100
;   blipFanToFullPower,0
;   adjustSpeedForCooling,1
;   minSpeedLayerTime,15
;   minCoolingSpeedSlowdown,20
;   increaseFanForCooling,0
;   minFanLayerTime,45
;   maxCoolingFanSpeed,100
;   increaseFanForBridging,0
;   bridgingFanSpeed,100
;   use5D,1
;   relativeEdistances,0
;   allowEaxisZeroing,1
;   independentExtruderAxes,0
;   includeM10123,0
;   stickySupport,1
;   applyToolheadOffsets,0
;   gcodeXoffset,0
;   gcodeYoffset,0
;   gcodeZoffset,0
;   overrideMachineDefinition,1
;   machineTypeOverride,0
;   strokeXoverride,220
;   strokeYoverride,220
;   strokeZoverride,250
;   originOffsetXoverride,-5
;   originOffsetYoverride,-5
;   originOffsetZoverride,0
;   homeXdirOverride,-1
;   homeYdirOverride,-1
;   homeZdirOverride,-1
;   flipXoverride,1
;   flipYoverride,-1
;   flipZoverride,1
;   toolheadOffsets,0,0|0,0|0,0|0,0|0,0|0,0
;   overrideFirmwareConfiguration,1
;   firmwareTypeOverride,RepRap (Marlin/Repetier/Sprinter)
;   GPXconfigOverride,r2
;   baudRateOverride,115200
;   overridePrinterModels,1
;   printerModelsOverride
;   startingGcode,G28 ; home all axes,G1 X5 Y10 Z0.2 F3000 ; get ready to prime,G92 E0 ; reset extrusion distance,G1 X160 E15 F600 ; prime nozzle,G1 X180 F5000 ; quick wipe
;   layerChangeGcode,
;   retractionGcode,
;   toolChangeGcode,
;   endingGcode,G28 X0 ; home X axis,M106 S0 ; turn off cooling fan,M104 S0 ; turn off extruder,M140 S0 ; turn off bed,M84 ; disable motors
;   exportFileFormat,gcode
;   celebration,0
;   celebrationSong,Random Song
;   postProcessing,
;   defaultSpeed,2000
;   outlineUnderspeed,0.5
;   solidInfillUnderspeed,0.8
;   supportUnderspeed,0.8
;   rapidXYspeed,4800
;   rapidZspeed,1000
;   minBridgingArea,50
;   bridgingExtraInflation,0
;   bridgingExtrusionMultiplier,1
;   bridgingSpeedMultiplier,1
;   useFixedBridgingAngle,0
;   fixedBridgingAngle,0
;   applyBridgingToPerimeters,0
;   filamentDiameters,1.75|1.75|1.75|1.75|1.75|1.75
;   filamentPricesPerKg,46|46|46|46|46|46
;   filamentDensities,1.25|1.25|1.25|1.25|1.25|1.25
;   useMinPrintHeight,0
;   minPrintHeight,0
;   useMaxPrintHeight,0
;   maxPrintHeight,0
;   useDiaphragm,0
;   diaphragmLayerInterval,20
;   robustSlicing,1
;   mergeAllIntoSolid,0
;   onlyRetractWhenCrossingOutline,1
;   retractBetweenLayers,1
;   useRetractionMinTravel,0
;   retractionMinTravel,3
;   retractWhileWiping,0
;   onlyWipeOutlines,1
;   avoidCrossingOutline,0
;   maxMovementDetourFactor,3
;   toolChangeRetractionDistance,12
;   toolChangeExtraRestartDistance,-0.5
;   toolChangeRetractionSpeed,600
;   externalThinWallType,0
;   internalThinWallType,2
;   thinWallAllowedOverlapPercentage,10
;   singleExtrusionMinLength,1
;   singleExtrusionMinPrintingWidthPercentage,50
;   singleExtrusionMaxPrintingWidthPercentage,200
;   singleExtrusionEndpointExtension,0.2
;   horizontalSizeCompensation,0
G90
M82
M106 S0
M140 S60
M190 S60
M104 S210 T0
M109 S210 T0
G28 ; home all axes
G1 X5 Y10 Z0.2 F3000 ; get ready to prime
G92 E0 ; reset extrusion distance
G1 X160 E15 F600 ; prime nozzle
G1 X180 F5000 ; quick wipe
; process Ender 3
; layer 1, Z = 0.240
T0
G92 E0.0000
G1 E-4.0000 F2400
; feature skirt
; tool H0.240 W0.525
G1 Z0.240 F1000
G1 X120.446 Y91.300 F4800
G1 E0.0000 F2400
G92 E0.0000
G1 X125.550 Y86.195 E0.4348 F1000
G1 X127.310 Y85.467 E0.5496
G1 X187.850 Y85.467 E4.1967
G1 X189.609 Y86.195 E4.3114
G1 X194.713 Y91.300 E4.7462
G1 X195.442 Y93.059 E4.8610
G1 X195.442 Y163.599 E9.1105
G1 X194.713 Y165.359 E9.2252
G1 X189.609 Y170.463 E9.6601
G1 X187.850 Y171.192 E9.7748
G1 X127.310 Y171.192 E13.4219
G1 X125.550 Y170.463 E13.5366
G1 X120.446 Y165.359 E13.9714
G1 X119.717 Y163.599 E14.0862
G1 X119.717 Y93.059 E18.3357
G1 X120.446 Y91.300 E18.4504
G92 E0.0000
G1 E-4.0000 F2400
G1 X120.891 Y91.597 F4800
G1 E0.0000 F2400
G92 E0.0000
G1 X125.848 Y86.641 E0.4223 F1000
G1 X127.414 Y85.992 E0.5244
G1 X187.745 Y85.992 E4.1589
G1 X189.312 Y86.641 E4.2611
G1 X194.268 Y91.597 E4.6833
G1 X194.917 Y93.164 E4.7855
G1 X194.917 Y163.495 E9.0224
G1 X194.268 Y165.061 E9.1245
G1 X189.312 Y170.018 E9.5468
G1 X187.745 Y170.667 E9.6490
G1 X127.414 Y170.667 E13.2835
G1 X125.848 Y170.018 E13.3856
G1 X120.891 Y165.061 E13.8079
G1 X120.242 Y163.495 E13.9100
G1 X120.242 Y93.164 E18.1469
G1 X120.891 Y91.597 E18.2491
G92 E0.0000
G1 E-4.0000 F2400
; feature inner perimeter
G1 X125.292 Y94.338 F4800
G1 E0.0000 F2400
G92 E0.0000
G1 X128.588 Y91.042 E0.2808 F750
G1 X186.571 Y91.042 E3.7738
G1 X189.867 Y94.338 E4.0546
G1 X189.867 Y162.321 E8.1501
G1 X186.571 Y165.617 E8.4309
G1 X128.588 Y165.617 E11.9239
G1 X125.292 Y162.321 E12.2048
G1 X125.292 Y94.338 E16.3002
; feature outer perimeter
G1 X124.767 Y94.120 F4800
G92 E0.0000
G1 X128.371 Y90.517 E0.3070 F500
G1 X186.789 Y90.517 E3.8262
G1 X190.392 Y94.120 E4.1333
G1 X190.392 Y162.538 E8.2549
G1 X186.789 Y166.142 E8.5619
G1 X128.371 Y166.142 E12.0811
G1 X124.767 Y162.538 E12.3882
G1 X124.767 Y94.120 E16.5098
; feature inner perimeter
G1 X131.702 Y99.059 F4800
G92 E0.0000
G1 X131.379 Y99.752 E0.0461 F750
G1 X131.181 Y100.492 E0.0922
G1 X131.114 Y101.258 E0.1385
G1 X131.192 Y102.057 E0.1869
G1 X131.379 Y102.756 E0.2305
G1 X131.702 Y103.449 E0.2766
G1 X132.141 Y104.076 E0.3227
G1 X132.683 Y104.617 E0.3688
G1 X133.309 Y105.056 E0.4149
G1 X134.003 Y105.380 E0.4610
G1 X134.742 Y105.578 E0.5071
G1 X135.505 Y105.645 E0.5532
G1 X136.267 Y105.578 E0.5993
G1 X137.006 Y105.380 E0.6454
G1 X137.700 Y105.056 E0.6915
G1 X138.327 Y104.617 E0.7376
G1 X138.868 Y104.076 E0.7837
G1 X139.307 Y103.449 E0.8299
G1 X139.630 Y102.756 E0.8760
G1 X139.829 Y102.016 E0.9221
G1 X139.895 Y101.254 E0.9682
G1 X139.829 Y100.492 E1.0143
G1 X139.630 Y99.752 E1.0604
G1 X139.307 Y99.059 E1.1065
G1 X138.868 Y98.432 E1.1526
G1 X138.327 Y97.891 E1.1987
G1 X137.700 Y97.452 E1.2448
G1 X137.006 Y97.128 E1.2909
G1 X136.267 Y96.930 E1.3370
G1 X135.505 Y96.864 E1.3831
G1 X134.742 Y96.930 E1.4292
G1 X134.003 Y97.128 E1.4753
G1 X133.309 Y97.452 E1.5214
G1 X132.683 Y97.891 E1.5675
G1 X132.141 Y98.432 E1.6136
G1 X131.702 Y99.059 E1.6597
; feature outer perimeter
G1 X132.159 Y99.322 F4800
G92 E0.0000
G1 X131.874 Y99.933 E0.0406 F500
G1 X131.700 Y100.583 E0.0811
G1 X131.641 Y101.255 E0.1218
G1 X131.710 Y101.963 E0.1646
G1 X131.874 Y102.575 E0.2028
G1 X132.159 Y103.186 E0.2434
G1 X132.545 Y103.738 E0.2840
G1 X133.021 Y104.214 E0.3245
G1 X133.573 Y104.600 E0.3651
G1 X134.183 Y104.885 E0.4057
G1 X134.834 Y105.059 E0.4462
G1 X135.505 Y105.118 E0.4868
G1 X136.176 Y105.059 E0.5274
G1 X136.826 Y104.885 E0.5680
G1 X137.436 Y104.600 E0.6085
G1 X137.988 Y104.214 E0.6491
G1 X138.464 Y103.738 E0.6897
G1 X138.851 Y103.186 E0.7302
G1 X139.135 Y102.575 E0.7708
G1 X139.310 Y101.925 E0.8114
G1 X139.368 Y101.254 E0.8519
G1 X139.310 Y100.583 E0.8925
G1 X139.135 Y99.933 E0.9331
G1 X138.851 Y99.322 E0.9737
G1 X138.464 Y98.771 E1.0142
G1 X137.988 Y98.294 E1.0548
G1 X137.436 Y97.908 E1.0954
G1 X136.826 Y97.624 E1.1359
G1 X136.176 Y97.449 E1.1765
G1 X135.505 Y97.391 E1.2171
G1 X134.834 Y97.449 E1.2577
G1 X134.183 Y97.624 E1.2982
G1 X133.573 Y97.908 E1.3388
G1 X133.021 Y98.294 E1.3794
G1 X132.545 Y98.771 E1.4199
G1 X132.159 Y99.322 E1.4605
G92 E0.0000
G1 E-4.0000 F2400
; feature inner perimeter
G1 X135.580 Y137.014 F4800
G1 E0.0000 F2400
G92 E0.0000
G1 X135.165 Y137.050 E0.0251 F750
G1 X134.762 Y137.158 E0.0502
G1 X134.384 Y137.334 E0.0753
G1 X134.043 Y137.573 E0.1004
G1 X133.749 Y137.867 E0.1255
G1 X133.509 Y138.209 E0.1506
G1 X133.333 Y138.586 E0.1757
G1 X133.226 Y138.989 E0.2008
G1 X133.189 Y139.404 E0.2259
G1 X133.226 Y139.819 E0.2510
G1 X133.333 Y140.222 E0.2761
G1 X133.509 Y140.599 E0.3012
G1 X133.749 Y140.941 E0.3263
G1 X134.043 Y141.235 E0.3514
G1 X134.387 Y141.476 E0.3767
G1 X134.775 Y141.654 E0.4025
G1 X135.165 Y141.758 E0.4267
G1 X135.580 Y141.795 E0.4518
G1 X135.995 Y141.758 E0.4769
G1 X136.397 Y141.650 E0.5020
G1 X136.775 Y141.474 E0.5271
G1 X137.116 Y141.235 E0.5522
G1 X137.411 Y140.941 E0.5774
G1 X137.650 Y140.599 E0.6025
G1 X137.826 Y140.222 E0.6276
G1 X137.934 Y139.819 E0.6527
G1 X137.970 Y139.404 E0.6778
G1 X137.934 Y138.989 E0.7029
G1 X137.826 Y138.586 E0.7280
G1 X137.650 Y138.209 E0.7531
G1 X137.411 Y137.868 E0.7782
G1 X137.116 Y137.573 E0.8033
G1 X136.775 Y137.334 E0.8284
G1 X136.397 Y137.158 E0.8535
G1 X135.995 Y137.050 E0.8786
G1 X135.580 Y137.014 E0.9037
; feature outer perimeter
G1 X135.580 Y137.541 F4800
G92 E0.0000
G1 X135.256 Y137.569 E0.0196 F500
G1 X134.942 Y137.653 E0.0391
G1 X134.648 Y137.790 E0.0587
G1 X134.382 Y137.977 E0.0783
G1 X134.152 Y138.206 E0.0978
G1 X133.966 Y138.472 E0.1174
G1 X133.829 Y138.767 E0.1370
G1 X133.745 Y139.081 E0.1565
G1 X133.716 Y139.404 E0.1761
G1 X133.745 Y139.728 E0.1957
G1 X133.829 Y140.041 E0.2153
G1 X133.966 Y140.336 E0.2348
G1 X134.152 Y140.602 E0.2544
G1 X134.382 Y140.832 E0.2740
G1 X134.649 Y141.018 E0.2936
G1 X134.954 Y141.158 E0.3138
G1 X135.256 Y141.239 E0.3327
G1 X135.580 Y141.268 E0.3522
G1 X135.903 Y141.239 E0.3718
G1 X136.217 Y141.155 E0.3914
G1 X136.511 Y141.018 E0.4109
G1 X136.778 Y140.832 E0.4305
G1 X137.007 Y140.602 E0.4501
G1 X137.194 Y140.336 E0.4696
G1 X137.331 Y140.041 E0.4892
G1 X137.415 Y139.728 E0.5088
G1 X137.443 Y139.404 E0.5283
G1 X137.415 Y139.081 E0.5479
G1 X137.331 Y138.767 E0.5675
G1 X137.194 Y138.472 E0.5870
G1 X137.007 Y138.206 E0.6066
G1 X136.778 Y137.977 E0.6262
G1 X136.511 Y137.790 E0.6458
G1 X136.217 Y137.653 E0.6653
G1 X135.903 Y137.569 E0.6849
G1 X135.580 Y137.541 E0.7045
G92 E0.0000
G1 E-4.0000 F2400
; feature inner perimeter
G1 X135.505 Y151.014 F4800
G1 E0.0000 F2400
G92 E0.0000
G1 X134.742 Y151.080 E0.0461 F750
G1 X134.003 Y151.278 E0.0922
G1 X133.309 Y151.602 E0.1383
G1 X132.679 Y152.043 E0.1847
G1 X132.118 Y152.616 E0.2330
G1 X131.702 Y153.209 E0.2766
G1 X131.379 Y153.902 E0.3227
G1 X131.181 Y154.642 E0.3688
G1 X131.114 Y155.404 E0.4149
G1 X131.181 Y156.166 E0.4610
G1 X131.379 Y156.906 E0.5071
G1 X131.702 Y157.599 E0.5532
G1 X132.141 Y158.226 E0.5993
G1 X132.683 Y158.767 E0.6454
G1 X133.309 Y159.206 E0.6915
G1 X134.003 Y159.530 E0.7376
G1 X134.742 Y159.728 E0.7837
G1 X135.505 Y159.795 E0.8298
G1 X136.267 Y159.728 E0.8760
G1 X137.006 Y159.530 E0.9221
G1 X137.700 Y159.206 E0.9682
G1 X138.327 Y158.767 E1.0143
G1 X138.868 Y158.226 E1.0604
G1 X139.307 Y157.599 E1.1065
G1 X139.630 Y156.906 E1.1526
G1 X139.829 Y156.166 E1.1987
G1 X139.895 Y155.404 E1.2448
G1 X139.829 Y154.642 E1.2909
G1 X139.630 Y153.902 E1.3370
G1 X139.307 Y153.209 E1.3831
G1 X138.868 Y152.582 E1.4292
G1 X138.327 Y152.041 E1.4753
G1 X137.700 Y151.602 E1.5214
G1 X137.006 Y151.278 E1.5675
G1 X136.267 Y151.080 E1.6136
G1 X135.505 Y151.014 E1.6597
; feature outer perimeter
G1 X135.505 Y151.541 F4800
G92 E0.0000
G1 X134.834 Y151.599 E0.0406 F500
G1 X134.183 Y151.774 E0.0811
G1 X133.573 Y152.058 E0.1217
G1 X133.020 Y152.445 E0.1624
G1 X132.523 Y152.953 E0.2052
G1 X132.159 Y153.472 E0.2434
G1 X131.874 Y154.083 E0.2840
G1 X131.700 Y154.733 E0.3245
G1 X131.641 Y155.404 E0.3651
G1 X131.700 Y156.075 E0.4057
G1 X131.874 Y156.725 E0.4462
G1 X132.159 Y157.336 E0.4868
G1 X132.545 Y157.888 E0.5274
G1 X133.021 Y158.364 E0.5680
G1 X133.573 Y158.750 E0.6085
G1 X134.183 Y159.035 E0.6491
G1 X134.834 Y159.209 E0.6897
G1 X135.505 Y159.268 E0.7302
G1 X136.176 Y159.209 E0.7708
G1 X136.826 Y159.035 E0.8114
G1 X137.436 Y158.750 E0.8519
G1 X137.988 Y158.364 E0.8925
G1 X138.464 Y157.888 E0.9331
G1 X138.851 Y157.336 E0.9737
G1 X139.135 Y156.725 E1.0142
G1 X139.310 Y156.075 E1.0548
G1 X139.368 Y155.404 E1.0954
G1 X139.310 Y154.733 E1.1359
G1 X139.135 Y154.083 E1.1765
G1 X138.851 Y153.472 E1.2171
G1 X138.464 Y152.921 E1.2577
G1 X137.988 Y152.444 E1.2982
G1 X137.436 Y152.058 E1.3388
G1 X136.826 Y151.774 E1.3794
G1 X136.176 Y151.599 E1.4199
G1 X135.505 Y151.541 E1.4605
; feature inner perimeter
G1 X152.998 Y142.049 F4800
G92 E0.0000
G1 X153.527 Y142.805 E0.0556 F750
G1 X154.179 Y143.457 E0.1111
G1 X154.934 Y143.986 E0.1667
G1 X155.770 Y144.376 E0.2222
G1 X156.661 Y144.614 E0.2778
G1 X157.580 Y144.695 E0.3333
G1 X158.498 Y144.614 E0.3889
G1 X159.389 Y144.376 E0.4444
G1 X160.225 Y143.986 E0.5000
G1 X160.980 Y143.457 E0.5556
G1 X161.632 Y142.805 E0.6111
G1 X162.161 Y142.049 E0.6667
G1 X162.551 Y141.214 E0.7222
G1 X162.790 Y140.323 E0.7778
G1 X162.870 Y139.404 E0.8333
G1 X162.790 Y138.485 E0.8889
G1 X162.551 Y137.595 E0.9444
G1 X162.161 Y136.759 E1.0000
G1 X161.632 Y136.003 E1.0556
G1 X161.436 Y135.807 E1.0723
G1 X160.980 Y135.351 E1.1111
G1 X160.225 Y134.822 E1.1667
G1 X159.389 Y134.433 E1.2222
G1 X158.498 Y134.194 E1.2778
G1 X157.580 Y134.114 E1.3333
G1 X156.661 Y134.194 E1.3889
G1 X155.770 Y134.433 E1.4444
G1 X154.935 Y134.822 E1.5000
G1 X154.179 Y135.351 E1.5556
G1 X153.527 Y136.003 E1.6111
G1 X152.998 Y136.759 E1.6667
G1 X152.608 Y137.595 E1.7222
G1 X152.370 Y138.485 E1.7778
G1 X152.289 Y139.408 E1.8336
G1 X152.383 Y140.372 E1.8919
G1 X152.608 Y141.214 E1.9444
G1 X152.998 Y142.049 E2.0000
; feature outer perimeter
G1 X153.454 Y141.786 F4800
G92 E0.0000
G1 X153.931 Y142.466 E0.0500 F500
G1 X154.518 Y143.053 E0.1000
G1 X155.198 Y143.529 E0.1501
G1 X155.951 Y143.880 E0.2001
G1 X156.753 Y144.095 E0.2501
G1 X157.580 Y144.168 E0.3001
G1 X158.407 Y144.095 E0.3501
G1 X159.209 Y143.880 E0.4002
G1 X159.961 Y143.529 E0.4502
G1 X160.642 Y143.053 E0.5002
G1 X161.229 Y142.466 E0.5502
G1 X161.705 Y141.786 E0.6003
