; G-Code generated by Simplify3D(R) Version 4.1.0
; Jan 9, 2019 at 2:31:33 PM
; Settings Summary
;   processName,Ender 3
;   applyToModels,FishFeed_Geh?useDeckel
;   profileName,Creality CR-10 (modified)
;   profileVersion,2018-12-19 09:16:21
;   baseProfile,
;   printMaterial,PLA
;   printQuality,Medium
;   printExtruders,
;   extruderName,Primary Extruder
;   extruderToolheadNumber,0
;   extruderDiameter,0.4
;   extruderAutoWidth,0
;   extruderWidth,0.4
;   extrusionMultiplier,1.05
;   extruderUseRetract,1
;   extruderRetractionDistance,5
;   extruderExtraRestartDistance,0
;   extruderRetractionZLift,0
;   extruderRetractionSpeed,1800
;   extruderUseCoasting,0
;   extruderCoastingDistance,0.2
;   extruderUseWipe,0
;   extruderWipeDistance,5
;   primaryExtruder,0
;   layerHeight,0.2
;   topSolidLayers,3
;   bottomSolidLayers,3
;   perimeterOutlines,2
;   printPerimetersInsideOut,1
;   startPointOption,2
;   startPointOriginX,0
;   startPointOriginY,0
;   sequentialIslands,0
;   spiralVaseMode,0
;   firstLayerHeightPercentage,120
;   firstLayerWidthPercentage,150
;   firstLayerUnderspeed,0.5
;   useRaft,0
;   raftExtruder,0
;   raftTopLayers,3
;   raftBaseLayers,2
;   raftOffset,3
;   raftSeparationDistance,0.14
;   raftTopInfill,100
;   aboveRaftSpeedMultiplier,0.3
;   useSkirt,1
;   skirtExtruder,0
;   skirtLayers,1
;   skirtOutlines,2
;   skirtOffset,4
;   usePrimePillar,0
;   primePillarExtruder,999
;   primePillarWidth,12
;   primePillarLocation,7
;   primePillarSpeedMultiplier,1
;   useOozeShield,0
;   oozeShieldExtruder,999
;   oozeShieldOffset,2
;   oozeShieldOutlines,1
;   oozeShieldSidewallShape,1
;   oozeShieldSidewallAngle,30
;   oozeShieldSpeedMultiplier,1
;   infillExtruder,0
;   internalInfillPattern,Rectilinear
;   externalInfillPattern,Rectilinear
;   infillPercentage,40
;   outlineOverlapPercentage,15
;   infillExtrusionWidthPercentage,100
;   minInfillLength,5
;   infillLayerInterval,1
;   internalInfillAngles,45,-45
;   overlapInternalInfillAngles,0
;   externalInfillAngles,45,-45
;   generateSupport,1
;   supportExtruder,0
;   supportInfillPercentage,30
;   supportExtraInflation,0
;   supportBaseLayers,0
;   denseSupportExtruder,0
;   denseSupportLayers,0
;   denseSupportInfillPercentage,70
;   supportLayerInterval,1
;   supportHorizontalPartOffset,0.3
;   supportUpperSeparationLayers,1
;   supportLowerSeparationLayers,1
;   supportType,0
;   supportGridSpacing,1.5
;   maxOverhangAngle,45
;   supportAngles,0
;   temperatureName,Primary Extruder,Heated Bed
;   temperatureNumber,0,0
;   temperatureSetpointCount,2,2
;   temperatureSetpointLayers,1,2,1,2
;   temperatureSetpointTemperatures,210,190,60,50
;   temperatureStabilizeAtStartup,1,1
;   temperatureHeatedBed,0,1
;   fanLayers,1,2
;   fanSpeeds,0,100
;   blipFanToFullPower,0
;   adjustSpeedForCooling,1
;   minSpeedLayerTime,15
;   minCoolingSpeedSlowdown,20
;   increaseFanForCooling,0
;   minFanLayerTime,45
;   maxCoolingFanSpeed,100
;   increaseFanForBridging,0
;   bridgingFanSpeed,100
;   use5D,1
;   relativeEdistances,0
;   allowEaxisZeroing,1
;   independentExtruderAxes,0
;   includeM10123,0
;   stickySupport,1
;   applyToolheadOffsets,0
;   gcodeXoffset,0
;   gcodeYoffset,0
;   gcodeZoffset,0
;   overrideMachineDefinition,1
;   machineTypeOverride,0
;   strokeXoverride,300
;   strokeYoverride,300
;   strokeZoverride,400
;   originOffsetXoverride,0
;   originOffsetYoverride,0
;   originOffsetZoverride,0
;   homeXdirOverride,-1
;   homeYdirOverride,-1
;   homeZdirOverride,-1
;   flipXoverride,1
;   flipYoverride,-1
;   flipZoverride,1
;   toolheadOffsets,0,0|0,0|0,0|0,0|0,0|0,0
;   overrideFirmwareConfiguration,1
;   firmwareTypeOverride,RepRap (Marlin/Repetier/Sprinter)
;   GPXconfigOverride,r2
;   baudRateOverride,115200
;   overridePrinterModels,1
;   printerModelsOverride
;   startingGcode,G28 ; home all axes,G1 Z5 F3000 ; lift,G1 X5 Y10 F1500 ; move to prime,G1 Z0.2 F3000 ; get ready to prime,G92 E0 ; reset extrusion distance,G1 Y80 E10 F600 ; prime nozzle,G1 Y100 F5000 ; quick wipe
;   layerChangeGcode,
;   retractionGcode,
;   toolChangeGcode,
;   endingGcode,G28 X0 ; home x axis,M106 S0 ; turn off cooling fan,M104 S0 ; turn off extruder,M140 S0 ; turn off bed,M84 ; disable motors
;   exportFileFormat,gcode
;   celebration,0
;   celebrationSong,Random Song
;   postProcessing,
;   defaultSpeed,2200
;   outlineUnderspeed,0.5
;   solidInfillUnderspeed,0.8
;   supportUnderspeed,0.8
;   rapidXYspeed,4800
;   rapidZspeed,1000
;   minBridgingArea,50
;   bridgingExtraInflation,0
;   bridgingExtrusionMultiplier,1
;   bridgingSpeedMultiplier,1
;   useFixedBridgingAngle,0
;   fixedBridgingAngle,0
;   applyBridgingToPerimeters,0
;   filamentDiameters,1.75|1.75|1.75|1.75|1.75|1.75
;   filamentPricesPerKg,46|46|46|46|46|46
;   filamentDensities,1.25|1.25|1.25|1.25|1.25|1.25
;   useMinPrintHeight,0
;   minPrintHeight,0
;   useMaxPrintHeight,0
;   maxPrintHeight,0
;   useDiaphragm,0
;   diaphragmLayerInterval,20
;   robustSlicing,1
;   mergeAllIntoSolid,0
;   onlyRetractWhenCrossingOutline,1
;   retractBetweenLayers,1
;   useRetractionMinTravel,0
;   retractionMinTravel,3
;   retractWhileWiping,0
;   onlyWipeOutlines,1
;   avoidCrossingOutline,0
;   maxMovementDetourFactor,3
;   toolChangeRetractionDistance,12
;   toolChangeExtraRestartDistance,-0.5
;   toolChangeRetractionSpeed,600
;   externalThinWallType,0
;   internalThinWallType,2
;   thinWallAllowedOverlapPercentage,10
;   singleExtrusionMinLength,1
;   singleExtrusionMinPrintingWidthPercentage,50
;   singleExtrusionMaxPrintingWidthPercentage,200
;   singleExtrusionEndpointExtension,0.2
;   horizontalSizeCompensation,0
G90
M82
M106 S0
M140 S60
M190 S60
M104 S210 T0
M109 S210 T0
G28 ; home all axes
G1 Z5 F3000 ; lift
G1 X5 Y10 F1500 ; move to prime
G1 Z0.2 F3000 ; get ready to prime
G92 E0 ; reset extrusion distance
G1 Y80 E10 F600 ; prime nozzle
G1 Y100 F5000 ; quick wipe
; process Ender 3
; layer 1, Z = 0.240
T0
G92 E0.0000
G1 E-5.0000 F1800
; feature skirt
; tool H0.240 W0.600
G1 Z0.240 F1000
G1 X133.575 Y134.195 F4800
G1 E0.0000 F1800
G92 E0.0000
G1 X136.194 Y131.869 E0.2202 F1100
G1 X136.893 Y131.739 E0.2649
G1 X137.243 Y131.114 E0.3099
G1 X140.226 Y129.415 E0.5257
G1 X140.948 Y129.419 E0.5711
G1 X141.437 Y128.881 E0.6168
G1 X144.648 Y127.853 E0.8288
G1 X145.380 Y127.993 E0.8756
G1 X145.999 Y127.568 E0.9228
G1 X149.303 Y127.228 E1.1316
G1 X149.998 Y127.506 E1.1787
G1 X150.698 Y127.227 E1.2260
G1 X153.960 Y127.567 E1.4322
G1 X154.607 Y127.980 E1.4804
G1 X155.369 Y127.862 E1.5289
G1 X158.460 Y128.852 E1.7329
G1 X159.014 Y129.383 E1.7812
G1 X159.783 Y129.430 E1.8296
G1 X162.600 Y131.026 E2.0331
G1 X163.037 Y131.658 E2.0814
G1 X163.778 Y131.864 E2.1298
G1 X166.207 Y133.999 E2.3331
G1 X166.506 Y134.707 E2.3814
G1 X167.189 Y135.060 E2.4297
G1 X169.133 Y137.648 E2.6332
G1 X169.279 Y138.404 E2.6816
G1 X169.876 Y138.886 E2.7298
G1 X171.255 Y141.823 E2.9338
G1 X171.236 Y142.594 E2.9823
G1 X171.727 Y143.184 E3.0305
G1 X172.483 Y146.373 E3.2366
G1 X172.297 Y147.103 E3.2839
G1 X172.661 Y147.758 E3.3310
G1 X172.748 Y151.075 E3.5396
G1 X172.408 Y151.744 E3.5868
G1 X172.639 Y152.453 E3.6337
G1 X172.034 Y155.765 E3.8454
G1 X171.563 Y156.321 E3.8911
G1 X171.659 Y157.038 E3.9366
G1 X170.360 Y160.210 E4.1520
G1 X169.785 Y160.639 E4.1971
G1 X169.744 Y161.351 E4.2420
G1 X167.778 Y164.241 E4.4617
G1 X167.147 Y164.512 E4.5049
G1 X166.985 Y165.176 E4.5478
G1 X164.406 Y167.648 E4.7724
G1 X163.748 Y167.764 E4.8144
G1 X163.472 Y168.369 E4.8562
G1 X160.363 Y170.291 E5.0859
G1 X159.735 Y170.254 E5.1255
G1 X159.373 Y170.766 E5.1649
G1 X155.851 Y172.023 E5.4000
G1 X155.271 Y171.851 E5.4381
G1 X154.834 Y172.268 E5.4760
G1 X151.045 Y172.767 E5.7162
G1 X150.554 Y172.485 E5.7518
G1 X150.079 Y172.791 E5.7873
G1 X146.196 Y172.474 E6.0322
G1 X145.796 Y172.105 E6.0665
G1 X145.288 Y172.302 E6.1007
G1 X141.515 Y171.159 E6.3485
G1 X141.215 Y170.723 E6.3818
G1 X140.693 Y170.810 E6.4150
G1 X137.220 Y168.880 E6.6648
G1 X137.024 Y168.398 E6.6975
G1 X136.504 Y168.376 E6.7302
G1 X133.511 Y165.747 E6.9807
G1 X133.421 Y165.234 E7.0133
G1 X132.918 Y165.103 E7.0460
G1 X130.554 Y161.906 E7.2959
G1 X130.574 Y161.379 E7.3291
G1 X130.104 Y161.139 E7.3623
G1 X128.482 Y157.541 E7.6104
G1 X128.612 Y157.014 E7.6445
G1 X128.194 Y156.667 E7.6786
G1 X127.378 Y152.851 E7.9239
G1 X127.619 Y152.343 E7.9592
G1 X127.277 Y151.896 E7.9946
G1 X127.284 Y148.067 E8.2353
G1 X127.640 Y147.583 E8.2731
G1 X127.394 Y147.032 E8.3110
G1 X128.188 Y143.370 E8.5465
G1 X128.649 Y142.948 E8.5858
G1 X128.530 Y142.333 E8.6252
G1 X130.039 Y138.995 E8.8554
G1 X130.601 Y138.645 E8.8971
G1 X130.630 Y137.981 E8.9389
G1 X132.754 Y135.098 E9.1639
G1 X133.390 Y134.854 E9.2068
G1 X133.575 Y134.195 E9.2498
G92 E0.0000
G1 E-5.0000 F1800
G1 X134.105 Y134.527 F4800
G1 E0.0000 F1800
G92 E0.0000
G1 X136.467 Y132.429 E0.1986 F1100
G1 X137.280 Y132.278 E0.2506
G1 X137.685 Y131.553 E0.3028
G1 X140.383 Y130.016 E0.4980
G1 X141.212 Y130.021 E0.5501
G1 X141.773 Y129.403 E0.6025
G1 X144.686 Y128.471 E0.7948
G1 X145.514 Y128.629 E0.8478
G1 X146.212 Y128.150 E0.9010
G1 X149.217 Y127.840 E1.0909
G1 X149.998 Y128.152 E1.1438
G1 X150.783 Y127.839 E1.1969
G1 X153.757 Y128.149 E1.3848
G1 X154.475 Y128.607 E1.4384
G1 X155.321 Y128.476 E1.4922
G1 X158.145 Y129.381 E1.6786
G1 X158.758 Y129.969 E1.7320
G1 X159.608 Y130.020 E1.7855
G1 X162.184 Y131.480 E1.9717
G1 X162.667 Y132.178 E2.0250
G1 X163.485 Y132.405 E2.0783
G1 X165.708 Y134.359 E2.2644
G1 X166.038 Y135.141 E2.3178
G1 X166.792 Y135.530 E2.3711
G1 X168.570 Y137.897 E2.5572
G1 X168.731 Y138.733 E2.6107
G1 X169.392 Y139.266 E2.6641
G1 X170.651 Y141.950 E2.8505
G1 X170.631 Y142.805 E2.9042
G1 X171.176 Y143.459 E2.9577
G1 X171.865 Y146.368 E3.1456
G1 X171.657 Y147.186 E3.1987
G1 X172.066 Y147.921 E3.2515
G1 X172.145 Y150.938 E3.4413
G1 X171.760 Y151.693 E3.4946
G1 X172.022 Y152.494 E3.5475
G1 X171.472 Y155.500 E3.7396
G1 X170.933 Y156.136 E3.7920
G1 X171.043 Y156.959 E3.8442
G1 X169.868 Y159.828 E4.0391
G1 X169.201 Y160.325 E4.0913
G1 X169.155 Y161.151 E4.1433
G1 X167.381 Y163.759 E4.3416
G1 X166.635 Y164.079 E4.3926
G1 X166.444 Y164.863 E4.4434
G1 X164.122 Y167.089 E4.6455
G1 X163.334 Y167.229 E4.6958
G1 X163.002 Y167.954 E4.7460
G1 X160.209 Y169.681 E4.9524
G1 X159.437 Y169.635 E5.0010
G1 X158.992 Y170.265 E5.0495
G1 X155.834 Y171.392 E5.2603
G1 X155.108 Y171.177 E5.3079
G1 X154.561 Y171.698 E5.3554
G1 X151.168 Y172.146 E5.5705
G1 X150.537 Y171.784 E5.6163
G1 X149.925 Y172.176 E5.6619
G1 X146.451 Y171.893 E5.8811
G1 X145.928 Y171.410 E5.9259
G1 X145.264 Y171.667 E5.9706
G1 X141.890 Y170.645 E6.1922
G1 X141.492 Y170.068 E6.2363
G1 X140.801 Y170.184 E6.2803
G1 X137.697 Y168.459 E6.5036
G1 X137.435 Y167.815 E6.5472
G1 X136.741 Y167.785 E6.5909
G1 X134.065 Y165.435 E6.8148
G1 X133.946 Y164.752 E6.8584
G1 X133.275 Y164.576 E6.9020
G1 X131.162 Y161.719 E7.1254
G1 X131.188 Y161.020 E7.1694
G1 X130.565 Y160.700 E7.2134
G1 X129.114 Y157.483 E7.4353
G1 X129.284 Y156.793 E7.4799
G1 X128.738 Y156.338 E7.5246
G1 X128.007 Y152.924 E7.7441
G1 X128.318 Y152.270 E7.7896
G1 X127.878 Y151.693 E7.8352
G1 X127.883 Y148.264 E8.0508
G1 X128.330 Y147.657 E8.0981
G1 X128.022 Y146.967 E8.1456
G1 X128.734 Y143.683 E8.3568
G1 X129.301 Y143.163 E8.4052
G1 X129.155 Y142.406 E8.4537
G1 X130.510 Y139.408 E8.6605
G1 X131.186 Y138.988 E8.7106
G1 X131.222 Y138.190 E8.7608
G1 X133.133 Y135.596 E8.9633
G1 X133.886 Y135.307 E9.0140
G1 X134.105 Y134.527 E9.0650
G92 E0.0000
G1 E-5.0000 F1800
; feature inner perimeter
G1 X138.912 Y137.974 F4800
G1 E0.0000 F1800
G92 E0.0000
G1 X138.946 Y137.529 E0.0281 F825
G1 X139.484 Y137.514 E0.0619
G1 X139.915 Y137.428 E0.0895
G1 X140.325 Y137.271 E0.1172
G1 X140.703 Y137.046 E0.1448
G1 X141.037 Y136.760 E0.1724
G1 X141.317 Y136.422 E0.2001
G1 X141.537 Y136.041 E0.2277
G1 X141.749 Y135.463 E0.2664
G1 X142.326 Y135.555 E0.3031
G1 X142.786 Y135.543 E0.3321
G1 X143.154 Y135.480 E0.3555
G1 X143.565 Y135.338 E0.3829
G1 X143.981 Y135.098 E0.4130
G1 X144.258 Y134.883 E0.4351
G1 X144.544 Y134.573 E0.4616
G1 X144.777 Y134.221 E0.4881
G1 X144.886 Y133.978 E0.5049
G1 X145.195 Y134.135 E0.5267
G1 X145.612 Y134.264 E0.5541
G1 X146.047 Y134.322 E0.5817
G1 X146.482 Y134.305 E0.6091
G1 X146.909 Y134.216 E0.6365
G1 X147.316 Y134.055 E0.6640
G1 X147.689 Y133.828 E0.6914
G1 X148.019 Y133.542 E0.7189
G1 X148.283 Y133.220 E0.7450
G1 X148.600 Y133.463 E0.7702
G1 X148.972 Y133.662 E0.7967
G1 X149.371 Y133.797 E0.8232
G1 X149.787 Y133.866 E0.8497
G1 X150.208 Y133.866 E0.8761
G1 X150.624 Y133.797 E0.9027
G1 X151.024 Y133.662 E0.9292
G1 X151.396 Y133.463 E0.9557
G1 X151.752 Y133.190 E0.9839
G1 X152.132 Y133.587 E1.0184
G1 X152.488 Y133.850 E1.0463
G1 X152.885 Y134.048 E1.0741
G1 X153.309 Y134.176 E1.1020
G1 X153.749 Y134.229 E1.1299
G1 X154.192 Y134.207 E1.1577
G1 X154.624 Y134.109 E1.1856
G1 X155.162 Y133.884 E1.2223
G1 X155.471 Y134.366 E1.2582
G1 X155.763 Y134.687 E1.2855
G1 X156.105 Y134.955 E1.3128
G1 X156.486 Y135.161 E1.3401
G1 X156.897 Y135.301 E1.3673
G1 X157.322 Y135.370 E1.3944
G1 X157.758 Y135.367 E1.4218
G1 X158.349 Y135.262 E1.4595
G1 X158.564 Y135.816 E1.4969
G1 X158.783 Y136.184 E1.5238
G1 X159.061 Y136.511 E1.5508
G1 X159.388 Y136.788 E1.5777
G1 X159.537 Y136.876 E1.5886
G1 X159.757 Y137.006 E1.6047
G1 X160.157 Y137.161 E1.6316
G1 X160.577 Y137.247 E1.6586
G1 X161.180 Y137.269 E1.6965
G1 X161.280 Y137.864 E1.7344
G1 X161.419 Y138.269 E1.7614
G1 X161.624 Y138.646 E1.7883
G1 X161.888 Y138.983 E1.8152
G1 X162.204 Y139.273 E1.8422
G1 X162.564 Y139.506 E1.8691
G1 X162.957 Y139.676 E1.8960
G1 X163.535 Y139.819 E1.9335
G1 X163.507 Y140.419 E1.9712
G1 X163.560 Y140.848 E1.9984
G1 X163.683 Y141.263 E2.0257
G1 X163.874 Y141.652 E2.0529
G1 X163.977 Y141.794 E2.0639
G1 X164.128 Y142.003 E2.0801
G1 X164.436 Y142.307 E2.1073
G1 X164.791 Y142.555 E2.1345
G1 X165.311 Y142.801 E2.1707
G1 X165.158 Y143.367 E2.2075
G1 X165.117 Y143.807 E2.2353
G1 X165.138 Y144.070 E2.2519
G1 X165.152 Y144.247 E2.2631
G1 X165.261 Y144.675 E2.2909
G1 X165.441 Y145.079 E2.3187
G1 X165.540 Y145.226 E2.3298
G1 X165.688 Y145.446 E2.3464
G1 X165.994 Y145.765 E2.3742
G1 X166.439 Y146.094 E2.4090
G1 X166.208 Y146.494 E2.4380
G1 X166.056 Y146.922 E2.4666
G1 X165.982 Y147.292 E2.4903
G1 X165.968 Y147.711 E2.5167
G1 X166.022 Y148.128 E2.5431
G1 X166.128 Y148.481 E2.5662
G1 X166.322 Y148.899 E2.5952
G1 X166.570 Y149.250 E2.6222
G1 X166.855 Y149.538 E2.6477
G1 X166.568 Y149.846 E2.6742
G1 X166.328 Y150.209 E2.7015
G1 X166.152 Y150.607 E2.7289
G1 X166.089 Y150.859 E2.7453
G1 X166.046 Y151.029 E2.7563
G1 X166.012 Y151.462 E2.7836
G1 X166.052 Y151.895 E2.8109
G1 X166.096 Y152.064 E2.8219
G1 X166.163 Y152.316 E2.8383
G1 X166.343 Y152.712 E2.8656
G1 X166.542 Y153.004 E2.8878
G1 X166.309 Y153.148 E2.9050
G1 X165.992 Y153.423 E2.9314
G1 X165.724 Y153.747 E2.9578
G1 X165.512 Y154.109 E2.9842
G1 X165.361 Y154.501 E3.0106
G1 X165.276 Y154.912 E3.0370
G1 X165.259 Y155.332 E3.0635
G1 X165.309 Y155.749 E3.0899
G1 X165.472 Y156.306 E3.1263
G1 X164.923 Y156.594 E3.1653
G1 X164.576 Y156.860 E3.1928
G1 X164.397 Y157.052 E3.2093
G1 X164.278 Y157.181 E3.2203
G1 X164.039 Y157.547 E3.2478
G1 X163.865 Y157.949 E3.2753
G1 X163.823 Y158.119 E3.2864
G1 X163.761 Y158.374 E3.3028
G1 X163.731 Y158.810 E3.3303
G1 X163.785 Y159.351 E3.3645
G1 X163.342 Y159.445 E3.3930
G1 X162.946 Y159.601 E3.4197
G1 X162.582 Y159.819 E3.4464
G1 X162.257 Y160.094 E3.4731
G1 X161.983 Y160.418 E3.4999
G1 X161.765 Y160.783 E3.5266
G1 X161.610 Y161.179 E3.5533
G1 X161.522 Y161.595 E3.5800
G1 X161.506 Y161.967 E3.6035
G1 X161.097 Y161.957 E3.6292
G1 X160.660 Y162.020 E3.6569
G1 X160.240 Y162.158 E3.6847
G1 X159.849 Y162.365 E3.7125
G1 X159.500 Y162.635 E3.7403
G1 X159.202 Y162.961 E3.7680
G1 X159.106 Y163.110 E3.7792
G1 X158.963 Y163.333 E3.7958
G1 X158.792 Y163.740 E3.8236
G1 X158.728 Y164.014 E3.8413
G1 X158.060 Y163.925 E3.8836
G1 X157.636 Y163.939 E3.9103
G1 X157.215 Y164.023 E3.9373
G1 X156.814 Y164.176 E3.9643
G1 X156.444 Y164.394 E3.9913
G1 X156.115 Y164.669 E4.0183
G1 X155.836 Y164.996 E4.0452
G1 X155.551 Y165.471 E4.0801
