;Generated with Cura_SteamEngine 15.01
; Default start code
G28 ; Home extruder
G1 Z15 F100
M107 ; Turn off fan
G90 ; Absolute positioning
M82 ; Extruder in absolute mode
M190 S50
; Activate all used extruder
M104 T0 S210
G92 E0 ; Reset extruder position
; Wait for all used extruders to reach temperature
M109 T0 S210
;Layer count: 145
;LAYER:0
M107
G0 F9000 X93.800 Y84.800 Z0.300
;TYPE:SKIRT
G1 F840 X126.200 Y84.800 E1.61644
G1 X126.200 Y130.325 E3.88769
G1 X121.325 Y135.200 E4.23165
G1 X98.675 Y135.200 E5.36166
G1 X93.800 Y130.325 E5.70562
G1 X93.800 Y84.800 E7.97687
G1 F2400 E3.97687
G0 F9000 X97.600 Y88.600
;TYPE:WALL-INNER
G1 F2400 E7.97687
G1 F840 X122.400 Y88.600 E9.21415
G1 X122.400 Y128.752 E11.21734
G1 X119.752 Y131.400 E11.40417
G1 X100.248 Y131.400 E12.37723
G1 X97.600 Y128.752 E12.56406
G1 X97.600 Y88.600 E14.56725
G0 F9000 X101.385 Y94.601
G1 F840 X101.073 Y94.823 E14.58636
G1 X100.804 Y95.096 E14.60548
G1 X100.588 Y95.409 E14.62445
G1 X100.430 Y95.746 E14.64302
G1 X100.324 Y96.143 E14.66352
G1 X100.324 Y96.202 E14.66646
G1 X100.300 Y96.473 E14.68004
G1 X100.300 Y96.539 E14.68333
G1 X100.334 Y96.895 E14.70117
G1 X100.435 Y97.267 E14.72040
G1 X100.601 Y97.614 E14.73959
G1 X100.823 Y97.926 E14.75870
G1 X101.096 Y98.195 E14.77782
G1 X101.409 Y98.411 E14.79679
G1 X101.746 Y98.569 E14.81536
G1 X102.143 Y98.675 E14.83586
G1 X102.202 Y98.675 E14.83881
G1 X102.473 Y98.699 E14.85238
G1 X102.539 Y98.699 E14.85567
G1 X102.895 Y98.665 E14.87351
G1 X103.267 Y98.564 E14.89274
G1 X103.614 Y98.398 E14.91193
G1 X103.926 Y98.176 E14.93104
G1 X104.195 Y97.903 E14.95016
G1 X104.411 Y97.590 E14.96913
G1 X104.569 Y97.253 E14.98770
G1 X104.675 Y96.856 E15.00820
G1 X104.675 Y96.797 E15.01115
G1 X104.699 Y96.527 E15.02467
G1 X104.699 Y96.461 E15.02796
G1 X104.665 Y96.104 E15.04585
G1 X104.564 Y95.732 E15.06508
G1 X104.398 Y95.385 E15.08428
G1 X104.176 Y95.073 E15.10338
G1 X103.903 Y94.804 E15.12250
G1 X103.590 Y94.588 E15.14147
G1 X103.253 Y94.430 E15.16004
G1 X102.856 Y94.324 E15.18054
G1 X102.797 Y94.324 E15.18349
G1 X102.527 Y94.300 E15.19701
G1 X102.461 Y94.300 E15.20030
G1 X102.104 Y94.334 E15.21819
G1 X101.732 Y94.435 E15.23742
G1 X101.385 Y94.601 E15.25662
G0 F9000 X100.326 Y96.144
G0 X100.823 Y97.925
G0 X102.473 Y98.698
G0 X106.379 Y106.253
G1 F840 X105.262 Y106.934 E15.32188
G1 X104.212 Y107.839 E15.39104
G1 X103.347 Y108.887 E15.45883
G1 X103.281 Y108.973 E15.46424
G1 X102.671 Y110.063 E15.52656
G1 X102.599 Y110.206 E15.53455
G1 X102.186 Y111.381 E15.59668
G1 X102.155 Y111.482 E15.60196
G1 X101.941 Y112.727 E15.66498
G1 X101.899 Y113.497 E15.70345
G1 X101.928 Y114.135 E15.73531
G1 X101.928 Y114.201 E15.73861
G1 X102.141 Y115.447 E15.80167
G1 X102.179 Y115.602 E15.80963
G1 X102.602 Y116.803 E15.87316
G1 X103.241 Y117.957 E15.93897
G1 X104.128 Y119.081 E16.01041
G1 X105.103 Y119.945 E16.07540
G1 X105.184 Y120.015 E16.08074
G1 X106.327 Y120.720 E16.14774
G1 X107.537 Y121.213 E16.21292
G1 X107.635 Y121.249 E16.21813
G1 X108.856 Y121.512 E16.28045
G1 X109.014 Y121.540 E16.28845
G1 X109.966 Y121.580 E16.33599
G1 X110.018 Y121.579 E16.33858
G1 X110.350 Y121.595 E16.35517
G1 X111.599 Y121.434 E16.41800
G1 X111.756 Y121.406 E16.42595
G1 X112.978 Y121.033 E16.48969
G1 X114.183 Y120.433 E16.55685
G1 X115.320 Y119.610 E16.62688
G1 X116.257 Y118.639 E16.69420
G1 X117.039 Y117.505 E16.76292
G1 X117.595 Y116.297 E16.82927
G1 X117.640 Y116.195 E16.83483
G1 X117.979 Y114.899 E16.90166
G1 X118.094 Y113.603 E16.96657
G1 X118.102 Y113.497 E16.97188
G1 X117.990 Y112.157 E17.03896
G1 X117.664 Y110.889 E17.10428
G1 X117.633 Y110.786 E17.10965
G1 X117.121 Y109.653 E17.17168
G1 X117.049 Y109.510 E17.17966
G1 X116.331 Y108.448 E17.24362
G1 X115.406 Y107.471 E17.31074
G1 X114.286 Y106.626 E17.38074
G1 X113.113 Y106.028 E17.44643
G1 X112.965 Y105.963 E17.45449
G1 X111.744 Y105.590 E17.51819
G1 X110.453 Y105.417 E17.58317
G1 X110.340 Y105.405 E17.58884
G1 X109.005 Y105.459 E17.65550
G1 X107.722 Y105.730 E17.72092
G1 X107.617 Y105.757 E17.72633
G1 X106.379 Y106.253 E17.79287
G0 F9000 X115.823 Y97.926
G1 F840 X116.096 Y98.195 E17.81199
G1 X116.409 Y98.411 E17.83096
G1 X116.746 Y98.569 E17.84953
G1 X117.143 Y98.675 E17.87003
G1 X117.202 Y98.675 E17.87297
G1 X117.473 Y98.699 E17.88655
G1 X117.539 Y98.699 E17.88984
G1 X117.895 Y98.665 E17.90768
G1 X118.267 Y98.564 E17.92691
G1 X118.614 Y98.398 E17.94610
G1 X118.926 Y98.176 E17.96521
G1 X119.195 Y97.903 E17.98433
G1 X119.411 Y97.590 E18.00330
G1 X119.569 Y97.253 E18.02187
G1 X119.675 Y96.856 E18.04237
G1 X119.675 Y96.797 E18.04531
G1 X119.699 Y96.527 E18.05884
G1 X119.699 Y96.461 E18.06213
G1 X119.665 Y96.104 E18.08002
G1 X119.564 Y95.732 E18.09925
G1 X119.398 Y95.385 E18.11844
G1 X119.176 Y95.073 E18.13755
G1 X118.903 Y94.804 E18.15667
G1 X118.590 Y94.588 E18.17564
G1 X118.253 Y94.430 E18.19421
G1 X117.856 Y94.324 E18.21471
G1 X117.797 Y94.324 E18.21765
G1 X117.527 Y94.300 E18.23118
G1 X117.461 Y94.300 E18.23447
G1 X117.104 Y94.334 E18.25236
G1 X116.732 Y94.435 E18.27159
G1 X116.385 Y94.601 E18.29078
G1 X116.073 Y94.823 E18.30989
G1 X115.804 Y95.096 E18.32901
G1 X115.588 Y95.409 E18.34798
G1 X115.430 Y95.746 E18.36655
G1 X115.324 Y96.143 E18.38705
G1 X115.324 Y96.202 E18.38999
G1 X115.300 Y96.473 E18.40357
G1 X115.300 Y96.539 E18.40686
G1 X115.334 Y96.895 E18.42470
G1 X115.435 Y97.267 E18.44393
G1 X115.601 Y97.614 E18.46312
G1 X115.823 Y97.926 E18.48223
G0 F9000 X118.094 Y113.602
G0 X117.596 Y116.295
G0 X117.461 Y124.800
G1 F840 X117.104 Y124.834 E18.50012
G1 X116.732 Y124.935 E18.51935
G1 X116.385 Y125.101 E18.53854
G1 X116.073 Y125.323 E18.55764
G1 X115.804 Y125.596 E18.57677
G1 X115.588 Y125.909 E18.59574
G1 X115.430 Y126.246 E18.61431
G1 X115.324 Y126.643 E18.63481
G1 X115.324 Y126.702 E18.63775
G1 X115.300 Y126.973 E18.65132
G1 X115.300 Y127.039 E18.65462
G1 X115.334 Y127.395 E18.67246
G1 X115.435 Y127.767 E18.69169
G1 X115.601 Y128.114 E18.71088
G1 X115.823 Y128.426 E18.72998
G1 X116.096 Y128.695 E18.74911
G1 X116.409 Y128.911 E18.76808
G1 X116.746 Y129.069 E18.78665
G1 X117.117 Y129.168 E18.80581
G1 X117.501 Y129.203 E18.82504
G1 X117.895 Y129.165 E18.84479
G1 X118.267 Y129.064 E18.86402
G1 X118.614 Y128.898 E18.88321
G1 X118.926 Y128.676 E18.90232
G1 X119.195 Y128.403 E18.92144
G1 X119.411 Y128.090 E18.94041
G1 X119.569 Y127.753 E18.95898
G1 X119.675 Y127.356 E18.97948
G1 X119.675 Y127.297 E18.98242
G1 X119.699 Y127.027 E18.99595
G1 X119.699 Y126.961 E18.99924
G1 X119.665 Y126.604 E19.01713
G1 X119.564 Y126.232 E19.03636
G1 X119.398 Y125.885 E19.05555
G1 X119.176 Y125.573 E19.07466
G1 X118.903 Y125.304 E19.09378
G1 X118.590 Y125.088 E19.11275
G1 X118.253 Y124.930 E19.13132
G1 X117.856 Y124.824 E19.15182
G1 X117.797 Y124.824 E19.15476
G1 X117.527 Y124.800 E19.16829
G1 X117.461 Y124.800 E19.17158
G0 F9000 X104.665 Y126.604
G1 F840 X104.564 Y126.232 E19.19081
G1 X104.398 Y125.885 E19.21000
G1 X104.176 Y125.573 E19.22911
G1 X103.903 Y125.304 E19.24823
G1 X103.590 Y125.088 E19.26720
G1 X103.253 Y124.930 E19.28577
G1 X102.856 Y124.824 E19.30627
G1 X102.797 Y124.824 E19.30921
G1 X102.527 Y124.800 E19.32274
G1 X102.461 Y124.800 E19.32603
G1 X102.104 Y124.834 E19.34392
G1 X101.732 Y124.935 E19.36315
G1 X101.385 Y125.101 E19.38234
G1 X101.073 Y125.323 E19.40145
G1 X100.804 Y125.596 E19.42057
G1 X100.588 Y125.909 E19.43954
G1 X100.430 Y126.246 E19.45811
G1 X100.324 Y126.643 E19.47861
G1 X100.324 Y126.702 E19.48155
G1 X100.300 Y126.973 E19.49513
G1 X100.300 Y127.039 E19.49842
G1 X100.334 Y127.395 E19.51626
G1 X100.435 Y127.767 E19.53549
G1 X100.601 Y128.114 E19.55468
G1 X100.823 Y128.426 E19.57379
G1 X101.096 Y128.695 E19.59291
G1 X101.409 Y128.911 E19.61188
G1 X101.746 Y129.069 E19.63045
G1 X102.117 Y129.168 E19.64961
G1 X102.501 Y129.203 E19.66884
G1 X102.895 Y129.165 E19.68859
G1 X103.267 Y129.064 E19.70782
G1 X103.614 Y128.898 E19.72701
G1 X103.926 Y128.676 E19.74612
G1 X104.195 Y128.403 E19.76524
G1 X104.411 Y128.090 E19.78421
G1 X104.569 Y127.753 E19.80278
G1 X104.675 Y127.356 E19.82328
G1 X104.675 Y127.297 E19.82623
G1 X104.699 Y127.027 E19.83975
G1 X104.699 Y126.961 E19.84304
G1 X104.665 Y126.604 E19.86093
G0 F9000 X104.275 Y127.273
;TYPE:WALL-OUTER
G1 F840 X104.299 Y127.009 E19.87416
G1 X104.299 Y126.980 E19.87560
G1 X104.270 Y126.676 E19.89084
G1 X104.187 Y126.372 E19.90656
G1 X104.052 Y126.088 E19.92225
G1 X103.871 Y125.834 E19.93781
G1 X103.647 Y125.613 E19.95351
G1 X103.390 Y125.436 E19.96908
G1 X103.116 Y125.307 E19.98419
G1 X102.803 Y125.224 E20.00034
G1 X102.773 Y125.224 E20.00184
G1 X102.509 Y125.200 E20.01506
G1 X102.480 Y125.200 E20.01651
G1 X102.176 Y125.229 E20.03175
G1 X101.872 Y125.312 E20.04747
G1 X101.588 Y125.447 E20.06316
G1 X101.334 Y125.628 E20.07872
G1 X101.113 Y125.852 E20.09442
G1 X100.936 Y126.109 E20.10998
G1 X100.807 Y126.383 E20.12509
G1 X100.724 Y126.696 E20.14125
G1 X100.724 Y126.726 E20.14275
G1 X100.700 Y126.991 E20.15602
G1 X100.700 Y127.020 E20.15747
G1 X100.729 Y127.323 E20.17265
G1 X100.812 Y127.627 E20.18838
G1 X100.947 Y127.911 E20.20406
G1 X101.128 Y128.165 E20.21962
G1 X101.352 Y128.386 E20.23532
G1 X101.609 Y128.563 E20.25089
G1 X101.883 Y128.692 E20.26600
G1 X102.187 Y128.773 E20.28170
G1 X102.500 Y128.801 E20.29737
G1 X102.823 Y128.770 E20.31356
G1 X103.127 Y128.687 E20.32928
G1 X103.411 Y128.552 E20.34497
G1 X103.665 Y128.371 E20.36053
G1 X103.886 Y128.147 E20.37623
G1 X104.063 Y127.890 E20.39180
G1 X104.192 Y127.616 E20.40691
G1 X104.275 Y127.303 E20.42306
G1 X104.275 Y127.273 E20.42456
G0 F9000 X104.574 Y127.280
G0 X103.925 Y128.676
G0 X100.229 Y131.523
G0 X100.082 Y131.800
G1 F840 X97.200 Y128.918 E20.62790
G1 X97.200 Y88.200 E22.65933
G1 X122.800 Y88.200 E23.93652
G1 X122.800 Y128.918 E25.96795
G1 X119.918 Y131.800 E26.17129
G1 X100.082 Y131.800 E27.16091
G0 F9000 X100.229 Y131.523
G0 X104.410 Y128.089
G0 X104.664 Y126.605
G0 X106.350 Y120.617
G0 X106.508 Y120.362
G1 F840 X107.682 Y120.840 E27.22415
G1 X107.747 Y120.864 E27.22761
G1 X108.933 Y121.119 E27.28813
G1 X109.057 Y121.141 E27.29441
G1 X109.970 Y121.180 E27.34001
G1 X110.014 Y121.179 E27.34220
G1 X110.333 Y121.194 E27.35813
G1 X111.538 Y121.039 E27.41875
G1 X112.829 Y120.660 E27.48587
G1 X113.975 Y120.090 E27.54973
G1 X115.057 Y119.307 E27.61636
G1 X115.946 Y118.385 E27.68026
G1 X116.699 Y117.293 E27.74644
G1 X117.230 Y116.134 E27.81004
G1 X117.261 Y116.064 E27.81386
G1 X117.584 Y114.830 E27.87750
G1 X117.695 Y113.571 E27.94055
G1 X117.701 Y113.499 E27.94416
G1 X117.594 Y112.224 E28.00799
G1 X117.279 Y110.996 E28.07124
G1 X117.258 Y110.927 E28.07484
G1 X116.760 Y109.825 E28.13517
G1 X116.703 Y109.712 E28.14149
G1 X116.018 Y108.699 E28.20249
G1 X115.139 Y107.770 E28.26630
G1 X114.073 Y106.967 E28.33288
G1 X112.942 Y106.389 E28.39625
G1 X112.826 Y106.338 E28.40257
G1 X111.659 Y105.982 E28.46344
G1 X110.404 Y105.814 E28.52661
G1 X110.325 Y105.806 E28.53058
G1 X109.055 Y105.857 E28.59399
G1 X107.813 Y106.119 E28.65732
G1 X107.742 Y106.138 E28.66098
G1 X106.559 Y106.612 E28.72456
G1 X105.477 Y107.271 E28.78777
G1 X105.418 Y107.311 E28.79132
G1 X104.500 Y108.118 E28.85230
G1 X103.660 Y109.136 E28.91815
G1 X103.024 Y110.251 E28.98219
G1 X102.968 Y110.363 E28.98844
G1 X102.566 Y111.505 E29.04884
G1 X102.545 Y111.574 E29.05244
G1 X102.339 Y112.772 E29.11308
G1 X102.300 Y113.499 E29.14941
G1 X102.328 Y114.135 E29.18117
G1 X102.328 Y114.167 E29.18276
G1 X102.533 Y115.366 E29.24345
G1 X102.968 Y116.638 E29.31052
G1 X103.584 Y117.750 E29.37394
G1 X104.419 Y118.804 E29.44103
G1 X105.366 Y119.644 E29.50418
G1 X105.421 Y119.691 E29.50779
G1 X106.508 Y120.362 E29.57152
G0 F9000 X106.350 Y120.617
G0 X115.666 Y125.981
G0 X115.936 Y126.109
G1 F840 X115.807 Y126.383 E29.58663
G1 X115.724 Y126.696 E29.60279
G1 X115.724 Y126.726 E29.60428
G1 X115.700 Y126.991 E29.61756
G1 X115.700 Y127.020 E29.61900
G1 X115.729 Y127.323 E29.63419
G1 X115.812 Y127.627 E29.64991
G1 X115.947 Y127.911 E29.66560
G1 X116.128 Y128.165 E29.68116
G1 X116.352 Y128.386 E29.69686
G1 X116.609 Y128.563 E29.71243
G1 X116.883 Y128.692 E29.72754
G1 X117.187 Y128.773 E29.74323
G1 X117.500 Y128.801 E29.75891
G1 X117.823 Y128.770 E29.77510
G1 X118.127 Y128.687 E29.79082
G1 X118.411 Y128.552 E29.80651
G1 X118.665 Y128.371 E29.82207
G1 X118.886 Y128.147 E29.83777
G1 X119.063 Y127.890 E29.85334
G1 X119.192 Y127.616 E29.86845
G1 X119.275 Y127.303 E29.88460
G1 X119.275 Y127.273 E29.88610
G1 X119.299 Y127.009 E29.89932
G1 X119.299 Y126.980 E29.90077
G1 X119.270 Y126.676 E29.91601
G1 X119.187 Y126.372 E29.93173
G1 X119.052 Y126.088 E29.94742
G1 X118.871 Y125.834 E29.96298
G1 X118.647 Y125.613 E29.97867
G1 X118.390 Y125.436 E29.99424
G1 X118.116 Y125.307 E30.00935
G1 X117.803 Y125.224 E30.02551
G1 X117.773 Y125.224 E30.02700
G1 X117.509 Y125.200 E30.04023
G1 X117.480 Y125.200 E30.04168
G1 X117.176 Y125.229 E30.05691
G1 X116.872 Y125.312 E30.07263
G1 X116.588 Y125.447 E30.08832
G1 X116.334 Y125.628 E30.10388
G1 X116.113 Y125.852 E30.11958
G1 X115.936 Y126.109 E30.13515
G0 F9000 X115.666 Y125.981
G0 X118.101 Y113.497
G0 X117.632 Y110.786
G0 X117.219 Y98.574
G0 X117.226 Y98.275
G1 F840 X117.491 Y98.299 E30.14842
G1 X117.520 Y98.299 E30.14987
G1 X117.823 Y98.270 E30.16506
G1 X118.127 Y98.187 E30.18078
G1 X118.411 Y98.052 E30.19647
G1 X118.665 Y97.871 E30.21203
G1 X118.886 Y97.647 E30.22773
G1 X119.063 Y97.390 E30.24329
G1 X119.192 Y97.116 E30.25840
G1 X119.275 Y96.803 E30.27456
G1 X119.275 Y96.773 E30.27606
G1 X119.299 Y96.509 E30.28928
G1 X119.299 Y96.480 E30.29073
G1 X119.270 Y96.176 E30.30596
G1 X119.187 Y95.872 E30.32169
G1 X119.052 Y95.588 E30.33737
G1 X118.871 Y95.334 E30.35293
G1 X118.647 Y95.113 E30.36863
G1 X118.390 Y94.936 E30.38420
G1 X118.116 Y94.807 E30.39931
G1 X117.803 Y94.724 E30.41547
G1 X117.773 Y94.724 E30.41696
G1 X117.509 Y94.700 E30.43019
G1 X117.480 Y94.700 E30.43163
G1 X117.176 Y94.729 E30.44687
G1 X116.872 Y94.812 E30.46259
G1 X116.588 Y94.947 E30.47828
G1 X116.334 Y95.128 E30.49384
G1 X116.113 Y95.352 E30.50954
G1 X115.936 Y95.609 E30.52511
G1 X115.807 Y95.883 E30.54022
G1 X115.724 Y96.196 E30.55637
G1 X115.724 Y96.226 E30.55787
G1 X115.700 Y96.491 E30.57114
G1 X115.700 Y96.520 E30.57259
G1 X115.729 Y96.823 E30.58778
G1 X115.812 Y97.127 E30.60350
G1 X115.947 Y97.411 E30.61919
G1 X116.128 Y97.665 E30.63475
G1 X116.352 Y97.886 E30.65045
G1 X116.609 Y98.063 E30.66601
G1 X116.883 Y98.192 E30.68112
G1 X117.196 Y98.275 E30.69728
G1 X117.226 Y98.275 E30.69878
G0 F9000 X117.219 Y98.574
G0 X104.574 Y96.780
G0 X104.275 Y96.773
G1 F840 X104.299 Y96.509 E30.71200
G1 X104.299 Y96.480 E30.71345
G1 X104.270 Y96.176 E30.72868
G1 X104.187 Y95.872 E30.74440
G1 X104.052 Y95.588 E30.76009
G1 X103.871 Y95.334 E30.77565
G1 X103.647 Y95.113 E30.79135
G1 X103.390 Y94.936 E30.80692
G1 X103.116 Y94.807 E30.82203
G1 X102.803 Y94.724 E30.83819
G1 X102.773 Y94.724 E30.83968
G1 X102.509 Y94.700 E30.85291
G1 X102.480 Y94.700 E30.85435
G1 X102.176 Y94.729 E30.86959
G1 X101.872 Y94.812 E30.88531
G1 X101.588 Y94.947 E30.90100
G1 X101.334 Y95.128 E30.91656
G1 X101.113 Y95.352 E30.93226
G1 X100.936 Y95.609 E30.94783
G1 X100.807 Y95.883 E30.96294
G1 X100.724 Y96.196 E30.97909
G1 X100.724 Y96.226 E30.98059
G1 X100.700 Y96.491 E30.99386
G1 X100.700 Y96.520 E30.99531
G1 X100.729 Y96.823 E31.01050
G1 X100.812 Y97.127 E31.02622
G1 X100.947 Y97.411 E31.04191
G1 X101.128 Y97.665 E31.05747
G1 X101.352 Y97.886 E31.07317
G1 X101.609 Y98.063 E31.08873
G1 X101.883 Y98.192 E31.10384
G1 X102.196 Y98.275 E31.12000
G1 X102.226 Y98.275 E31.12150
G1 X102.491 Y98.299 E31.13477
G1 X102.520 Y98.299 E31.13622
G1 X102.823 Y98.270 E31.15140
