; G-Code generated by Simplify3D(R) Version 4.1.0
; Dec 19, 2018 at 10:26:41 AM
; Settings Summary
;   processName,Process1
;   applyToModels,FishFeeder_Trichter M27x2
;   profileName,Creality Ender 3 (modified)
;   profileVersion,2018-12-18 18:14:14
;   baseProfile,
;   printMaterial,PLA
;   printQuality,Medium
;   printExtruders,
;   extruderName,Primary Extruder
;   extruderToolheadNumber,0
;   extruderDiameter,0.4
;   extruderAutoWidth,0
;   extruderWidth,0.35
;   extrusionMultiplier,1.15
;   extruderUseRetract,1
;   extruderRetractionDistance,4
;   extruderExtraRestartDistance,0
;   extruderRetractionZLift,0
;   extruderRetractionSpeed,2400
;   extruderUseCoasting,0
;   extruderCoastingDistance,0.2
;   extruderUseWipe,0
;   extruderWipeDistance,5
;   primaryExtruder,0
;   layerHeight,0.2
;   topSolidLayers,3
;   bottomSolidLayers,3
;   perimeterOutlines,2
;   printPerimetersInsideOut,1
;   startPointOption,2
;   startPointOriginX,0
;   startPointOriginY,0
;   sequentialIslands,0
;   spiralVaseMode,0
;   firstLayerHeightPercentage,120
;   firstLayerWidthPercentage,150
;   firstLayerUnderspeed,0.5
;   useRaft,0
;   raftExtruder,0
;   raftTopLayers,3
;   raftBaseLayers,2
;   raftOffset,3
;   raftSeparationDistance,0.14
;   raftTopInfill,100
;   aboveRaftSpeedMultiplier,0.3
;   useSkirt,1
;   skirtExtruder,0
;   skirtLayers,1
;   skirtOutlines,2
;   skirtOffset,4
;   usePrimePillar,0
;   primePillarExtruder,999
;   primePillarWidth,12
;   primePillarLocation,7
;   primePillarSpeedMultiplier,1
;   useOozeShield,0
;   oozeShieldExtruder,999
;   oozeShieldOffset,2
;   oozeShieldOutlines,1
;   oozeShieldSidewallShape,1
;   oozeShieldSidewallAngle,30
;   oozeShieldSpeedMultiplier,1
;   infillExtruder,0
;   internalInfillPattern,Rectilinear
;   externalInfillPattern,Rectilinear
;   infillPercentage,30
;   outlineOverlapPercentage,15
;   infillExtrusionWidthPercentage,100
;   minInfillLength,5
;   infillLayerInterval,1
;   internalInfillAngles,45,-45
;   overlapInternalInfillAngles,0
;   externalInfillAngles,45,-45
;   generateSupport,0
;   supportExtruder,0
;   supportInfillPercentage,30
;   supportExtraInflation,0
;   supportBaseLayers,0
;   denseSupportExtruder,0
;   denseSupportLayers,0
;   denseSupportInfillPercentage,70
;   supportLayerInterval,1
;   supportHorizontalPartOffset,0.3
;   supportUpperSeparationLayers,1
;   supportLowerSeparationLayers,1
;   supportType,0
;   supportGridSpacing,2
;   maxOverhangAngle,45
;   supportAngles,0
;   temperatureName,Primary Extruder,Heated Bed
;   temperatureNumber,0,0
;   temperatureSetpointCount,2,2
;   temperatureSetpointLayers,1,2,1,2
;   temperatureSetpointTemperatures,210,190,60,50
;   temperatureStabilizeAtStartup,1,1
;   temperatureHeatedBed,0,1
;   fanLayers,1,2
;   fanSpeeds,0,100
;   blipFanToFullPower,0
;   adjustSpeedForCooling,1
;   minSpeedLayerTime,15
;   minCoolingSpeedSlowdown,20
;   increaseFanForCooling,0
;   minFanLayerTime,45
;   maxCoolingFanSpeed,100
;   increaseFanForBridging,0
;   bridgingFanSpeed,100
;   use5D,1
;   relativeEdistances,0
;   allowEaxisZeroing,1
;   independentExtruderAxes,0
;   includeM10123,0
;   stickySupport,1
;   applyToolheadOffsets,0
;   gcodeXoffset,0
;   gcodeYoffset,0
;   gcodeZoffset,0
;   overrideMachineDefinition,1
;   machineTypeOverride,0
;   strokeXoverride,220
;   strokeYoverride,220
;   strokeZoverride,250
;   originOffsetXoverride,-5
;   originOffsetYoverride,-5
;   originOffsetZoverride,0
;   homeXdirOverride,-1
;   homeYdirOverride,-1
;   homeZdirOverride,-1
;   flipXoverride,1
;   flipYoverride,-1
;   flipZoverride,1
;   toolheadOffsets,0,0|0,0|0,0|0,0|0,0|0,0
;   overrideFirmwareConfiguration,1
;   firmwareTypeOverride,RepRap (Marlin/Repetier/Sprinter)
;   GPXconfigOverride,r2
;   baudRateOverride,115200
;   overridePrinterModels,1
;   printerModelsOverride
;   startingGcode,G28 ; home all axes,G1 X5 Y10 Z0.2 F3000 ; get ready to prime,G92 E0 ; reset extrusion distance,G1 X160 E15 F600 ; prime nozzle,G1 X180 F5000 ; quick wipe
;   layerChangeGcode,
;   retractionGcode,
;   toolChangeGcode,
;   endingGcode,G28 X0 ; home X axis,M106 S0 ; turn off cooling fan,M104 S0 ; turn off extruder,M140 S0 ; turn off bed,M84 ; disable motors
;   exportFileFormat,gcode
;   celebration,0
;   celebrationSong,Random Song
;   postProcessing,
;   defaultSpeed,2000
;   outlineUnderspeed,0.5
;   solidInfillUnderspeed,0.8
;   supportUnderspeed,0.8
;   rapidXYspeed,4800
;   rapidZspeed,1000
;   minBridgingArea,50
;   bridgingExtraInflation,0
;   bridgingExtrusionMultiplier,1
;   bridgingSpeedMultiplier,1
;   useFixedBridgingAngle,0
;   fixedBridgingAngle,0
;   applyBridgingToPerimeters,0
;   filamentDiameters,1.75|1.75|1.75|1.75|1.75|1.75
;   filamentPricesPerKg,46|46|46|46|46|46
;   filamentDensities,1.25|1.25|1.25|1.25|1.25|1.25
;   useMinPrintHeight,0
;   minPrintHeight,0
;   useMaxPrintHeight,0
;   maxPrintHeight,0
;   useDiaphragm,0
;   diaphragmLayerInterval,20
;   robustSlicing,1
;   mergeAllIntoSolid,0
;   onlyRetractWhenCrossingOutline,1
;   retractBetweenLayers,1
;   useRetractionMinTravel,0
;   retractionMinTravel,3
;   retractWhileWiping,0
;   onlyWipeOutlines,1
;   avoidCrossingOutline,0
;   maxMovementDetourFactor,3
;   toolChangeRetractionDistance,12
;   toolChangeExtraRestartDistance,-0.5
;   toolChangeRetractionSpeed,600
;   externalThinWallType,0
;   internalThinWallType,2
;   thinWallAllowedOverlapPercentage,10
;   singleExtrusionMinLength,1
;   singleExtrusionMinPrintingWidthPercentage,50
;   singleExtrusionMaxPrintingWidthPercentage,200
;   singleExtrusionEndpointExtension,0.2
;   horizontalSizeCompensation,0
G90
M82
M106 S0
M140 S60
M190 S60
M104 S210 T0
M109 S210 T0
G28 ; home all axes
G1 X5 Y10 Z0.2 F3000 ; get ready to prime
G92 E0 ; reset extrusion distance
G1 X160 E15 F600 ; prime nozzle
G1 X180 F5000 ; quick wipe
; process Process1
; layer 1, Z = 0.240
T0
G92 E0.0000
G1 E-4.0000 F2400
; feature skirt
; tool H0.240 W0.525
G1 Z0.240 F1000
G1 X100.859 Y130.675 F4800
G1 E0.0000 F2400
G92 E0.0000
G1 X130.825 Y130.675 E1.8052 F1000
G1 X133.629 Y133.480 E2.0442
G1 X133.629 Y164.415 E3.9078
G1 X132.900 Y166.175 E4.0225
G1 X128.553 Y170.522 E4.3928
G1 X126.794 Y171.250 E4.5076
G1 X104.889 Y171.250 E5.8272
G1 X103.130 Y170.522 E5.9419
G1 X98.783 Y166.175 E6.3122
G1 X98.054 Y164.415 E6.4270
G1 X98.054 Y133.480 E8.2906
G1 X100.859 Y130.675 E8.5295
G92 E0.0000
G1 E-4.0000 F2400
G1 X101.076 Y131.200 F4800
G1 E0.0000 F2400
G92 E0.0000
G1 X130.607 Y131.200 E1.7790 F1000
G1 X133.104 Y133.697 E1.9918
G1 X133.104 Y164.311 E3.8360
G1 X132.455 Y165.877 E3.9381
G1 X128.256 Y170.077 E4.2959
G1 X126.689 Y170.725 E4.3980
G1 X104.994 Y170.725 E5.7050
G1 X103.427 Y170.077 E5.8072
G1 X99.228 Y165.877 E6.1649
G1 X98.579 Y164.311 E6.2671
G1 X98.579 Y133.697 E8.1113
G1 X101.076 Y131.200 E8.3240
G92 E0.0000
G1 E-4.0000 F2400
; feature inner perimeter
G1 X103.629 Y136.250 F4800
G1 E0.0000 F2400
G92 E0.0000
G1 X128.054 Y136.250 E1.4714 F750
G1 X128.054 Y163.137 E3.0911
G1 X125.515 Y165.675 E3.3074
G1 X106.168 Y165.675 E4.4730
G1 X103.629 Y163.137 E4.6892
G1 X103.629 Y136.250 E6.3089
; feature outer perimeter
G1 X103.104 Y135.725 F4800
G92 E0.0000
G1 X128.579 Y135.725 E1.5347 F500
G1 X128.579 Y163.354 E3.1991
G1 X125.733 Y166.200 E3.4416
G1 X105.950 Y166.200 E4.6333
G1 X103.104 Y163.354 E4.8758
G1 X103.104 Y135.725 E6.5402
; feature inner perimeter
G1 X105.526 Y138.189 F4800
G92 E0.0000
G1 X105.289 Y138.528 E0.0249 F750
G1 X105.114 Y138.902 E0.0498
G1 X105.007 Y139.301 E0.0747
G1 X104.971 Y139.713 E0.0996
G1 X105.007 Y140.125 E0.1245
G1 X105.066 Y140.343 E0.1381
G1 X105.114 Y140.524 E0.1494
G1 X105.289 Y140.898 E0.1742
G1 X105.526 Y141.237 E0.1991
G1 X105.818 Y141.529 E0.2240
G1 X106.156 Y141.766 E0.2489
G1 X106.531 Y141.941 E0.2738
G1 X106.930 Y142.047 E0.2987
G1 X107.342 Y142.083 E0.3236
G1 X107.753 Y142.047 E0.3485
G1 X108.152 Y141.941 E0.3734
G1 X108.527 Y141.766 E0.3983
G1 X108.865 Y141.529 E0.4232
G1 X109.157 Y141.237 E0.4481
G1 X109.394 Y140.898 E0.4730
G1 X109.490 Y140.694 E0.4866
G1 X109.569 Y140.524 E0.4979
G1 X109.676 Y140.125 E0.5227
G1 X109.712 Y139.713 E0.5476
G1 X109.676 Y139.301 E0.5725
G1 X109.569 Y138.902 E0.5974
G1 X109.394 Y138.528 E0.6223
G1 X109.157 Y138.189 E0.6472
G1 X108.865 Y137.897 E0.6721
G1 X108.527 Y137.660 E0.6970
G1 X108.152 Y137.485 E0.7219
G1 X107.753 Y137.378 E0.7468
G1 X107.342 Y137.342 E0.7717
G1 X106.930 Y137.378 E0.7966
G1 X106.531 Y137.485 E0.8215
G1 X106.156 Y137.660 E0.8464
G1 X105.818 Y137.897 E0.8712
G1 X105.526 Y138.189 E0.8961
; feature outer perimeter
G1 X105.929 Y138.528 F4800
G92 E0.0000
G1 X105.745 Y138.791 E0.0194 F500
G1 X105.609 Y139.082 E0.0387
G1 X105.526 Y139.393 E0.0581
G1 X105.498 Y139.713 E0.0774
G1 X105.526 Y140.033 E0.0968
G1 X105.573 Y140.207 E0.1076
G1 X105.609 Y140.343 E0.1162
G1 X105.745 Y140.635 E0.1355
G1 X105.929 Y140.898 E0.1549
G1 X106.157 Y141.125 E0.1742
G1 X106.420 Y141.310 E0.1936
G1 X106.711 Y141.445 E0.2129
G1 X107.021 Y141.528 E0.2323
G1 X107.342 Y141.556 E0.2517
G1 X107.662 Y141.528 E0.2710
G1 X107.972 Y141.445 E0.2904
G1 X108.263 Y141.310 E0.3097
G1 X108.527 Y141.125 E0.3291
G1 X108.754 Y140.898 E0.3485
G1 X108.938 Y140.635 E0.3678
G1 X109.014 Y140.472 E0.3786
G1 X109.074 Y140.343 E0.3872
G1 X109.157 Y140.033 E0.4065
G1 X109.185 Y139.713 E0.4259
G1 X109.157 Y139.393 E0.4452
G1 X109.074 Y139.082 E0.4646
G1 X108.938 Y138.791 E0.4840
G1 X108.754 Y138.528 E0.5033
G1 X108.527 Y138.301 E0.5227
G1 X108.263 Y138.116 E0.5420
G1 X107.972 Y137.981 E0.5614
G1 X107.662 Y137.897 E0.5808
G1 X107.342 Y137.869 E0.6001
G1 X107.021 Y137.897 E0.6195
G1 X106.711 Y137.981 E0.6388
G1 X106.420 Y138.116 E0.6582
G1 X106.157 Y138.301 E0.6775
G1 X105.929 Y138.528 E0.6969
G92 E0.0000
G1 E-4.0000 F2400
; feature inner perimeter
G1 X111.118 Y144.150 F4800
G1 E0.0000 F2400
G92 E0.0000
G1 X110.066 Y145.018 E0.0822 F750
G1 X109.208 Y145.991 E0.1604
G1 X108.513 Y147.088 E0.2386
G1 X107.978 Y148.338 E0.3205
G1 X107.654 Y149.669 E0.4030
G1 X107.552 Y150.963 E0.4812
G1 X107.654 Y152.257 E0.5594
G1 X107.976 Y153.583 E0.6416
G1 X108.514 Y154.840 E0.7240
G1 X109.251 Y155.988 E0.8061
G1 X110.114 Y156.956 E0.8843
G1 X111.039 Y157.711 E0.9562
G1 X111.194 Y157.824 E0.9677
G1 X112.302 Y158.459 E1.0447
G1 X113.516 Y158.920 E1.1229
G1 X114.853 Y159.194 E1.2052
G1 X116.217 Y159.243 E1.2874
G1 X117.505 Y159.084 E1.3655
G1 X118.751 Y158.725 E1.4437
G1 X119.925 Y158.174 E1.5218
G1 X121.054 Y157.408 E1.6040
G1 X122.043 Y156.465 E1.6863
G1 X122.863 Y155.370 E1.7687
G1 X123.489 Y154.158 E1.8509
G1 X123.895 Y152.926 E1.9290
G1 X124.087 Y151.749 E2.0009
G1 X124.107 Y151.559 E2.0124
G1 X124.107 Y150.347 E2.0854
G1 X123.896 Y149.001 E2.1675
G1 X123.464 Y147.703 E2.2499
G1 X122.825 Y146.498 E2.3321
G1 X122.043 Y145.462 E2.4102
G1 X121.108 Y144.562 E2.4884
G1 X119.987 Y143.783 E2.5707
G1 X118.752 Y143.201 E2.6529
G1 X117.500 Y142.841 E2.7314
G1 X116.217 Y142.683 E2.8093
G1 X114.853 Y142.732 E2.8915
G1 X113.516 Y143.006 E2.9737
G1 X112.301 Y143.467 E3.0520
G1 X111.118 Y144.150 E3.1343
; feature outer perimeter
G1 X111.419 Y144.583 F4800
G92 E0.0000
G1 X110.432 Y145.396 E0.0770 F500
G1 X109.629 Y146.307 E0.1502
G1 X108.979 Y147.333 E0.2234
G1 X108.478 Y148.505 E0.3001
G1 X108.174 Y149.752 E0.3775
G1 X108.078 Y150.963 E0.4506
G1 X108.174 Y152.174 E0.5238
G1 X108.476 Y153.417 E0.6009
G1 X108.980 Y154.593 E0.6780
G1 X109.670 Y155.669 E0.7550
G1 X110.478 Y156.576 E0.8281
G1 X111.359 Y157.295 E0.8966
G1 X111.480 Y157.382 E0.9056
G1 X112.527 Y157.983 E0.9784
G1 X113.663 Y158.414 E1.0515
G1 X114.916 Y158.671 E1.1286
G1 X116.194 Y158.717 E1.2056
G1 X117.399 Y158.568 E1.2788
G1 X118.566 Y158.232 E1.3519
G1 X119.665 Y157.716 E1.4251
G1 X120.723 Y156.998 E1.5021
G1 X121.649 Y156.115 E1.5792
G1 X122.416 Y155.090 E1.6563
G1 X123.003 Y153.954 E1.7333
G1 X123.384 Y152.801 E1.8065
G1 X123.566 Y151.679 E1.8750
G1 X123.582 Y151.531 E1.8839
G1 X123.582 Y150.388 E1.9528
G1 X123.384 Y149.125 E2.0298
G1 X122.980 Y147.911 E2.1069
G1 X122.381 Y146.781 E2.1840
G1 X121.649 Y145.811 E2.2571
G1 X120.774 Y144.969 E2.3303
G1 X119.723 Y144.240 E2.4074
G1 X118.566 Y143.694 E2.4844
G1 X117.394 Y143.357 E2.5579
G1 X116.194 Y143.209 E2.6307
G1 X114.916 Y143.255 E2.7078
G1 X113.663 Y143.512 E2.7848
G1 X112.527 Y143.943 E2.8580
G1 X111.419 Y144.583 E2.9351
; feature inner perimeter
G1 X122.114 Y140.524 F4800
G92 E0.0000
G1 X122.289 Y140.898 E0.0249 F750
G1 X122.526 Y141.237 E0.0498
G1 X122.818 Y141.529 E0.0747
G1 X123.156 Y141.766 E0.0996
G1 X123.531 Y141.941 E0.1245
G1 X123.930 Y142.047 E0.1494
G1 X124.342 Y142.083 E0.1742
G1 X124.753 Y142.047 E0.1991
G1 X125.152 Y141.941 E0.2240
G1 X125.527 Y141.766 E0.2489
G1 X125.865 Y141.529 E0.2738
G1 X126.157 Y141.237 E0.2987
G1 X126.394 Y140.898 E0.3236
G1 X126.569 Y140.524 E0.3485
G1 X126.676 Y140.125 E0.3734
G1 X126.712 Y139.713 E0.3983
G1 X126.676 Y139.301 E0.4232
G1 X126.569 Y138.902 E0.4481
G1 X126.394 Y138.528 E0.4730
G1 X126.157 Y138.189 E0.4979
G1 X125.865 Y137.897 E0.5227
G1 X125.527 Y137.660 E0.5476
G1 X125.152 Y137.485 E0.5725
G1 X124.753 Y137.378 E0.5974
G1 X124.342 Y137.342 E0.6223
G1 X123.930 Y137.378 E0.6472
G1 X123.531 Y137.485 E0.6721
G1 X123.156 Y137.660 E0.6970
G1 X122.818 Y137.897 E0.7219
G1 X122.526 Y138.189 E0.7468
G1 X122.289 Y138.528 E0.7717
G1 X122.114 Y138.902 E0.7966
G1 X122.007 Y139.301 E0.8215
G1 X121.971 Y139.713 E0.8463
G1 X122.007 Y140.125 E0.8712
G1 X122.114 Y140.524 E0.8961
; feature outer perimeter
G1 X122.609 Y140.343 F4800
G92 E0.0000
G1 X122.745 Y140.635 E0.0194 F500
G1 X122.929 Y140.898 E0.0387
G1 X123.157 Y141.125 E0.0581
G1 X123.420 Y141.310 E0.0774
G1 X123.711 Y141.445 E0.0968
G1 X124.021 Y141.528 E0.1162
G1 X124.342 Y141.556 E0.1355
G1 X124.662 Y141.528 E0.1549
G1 X124.972 Y141.445 E0.1742
G1 X125.263 Y141.310 E0.1936
G1 X125.527 Y141.125 E0.2129
G1 X125.754 Y140.898 E0.2323
G1 X125.938 Y140.635 E0.2517
G1 X126.074 Y140.343 E0.2710
G1 X126.157 Y140.033 E0.2904
G1 X126.185 Y139.713 E0.3097
G1 X126.157 Y139.393 E0.3291
G1 X126.074 Y139.082 E0.3485
G1 X125.938 Y138.791 E0.3678
G1 X125.754 Y138.528 E0.3872
G1 X125.527 Y138.301 E0.4065
G1 X125.263 Y138.116 E0.4259
G1 X124.972 Y137.981 E0.4452
G1 X124.662 Y137.897 E0.4646
G1 X124.342 Y137.869 E0.4840
G1 X124.021 Y137.897 E0.5033
G1 X123.711 Y137.981 E0.5227
G1 X123.420 Y138.116 E0.5420
G1 X123.157 Y138.301 E0.5614
G1 X122.929 Y138.528 E0.5808
G1 X122.745 Y138.791 E0.6001
G1 X122.609 Y139.082 E0.6195
G1 X122.526 Y139.393 E0.6388
G1 X122.498 Y139.713 E0.6582
G1 X122.526 Y140.033 E0.6775
G1 X122.609 Y140.343 E0.6969
; feature inner perimeter
G1 X124.342 Y159.842 F4800
G92 E0.0000
G1 X123.930 Y159.878 E0.0249 F750
G1 X123.531 Y159.985 E0.0498
G1 X123.156 Y160.160 E0.0747
G1 X122.818 Y160.397 E0.0996
G1 X122.526 Y160.689 E0.1245
G1 X122.289 Y161.028 E0.1494
G1 X122.114 Y161.402 E0.1742
G1 X122.007 Y161.801 E0.1991
G1 X121.971 Y162.213 E0.2240
G1 X122.007 Y162.625 E0.2489
G1 X122.114 Y163.024 E0.2738
G1 X122.289 Y163.398 E0.2987
G1 X122.526 Y163.737 E0.3236
G1 X122.818 Y164.029 E0.3485
G1 X123.156 Y164.266 E0.3734
G1 X123.531 Y164.441 E0.3983
G1 X123.930 Y164.547 E0.4232
G1 X124.342 Y164.583 E0.4481
G1 X124.753 Y164.547 E0.4730
G1 X125.152 Y164.441 E0.4979
G1 X125.527 Y164.266 E0.5227
G1 X125.865 Y164.029 E0.5476
G1 X126.157 Y163.737 E0.5725
G1 X126.394 Y163.398 E0.5974
G1 X126.569 Y163.024 E0.6223
G1 X126.676 Y162.625 E0.6472
G1 X126.712 Y162.213 E0.6721
G1 X126.676 Y161.801 E0.6970
G1 X126.569 Y161.402 E0.7219
G1 X126.394 Y161.028 E0.7468
G1 X126.157 Y160.689 E0.7717
G1 X125.865 Y160.397 E0.7966
G1 X125.527 Y160.160 E0.8215
G1 X125.152 Y159.985 E0.8464
G1 X124.753 Y159.878 E0.8712
G1 X124.342 Y159.842 E0.8961
; feature outer perimeter
G1 X124.342 Y160.369 F4800
G92 E0.0000
G1 X124.021 Y160.397 E0.0194 F500
G1 X123.711 Y160.481 E0.0387
G1 X123.420 Y160.616 E0.0581
G1 X123.157 Y160.801 E0.0774
G1 X122.929 Y161.028 E0.0968
G1 X122.745 Y161.291 E0.1162
G1 X122.609 Y161.582 E0.1355
G1 X122.526 Y161.893 E0.1549
G1 X122.498 Y162.213 E0.1742
G1 X122.526 Y162.533 E0.1936
G1 X122.609 Y162.843 E0.2129
