; G-Code generated by Simplify3D(R) Version 4.1.0
; Dec 19, 2018 at 3:52:25 PM
; Settings Summary
;   processName,Process1
;   applyToModels,FishFeed_CaseDeckel
;   profileName,Creality CR-10
;   profileVersion,2018-12-19 09:16:21
;   baseProfile,
;   printMaterial,PLA
;   printQuality,Medium
;   printExtruders,
;   extruderName,Primary Extruder
;   extruderToolheadNumber,0
;   extruderDiameter,0.4
;   extruderAutoWidth,0
;   extruderWidth,0.4
;   extrusionMultiplier,1.05
;   extruderUseRetract,1
;   extruderRetractionDistance,5
;   extruderExtraRestartDistance,0
;   extruderRetractionZLift,0
;   extruderRetractionSpeed,1800
;   extruderUseCoasting,0
;   extruderCoastingDistance,0.2
;   extruderUseWipe,0
;   extruderWipeDistance,5
;   primaryExtruder,0
;   layerHeight,0.2
;   topSolidLayers,3
;   bottomSolidLayers,3
;   perimeterOutlines,2
;   printPerimetersInsideOut,1
;   startPointOption,2
;   startPointOriginX,0
;   startPointOriginY,0
;   sequentialIslands,0
;   spiralVaseMode,0
;   firstLayerHeightPercentage,120
;   firstLayerWidthPercentage,150
;   firstLayerUnderspeed,0.5
;   useRaft,0
;   raftExtruder,0
;   raftTopLayers,3
;   raftBaseLayers,2
;   raftOffset,3
;   raftSeparationDistance,0.14
;   raftTopInfill,100
;   aboveRaftSpeedMultiplier,0.3
;   useSkirt,1
;   skirtExtruder,0
;   skirtLayers,1
;   skirtOutlines,2
;   skirtOffset,4
;   usePrimePillar,0
;   primePillarExtruder,999
;   primePillarWidth,12
;   primePillarLocation,7
;   primePillarSpeedMultiplier,1
;   useOozeShield,0
;   oozeShieldExtruder,999
;   oozeShieldOffset,2
;   oozeShieldOutlines,1
;   oozeShieldSidewallShape,1
;   oozeShieldSidewallAngle,30
;   oozeShieldSpeedMultiplier,1
;   infillExtruder,0
;   internalInfillPattern,Rectilinear
;   externalInfillPattern,Rectilinear
;   infillPercentage,40
;   outlineOverlapPercentage,15
;   infillExtrusionWidthPercentage,100
;   minInfillLength,5
;   infillLayerInterval,1
;   internalInfillAngles,45,-45
;   overlapInternalInfillAngles,0
;   externalInfillAngles,45,-45
;   generateSupport,1
;   supportExtruder,0
;   supportInfillPercentage,30
;   supportExtraInflation,0
;   supportBaseLayers,0
;   denseSupportExtruder,0
;   denseSupportLayers,0
;   denseSupportInfillPercentage,70
;   supportLayerInterval,1
;   supportHorizontalPartOffset,0.3
;   supportUpperSeparationLayers,1
;   supportLowerSeparationLayers,1
;   supportType,0
;   supportGridSpacing,2
;   maxOverhangAngle,45
;   supportAngles,0
;   temperatureName,Primary Extruder,Heated Bed
;   temperatureNumber,0,0
;   temperatureSetpointCount,2,2
;   temperatureSetpointLayers,1,2,1,2
;   temperatureSetpointTemperatures,210,190,60,50
;   temperatureStabilizeAtStartup,1,1
;   temperatureHeatedBed,0,1
;   fanLayers,1,2
;   fanSpeeds,0,100
;   blipFanToFullPower,0
;   adjustSpeedForCooling,1
;   minSpeedLayerTime,15
;   minCoolingSpeedSlowdown,20
;   increaseFanForCooling,0
;   minFanLayerTime,45
;   maxCoolingFanSpeed,100
;   increaseFanForBridging,0
;   bridgingFanSpeed,100
;   use5D,1
;   relativeEdistances,0
;   allowEaxisZeroing,1
;   independentExtruderAxes,0
;   includeM10123,0
;   stickySupport,1
;   applyToolheadOffsets,0
;   gcodeXoffset,0
;   gcodeYoffset,0
;   gcodeZoffset,0
;   overrideMachineDefinition,1
;   machineTypeOverride,0
;   strokeXoverride,300
;   strokeYoverride,300
;   strokeZoverride,400
;   originOffsetXoverride,0
;   originOffsetYoverride,0
;   originOffsetZoverride,0
;   homeXdirOverride,-1
;   homeYdirOverride,-1
;   homeZdirOverride,-1
;   flipXoverride,1
;   flipYoverride,-1
;   flipZoverride,1
;   toolheadOffsets,0,0|0,0|0,0|0,0|0,0|0,0
;   overrideFirmwareConfiguration,1
;   firmwareTypeOverride,RepRap (Marlin/Repetier/Sprinter)
;   GPXconfigOverride,r2
;   baudRateOverride,115200
;   overridePrinterModels,1
;   printerModelsOverride
;   startingGcode,G28 ; home all axes,G1 Z5 F3000 ; lift,G1 X5 Y10 F1500 ; move to prime,G1 Z0.2 F3000 ; get ready to prime,G92 E0 ; reset extrusion distance,G1 Y80 E10 F600 ; prime nozzle,G1 Y100 F5000 ; quick wipe
;   layerChangeGcode,
;   retractionGcode,
;   toolChangeGcode,
;   endingGcode,G28 X0 ; home x axis,M106 S0 ; turn off cooling fan,M104 S0 ; turn off extruder,M140 S0 ; turn off bed,M84 ; disable motors
;   exportFileFormat,gcode
;   celebration,0
;   celebrationSong,Random Song
;   postProcessing,
;   defaultSpeed,2200
;   outlineUnderspeed,0.5
;   solidInfillUnderspeed,0.8
;   supportUnderspeed,0.8
;   rapidXYspeed,4800
;   rapidZspeed,1000
;   minBridgingArea,50
;   bridgingExtraInflation,0
;   bridgingExtrusionMultiplier,1
;   bridgingSpeedMultiplier,1
;   useFixedBridgingAngle,0
;   fixedBridgingAngle,0
;   applyBridgingToPerimeters,0
;   filamentDiameters,1.75|1.75|1.75|1.75|1.75|1.75
;   filamentPricesPerKg,46|46|46|46|46|46
;   filamentDensities,1.25|1.25|1.25|1.25|1.25|1.25
;   useMinPrintHeight,0
;   minPrintHeight,0
;   useMaxPrintHeight,0
;   maxPrintHeight,0
;   useDiaphragm,0
;   diaphragmLayerInterval,20
;   robustSlicing,1
;   mergeAllIntoSolid,0
;   onlyRetractWhenCrossingOutline,1
;   retractBetweenLayers,1
;   useRetractionMinTravel,0
;   retractionMinTravel,3
;   retractWhileWiping,0
;   onlyWipeOutlines,1
;   avoidCrossingOutline,0
;   maxMovementDetourFactor,3
;   toolChangeRetractionDistance,12
;   toolChangeExtraRestartDistance,-0.5
;   toolChangeRetractionSpeed,600
;   externalThinWallType,0
;   internalThinWallType,2
;   thinWallAllowedOverlapPercentage,10
;   singleExtrusionMinLength,1
;   singleExtrusionMinPrintingWidthPercentage,50
;   singleExtrusionMaxPrintingWidthPercentage,200
;   singleExtrusionEndpointExtension,0.2
;   horizontalSizeCompensation,0
G90
M82
M106 S0
M140 S60
M190 S60
M104 S210 T0
M109 S210 T0
G28 ; home all axes
G1 Z5 F3000 ; lift
G1 X5 Y10 F1500 ; move to prime
G1 Z0.2 F3000 ; get ready to prime
G92 E0 ; reset extrusion distance
G1 Y80 E10 F600 ; prime nozzle
G1 Y100 F5000 ; quick wipe
; process Process1
; layer 1, Z = 0.240
T0
G92 E0.0000
G1 E-5.0000 F1800
; feature skirt
; tool H0.240 W0.600
G1 Z0.240 F1000
G1 X76.880 Y78.750 F4800
G1 E0.0000 F1800
G92 E0.0000
G1 X81.750 Y73.880 E0.4330 F1100
G1 X148.250 Y73.880 E4.6132
G1 X151.120 Y76.750 E4.8684
G1 X151.120 Y121.816 E7.7013
G1 X151.486 Y122.882 E7.7722
G1 X151.586 Y123.275 E7.7977
G1 X151.843 Y124.815 E7.8958
G1 X151.876 Y125.219 E7.9213
G1 X151.876 Y126.781 E8.0194
G1 X151.843 Y127.185 E8.0449
G1 X151.586 Y128.725 E8.1431
G1 X151.486 Y129.118 E8.1686
G1 X151.120 Y130.184 E8.2394
G1 X151.120 Y153.250 E9.6894
G1 X146.250 Y158.120 E10.1223
G1 X83.750 Y158.120 E14.0511
G1 X81.750 Y156.120 E14.2289
G1 X76.880 Y151.250 E14.6619
G1 X76.880 Y78.750 E19.2193
G92 E0.0000
G1 E-5.0000 F1800
G1 X77.480 Y78.999 F4800
G1 E0.0000 F1800
G92 E0.0000
G1 X81.999 Y74.480 E0.4017 F1100
G1 X148.001 Y74.480 E4.5507
G1 X150.520 Y76.999 E4.7747
G1 X150.520 Y121.916 E7.5982
G1 X150.911 Y123.054 E7.6738
G1 X150.998 Y123.398 E7.6962
G1 X151.247 Y124.890 E7.7912
G1 X151.276 Y125.244 E7.8136
G1 X151.276 Y126.756 E7.9086
G1 X151.247 Y127.110 E7.9310
G1 X150.998 Y128.602 E8.0260
G1 X150.911 Y128.946 E8.0484
G1 X150.520 Y130.084 E8.1240
G1 X150.520 Y153.001 E9.5646
G1 X146.001 Y157.520 E9.9663
G1 X83.999 Y157.520 E13.8639
G1 X81.999 Y155.520 E14.0417
G1 X77.480 Y151.001 E14.4434
G1 X77.480 Y78.999 E18.9696
G92 E0.0000
G1 E-5.0000 F1800
; feature inner perimeter
G1 X86.081 Y121.330 F4800
G1 E0.0000 F1800
G92 E0.0000
G1 X86.952 Y120.720 E0.0668 F825
G1 X87.915 Y120.271 E0.1336
G1 X88.941 Y119.996 E0.2004
G1 X90.261 Y119.881 E0.2837
G1 X101.972 Y112.905 E1.1406
G1 X102.264 Y113.294 E1.1711
G1 X101.785 Y113.738 E1.2122
G1 X100.105 Y115.845 E1.3815
G1 X98.758 Y118.178 E1.5509
G1 X97.773 Y120.687 E1.7204
G1 X97.170 Y123.361 E1.8927
G1 X96.972 Y126.000 E2.0590
G1 X97.174 Y128.687 E2.2284
G1 X97.773 Y131.314 E2.3978
G1 X98.758 Y133.822 E2.5671
G1 X100.105 Y136.155 E2.7365
G1 X101.785 Y138.262 E2.9059
G1 X102.259 Y138.702 E2.9465
G1 X101.968 Y139.091 E2.9771
G1 X90.284 Y132.121 E3.8323
G1 X88.941 Y132.004 E3.9170
G1 X87.915 Y131.729 E3.9838
G1 X86.952 Y131.280 E4.0506
G1 X86.081 Y130.670 E4.1174
G1 X85.330 Y129.919 E4.1842
G1 X84.720 Y129.048 E4.2510
G1 X84.271 Y128.085 E4.3178
G1 X83.996 Y127.059 E4.3846
G1 X83.903 Y126.000 E4.4514
G1 X83.996 Y124.941 E4.5182
G1 X84.271 Y123.915 E4.5850
G1 X84.720 Y122.952 E4.6518
G1 X85.330 Y122.081 E4.7186
G1 X86.081 Y121.330 E4.7854
G92 E0.0000
G1 E-5.0000 F1800
G1 X127.741 Y113.298 F4800
G1 E0.0000 F1800
G92 E0.0000
G1 X128.033 Y112.909 E0.0306 F825
G1 X139.718 Y119.880 E0.8859
G1 X141.003 Y119.986 E0.9670
G1 X141.980 Y120.233 E1.0303
G1 X142.902 Y120.638 E1.0936
G1 X143.745 Y121.189 E1.1569
G1 X144.486 Y121.871 E1.2202
G1 X145.104 Y122.665 E1.2835
G1 X145.583 Y123.551 E1.3468
G1 X145.910 Y124.503 E1.4101
G1 X146.076 Y125.497 E1.4734
G1 X146.076 Y126.503 E1.5367
G1 X145.910 Y127.497 E1.6000
G1 X145.583 Y128.449 E1.6633
G1 X145.104 Y129.335 E1.7266
G1 X144.486 Y130.129 E1.7898
G1 X143.745 Y130.811 E1.8532
G1 X142.902 Y131.362 E1.9165
G1 X141.980 Y131.767 E1.9798
G1 X141.003 Y132.014 E2.0431
G1 X139.718 Y132.120 E2.1241
G1 X128.032 Y139.091 E2.9795
G1 X127.741 Y138.702 E3.0100
G1 X128.215 Y138.262 E3.0507
G1 X129.895 Y136.155 E3.2200
G1 X131.242 Y133.822 E3.3894
G1 X132.227 Y131.314 E3.5588
G1 X132.826 Y128.687 E3.7282
G1 X133.028 Y126.000 E3.8975
G1 X132.826 Y123.313 E4.0669
G1 X132.227 Y120.686 E4.2363
G1 X131.242 Y118.178 E4.4057
G1 X129.895 Y115.845 E4.5750
G1 X128.215 Y113.738 E4.7444
G1 X127.741 Y113.298 E4.7851
; feature outer perimeter
G1 X126.726 Y111.431 F4800
G92 E0.0000
G1 X139.906 Y119.293 E0.9647 F550
G1 X141.103 Y119.392 E1.0402
G1 X142.175 Y119.664 E1.1097
G1 X143.188 Y120.108 E1.1793
G1 X144.115 Y120.714 E1.2488
G1 X144.929 Y121.463 E1.3184
G1 X145.608 Y122.336 E1.3879
G1 X146.135 Y123.309 E1.4575
G1 X146.494 Y124.356 E1.5270
G1 X146.676 Y125.447 E1.5966
G1 X146.676 Y126.553 E1.6661
G1 X146.494 Y127.644 E1.7357
G1 X146.135 Y128.691 E1.8052
G1 X145.608 Y129.664 E1.8748
G1 X144.929 Y130.537 E1.9443
G1 X144.115 Y131.286 E2.0139
G1 X143.188 Y131.892 E2.0834
G1 X142.175 Y132.336 E2.1530
G1 X141.103 Y132.608 E2.2225
G1 X139.906 Y132.707 E2.2980
G1 X126.726 Y140.569 E3.2627
G1 X124.628 Y142.030 E3.4235
G1 X122.379 Y143.182 E3.5823
G1 X119.995 Y144.020 E3.7411
G1 X117.521 Y144.529 E3.9000
G1 X115.000 Y144.699 E4.0588
G1 X112.479 Y144.529 E4.2176
G1 X110.005 Y144.020 E4.3764
G1 X107.621 Y143.182 E4.5352
G1 X105.372 Y142.030 E4.6940
G1 X103.274 Y140.569 E4.8548
G1 X90.095 Y132.707 E5.8195
G1 X88.837 Y132.597 E5.8988
G1 X87.709 Y132.295 E5.9722
G1 X86.651 Y131.801 E6.0456
G1 X85.694 Y131.132 E6.1191
G1 X84.868 Y130.306 E6.1925
G1 X84.199 Y129.349 E6.2659
G1 X83.705 Y128.291 E6.3393
G1 X83.403 Y127.163 E6.4127
G1 X83.301 Y126.000 E6.4861
G1 X83.403 Y124.837 E6.5595
G1 X83.705 Y123.709 E6.6329
G1 X84.199 Y122.651 E6.7063
G1 X84.868 Y121.694 E6.7797
G1 X85.694 Y120.868 E6.8531
G1 X86.651 Y120.199 E6.9265
G1 X87.709 Y119.705 E6.9999
G1 X88.837 Y119.403 E7.0733
G1 X90.072 Y119.295 E7.1512
G1 X103.274 Y111.431 E8.1172
G1 X105.372 Y109.970 E8.2780
G1 X107.621 Y108.818 E8.4368
G1 X110.005 Y107.980 E8.5956
G1 X112.479 Y107.471 E8.7544
G1 X115.000 Y107.301 E8.9132
G1 X117.521 Y107.471 E9.0720
G1 X119.995 Y107.980 E9.2309
G1 X122.379 Y108.818 E9.3897
G1 X124.628 Y109.970 E9.5485
G1 X126.726 Y111.431 E9.7092
G1 X125.865 Y112.376 F4800
G92 E0.0000
G1 X123.713 Y110.909 E0.1637 F550
G1 X121.366 Y109.779 E0.3274
G1 X118.878 Y109.011 E0.4912
G1 X116.302 Y108.623 E0.6549
G1 X113.698 Y108.623 E0.8186
G1 X111.122 Y109.011 E0.9823
G1 X108.634 Y109.779 E1.1460
G1 X106.287 Y110.909 E1.3098
G1 X104.135 Y112.376 E1.4735
G1 X102.226 Y114.147 E1.6372
G1 X100.602 Y116.184 E1.8009
G1 X99.300 Y118.439 E1.9647
G1 X98.348 Y120.864 E2.1284
G1 X97.765 Y123.450 E2.2951
G1 X97.574 Y126.000 E2.4558
G1 X97.769 Y128.597 E2.6195
G1 X98.348 Y131.136 E2.7832
G1 X99.300 Y133.561 E2.9470
G1 X100.602 Y135.816 E3.1107
G1 X102.226 Y137.853 E3.2744
G1 X104.135 Y139.624 E3.4381
G1 X106.287 Y141.091 E3.6018
G1 X108.634 Y142.221 E3.7656
G1 X111.122 Y142.989 E3.9293
G1 X113.698 Y143.377 E4.0930
G1 X116.302 Y143.377 E4.2567
G1 X118.878 Y142.989 E4.4204
G1 X121.366 Y142.221 E4.5842
G1 X123.713 Y141.091 E4.7479
G1 X125.865 Y139.624 E4.9116
G1 X127.774 Y137.853 E5.0753
G1 X129.398 Y135.816 E5.2390
G1 X130.700 Y133.561 E5.4028
G1 X131.652 Y131.136 E5.5665
G1 X132.231 Y128.597 E5.7302
G1 X132.426 Y126.000 E5.8939
G1 X132.231 Y123.403 E6.0577
G1 X131.652 Y120.864 E6.2214
G1 X130.700 Y118.439 E6.3851
G1 X129.398 Y116.184 E6.5488
G1 X127.774 Y114.147 E6.7125
G1 X125.865 Y112.376 E6.8763
; feature inner perimeter
G1 X137.699 Y124.069 F4800
G92 E0.0000
G1 X137.399 Y124.498 E0.0329 F825
G1 X137.178 Y124.973 E0.0658
G1 X137.042 Y125.478 E0.0987
G1 X136.997 Y126.000 E0.1316
G1 X137.042 Y126.522 E0.1646
G1 X137.178 Y127.027 E0.1975
G1 X137.399 Y127.502 E0.2304
G1 X137.699 Y127.931 E0.2633
G1 X138.069 Y128.301 E0.2962
G1 X138.498 Y128.601 E0.3291
G1 X138.973 Y128.822 E0.3620
G1 X139.478 Y128.958 E0.3949
G1 X140.000 Y129.003 E0.4278
G1 X140.522 Y128.958 E0.4607
G1 X141.027 Y128.822 E0.4937
G1 X141.502 Y128.601 E0.5266
G1 X141.931 Y128.301 E0.5595
G1 X142.301 Y127.931 E0.5924
G1 X142.601 Y127.502 E0.6253
G1 X142.822 Y127.027 E0.6582
G1 X142.958 Y126.522 E0.6911
G1 X143.003 Y126.000 E0.7240
G1 X142.958 Y125.478 E0.7569
G1 X142.822 Y124.973 E0.7898
G1 X142.601 Y124.498 E0.8228
G1 X142.301 Y124.069 E0.8557
G1 X141.931 Y123.699 E0.8886
G1 X141.502 Y123.399 E0.9215
G1 X141.027 Y123.178 E0.9544
G1 X140.522 Y123.042 E0.9873
G1 X140.000 Y122.997 E1.0202
G1 X139.478 Y123.042 E1.0531
G1 X138.973 Y123.178 E1.0860
G1 X138.498 Y123.399 E1.1189
G1 X138.069 Y123.699 E1.1519
G1 X137.699 Y124.069 E1.1848
; feature outer perimeter
G1 X138.161 Y124.457 F4800
G92 E0.0000
G1 X137.921 Y124.799 E0.0263 F550
G1 X137.744 Y125.179 E0.0526
G1 X137.635 Y125.583 E0.0789
G1 X137.599 Y126.000 E0.1052
G1 X137.635 Y126.417 E0.1316
G1 X137.744 Y126.821 E0.1579
G1 X137.921 Y127.201 E0.1842
G1 X138.161 Y127.543 E0.2105
G1 X138.457 Y127.839 E0.2368
G1 X138.799 Y128.079 E0.2631
G1 X139.179 Y128.256 E0.2894
G1 X139.583 Y128.365 E0.3157
G1 X140.000 Y128.401 E0.3420
G1 X140.417 Y128.365 E0.3683
G1 X140.821 Y128.256 E0.3947
G1 X141.201 Y128.079 E0.4210
G1 X141.543 Y127.839 E0.4473
G1 X141.839 Y127.543 E0.4736
G1 X142.079 Y127.201 E0.4999
G1 X142.256 Y126.821 E0.5262
G1 X142.365 Y126.417 E0.5525
G1 X142.401 Y126.000 E0.5788
G1 X142.365 Y125.583 E0.6051
G1 X142.256 Y125.179 E0.6315
G1 X142.079 Y124.799 E0.6578
G1 X141.839 Y124.457 E0.6841
G1 X141.543 Y124.161 E0.7104
G1 X141.201 Y123.921 E0.7367
G1 X140.821 Y123.744 E0.7630
G1 X140.417 Y123.635 E0.7893
G1 X140.000 Y123.599 E0.8156
G1 X139.583 Y123.635 E0.8419
G1 X139.179 Y123.744 E0.8682
G1 X138.799 Y123.921 E0.8946
G1 X138.457 Y124.161 E0.9209
G1 X138.161 Y124.457 E0.9472
G92 E0.0000
G1 E-5.0000 F1800
; feature inner perimeter
G1 X93.003 Y126.000 F4800
G1 E0.0000 F1800
G92 E0.0000
G1 X92.958 Y125.478 E0.0329 F825
G1 X92.822 Y124.973 E0.0658
G1 X92.601 Y124.498 E0.0987
G1 X92.301 Y124.069 E0.1316
G1 X91.931 Y123.699 E0.1646
G1 X91.502 Y123.399 E0.1975
G1 X91.027 Y123.178 E0.2304
G1 X90.522 Y123.042 E0.2633
G1 X90.000 Y122.997 E0.2962
G1 X89.478 Y123.042 E0.3291
G1 X88.973 Y123.178 E0.3620
G1 X88.498 Y123.399 E0.3949
G1 X88.069 Y123.699 E0.4278
G1 X87.699 Y124.069 E0.4607
G1 X87.399 Y124.498 E0.4937
G1 X87.178 Y124.973 E0.5266
G1 X87.042 Y125.478 E0.5595
G1 X86.997 Y126.000 E0.5924
G1 X87.042 Y126.522 E0.6253
G1 X87.178 Y127.027 E0.6582
G1 X87.399 Y127.502 E0.6911
G1 X87.699 Y127.931 E0.7240
G1 X88.069 Y128.301 E0.7569
G1 X88.498 Y128.601 E0.7898
G1 X88.973 Y128.822 E0.8228
G1 X89.478 Y128.958 E0.8557
G1 X90.000 Y129.003 E0.8886
G1 X90.522 Y128.958 E0.9215
G1 X91.027 Y128.822 E0.9544
G1 X91.502 Y128.601 E0.9873
G1 X91.931 Y128.301 E1.0202
G1 X92.301 Y127.931 E1.0531
G1 X92.601 Y127.502 E1.0860
G1 X92.822 Y127.027 E1.1189
G1 X92.958 Y126.522 E1.1519
G1 X93.003 Y126.000 E1.1848
; feature outer perimeter
G1 X92.401 Y126.000 F4800
G92 E0.0000
G1 X92.365 Y125.583 E0.0263 F550
G1 X92.256 Y125.179 E0.0526
