; G-Code generated by Simplify3D(R) Version 4.1.0
; Dec 19, 2018 at 9:16:39 AM
; Settings Summary
;   processName,Process1
;   applyToModels,FishFeed_Geh?useDeckel
;   profileName,Creality Ender 3
;   profileVersion,2018-12-18 18:14:14
;   baseProfile,
;   printMaterial,PLA
;   printQuality,Medium
;   printExtruders,
;   extruderName,Primary Extruder
;   extruderToolheadNumber,0
;   extruderDiameter,0.4
;   extruderAutoWidth,0
;   extruderWidth,0.35
;   extrusionMultiplier,1.15
;   extruderUseRetract,1
;   extruderRetractionDistance,4
;   extruderExtraRestartDistance,0
;   extruderRetractionZLift,0
;   extruderRetractionSpeed,2400
;   extruderUseCoasting,0
;   extruderCoastingDistance,0.2
;   extruderUseWipe,0
;   extruderWipeDistance,5
;   primaryExtruder,0
;   layerHeight,0.2
;   topSolidLayers,3
;   bottomSolidLayers,3
;   perimeterOutlines,2
;   printPerimetersInsideOut,1
;   startPointOption,2
;   startPointOriginX,0
;   startPointOriginY,0
;   sequentialIslands,0
;   spiralVaseMode,0
;   firstLayerHeightPercentage,120
;   firstLayerWidthPercentage,150
;   firstLayerUnderspeed,0.5
;   useRaft,0
;   raftExtruder,0
;   raftTopLayers,3
;   raftBaseLayers,2
;   raftOffset,3
;   raftSeparationDistance,0.14
;   raftTopInfill,100
;   aboveRaftSpeedMultiplier,0.3
;   useSkirt,1
;   skirtExtruder,0
;   skirtLayers,1
;   skirtOutlines,2
;   skirtOffset,4
;   usePrimePillar,0
;   primePillarExtruder,999
;   primePillarWidth,12
;   primePillarLocation,7
;   primePillarSpeedMultiplier,1
;   useOozeShield,0
;   oozeShieldExtruder,999
;   oozeShieldOffset,2
;   oozeShieldOutlines,1
;   oozeShieldSidewallShape,1
;   oozeShieldSidewallAngle,30
;   oozeShieldSpeedMultiplier,1
;   infillExtruder,0
;   internalInfillPattern,Rectilinear
;   externalInfillPattern,Rectilinear
;   infillPercentage,30
;   outlineOverlapPercentage,15
;   infillExtrusionWidthPercentage,100
;   minInfillLength,5
;   infillLayerInterval,1
;   internalInfillAngles,45,-45
;   overlapInternalInfillAngles,0
;   externalInfillAngles,45,-45
;   generateSupport,1
;   supportExtruder,0
;   supportInfillPercentage,30
;   supportExtraInflation,0
;   supportBaseLayers,0
;   denseSupportExtruder,0
;   denseSupportLayers,0
;   denseSupportInfillPercentage,70
;   supportLayerInterval,1
;   supportHorizontalPartOffset,0.3
;   supportUpperSeparationLayers,1
;   supportLowerSeparationLayers,1
;   supportType,0
;   supportGridSpacing,2
;   maxOverhangAngle,45
;   supportAngles,0
;   temperatureName,Primary Extruder,Heated Bed
;   temperatureNumber,0,0
;   temperatureSetpointCount,2,2
;   temperatureSetpointLayers,1,2,1,2
;   temperatureSetpointTemperatures,210,190,60,50
;   temperatureStabilizeAtStartup,1,1
;   temperatureHeatedBed,0,1
;   fanLayers,1,2
;   fanSpeeds,0,100
;   blipFanToFullPower,0
;   adjustSpeedForCooling,1
;   minSpeedLayerTime,15
;   minCoolingSpeedSlowdown,20
;   increaseFanForCooling,0
;   minFanLayerTime,45
;   maxCoolingFanSpeed,100
;   increaseFanForBridging,0
;   bridgingFanSpeed,100
;   use5D,1
;   relativeEdistances,0
;   allowEaxisZeroing,1
;   independentExtruderAxes,0
;   includeM10123,0
;   stickySupport,1
;   applyToolheadOffsets,0
;   gcodeXoffset,0
;   gcodeYoffset,0
;   gcodeZoffset,0
;   overrideMachineDefinition,1
;   machineTypeOverride,0
;   strokeXoverride,220
;   strokeYoverride,220
;   strokeZoverride,250
;   originOffsetXoverride,-5
;   originOffsetYoverride,-5
;   originOffsetZoverride,0
;   homeXdirOverride,-1
;   homeYdirOverride,-1
;   homeZdirOverride,-1
;   flipXoverride,1
;   flipYoverride,-1
;   flipZoverride,1
;   toolheadOffsets,0,0|0,0|0,0|0,0|0,0|0,0
;   overrideFirmwareConfiguration,1
;   firmwareTypeOverride,RepRap (Marlin/Repetier/Sprinter)
;   GPXconfigOverride,r2
;   baudRateOverride,115200
;   overridePrinterModels,1
;   printerModelsOverride
;   startingGcode,G28 ; home all axes,G1 X5 Y10 Z0.2 F3000 ; get ready to prime,G92 E0 ; reset extrusion distance,G1 X160 E15 F600 ; prime nozzle,G1 X180 F5000 ; quick wipe
;   layerChangeGcode,
;   retractionGcode,
;   toolChangeGcode,
;   endingGcode,G28 X0 ; home X axis,M106 S0 ; turn off cooling fan,M104 S0 ; turn off extruder,M140 S0 ; turn off bed,M84 ; disable motors
;   exportFileFormat,gcode
;   celebration,0
;   celebrationSong,Random Song
;   postProcessing,
;   defaultSpeed,2000
;   outlineUnderspeed,0.5
;   solidInfillUnderspeed,0.8
;   supportUnderspeed,0.8
;   rapidXYspeed,4800
;   rapidZspeed,1000
;   minBridgingArea,50
;   bridgingExtraInflation,0
;   bridgingExtrusionMultiplier,1
;   bridgingSpeedMultiplier,1
;   useFixedBridgingAngle,0
;   fixedBridgingAngle,0
;   applyBridgingToPerimeters,0
;   filamentDiameters,1.75|1.75|1.75|1.75|1.75|1.75
;   filamentPricesPerKg,46|46|46|46|46|46
;   filamentDensities,1.25|1.25|1.25|1.25|1.25|1.25
;   useMinPrintHeight,0
;   minPrintHeight,0
;   useMaxPrintHeight,0
;   maxPrintHeight,0
;   useDiaphragm,0
;   diaphragmLayerInterval,20
;   robustSlicing,1
;   mergeAllIntoSolid,0
;   onlyRetractWhenCrossingOutline,1
;   retractBetweenLayers,1
;   useRetractionMinTravel,0
;   retractionMinTravel,3
;   retractWhileWiping,0
;   onlyWipeOutlines,1
;   avoidCrossingOutline,0
;   maxMovementDetourFactor,3
;   toolChangeRetractionDistance,12
;   toolChangeExtraRestartDistance,-0.5
;   toolChangeRetractionSpeed,600
;   externalThinWallType,0
;   internalThinWallType,2
;   thinWallAllowedOverlapPercentage,10
;   singleExtrusionMinLength,1
;   singleExtrusionMinPrintingWidthPercentage,50
;   singleExtrusionMaxPrintingWidthPercentage,200
;   singleExtrusionEndpointExtension,0.2
;   horizontalSizeCompensation,0
G90
M82
M106 S0
M140 S60
M190 S60
M104 S210 T0
M109 S210 T0
G28 ; home all axes
G1 X5 Y10 Z0.2 F3000 ; get ready to prime
G92 E0 ; reset extrusion distance
G1 X160 E15 F600 ; prime nozzle
G1 X180 F5000 ; quick wipe
; process Process1
; layer 1, Z = 0.240
T0
G92 E0.0000
G1 E-4.0000 F2400
; feature skirt
; tool H0.240 W0.525
G1 Z0.240 F1000
G1 X140.208 Y104.690 F4800
G1 E0.0000 F2400
G92 E0.0000
G1 X142.292 Y101.861 E0.2116 F1000
G1 X142.950 Y101.609 E0.2541
G1 X143.142 Y100.927 E0.2967
G1 X145.712 Y98.644 E0.5039
G1 X146.433 Y98.510 E0.5480
G1 X146.793 Y97.866 E0.5925
G1 X149.722 Y96.198 E0.7956
G1 X150.465 Y96.202 E0.8403
G1 X150.967 Y95.649 E0.8853
G1 X154.122 Y94.639 E1.0849
G1 X154.873 Y94.782 E1.1309
G1 X155.506 Y94.347 E1.1772
G1 X158.754 Y94.013 E1.3739
G1 X159.465 Y94.297 E1.4200
G1 X160.181 Y94.012 E1.4664
G1 X163.389 Y94.346 E1.6607
G1 X164.049 Y94.767 E1.7079
G1 X164.827 Y94.647 E1.7553
G1 X167.868 Y95.621 E1.9477
G1 X168.433 Y96.163 E1.9949
G1 X169.217 Y96.210 E2.0422
G1 X171.989 Y97.781 E2.2341
G1 X172.434 Y98.425 E2.2813
G1 X173.190 Y98.635 E2.3285
G1 X175.581 Y100.736 E2.5203
G1 X175.886 Y101.458 E2.5675
G1 X176.582 Y101.818 E2.6147
G1 X178.495 Y104.364 E2.8065
G1 X178.643 Y105.136 E2.8538
G1 X179.253 Y105.627 E2.9010
G1 X180.609 Y108.517 E3.0933
G1 X180.590 Y109.303 E3.1407
G1 X181.091 Y109.905 E3.1879
G1 X181.834 Y113.042 E3.3821
G1 X181.644 Y113.788 E3.4285
G1 X182.017 Y114.458 E3.4747
G1 X182.102 Y117.719 E3.6712
G1 X181.753 Y118.404 E3.7175
G1 X181.991 Y119.130 E3.7635
G1 X181.395 Y122.385 E3.9629
G1 X180.912 Y122.956 E4.0079
G1 X181.010 Y123.693 E4.0527
G1 X179.735 Y126.808 E4.2555
G1 X179.142 Y127.250 E4.3000
G1 X179.101 Y127.983 E4.3442
G1 X177.171 Y130.821 E4.5510
G1 X176.518 Y131.101 E4.5938
G1 X176.351 Y131.787 E4.6363
G1 X173.820 Y134.213 E4.8475
G1 X173.138 Y134.334 E4.8892
G1 X172.851 Y134.961 E4.9308
G1 X169.801 Y136.847 E5.1467
G1 X169.146 Y136.807 E5.1863
G1 X168.769 Y137.342 E5.2257
G1 X165.315 Y138.575 E5.4466
G1 X164.707 Y138.394 E5.4848
G1 X164.250 Y138.831 E5.5229
G1 X160.535 Y139.320 E5.7486
G1 X160.018 Y139.024 E5.7845
G1 X159.517 Y139.345 E5.8204
G1 X155.711 Y139.035 E6.0504
G1 X155.288 Y138.644 E6.0852
G1 X154.751 Y138.852 E6.1198
G1 X151.052 Y137.732 E6.3526
G1 X150.734 Y137.270 E6.3865
G1 X150.180 Y137.363 E6.4203
G1 X146.777 Y135.471 E6.6548
G1 X146.569 Y134.959 E6.6882
G1 X146.016 Y134.935 E6.7215
G1 X143.082 Y132.358 E6.9567
G1 X142.987 Y131.814 E6.9900
G1 X142.452 Y131.674 E7.0233
G1 X140.135 Y128.541 E7.2580
G1 X140.156 Y127.982 E7.2918
G1 X139.658 Y127.726 E7.3255
G1 X138.067 Y124.200 E7.5586
G1 X138.205 Y123.643 E7.5931
G1 X137.763 Y123.275 E7.6277
G1 X136.963 Y119.535 E7.8581
G1 X137.217 Y118.999 E7.8938
G1 X136.857 Y118.527 E7.9296
G1 X136.863 Y114.774 E8.1557
G1 X137.236 Y114.267 E8.1937
G1 X136.979 Y113.690 E8.2317
G1 X137.758 Y110.099 E8.4531
G1 X138.238 Y109.658 E8.4923
G1 X138.114 Y109.016 E8.5317
G1 X139.594 Y105.742 E8.7482
G1 X140.178 Y105.379 E8.7896
G1 X140.208 Y104.690 E8.8312
G92 E0.0000
G1 E-4.0000 F2400
G1 X140.726 Y104.872 F4800
G1 E0.0000 F2400
G92 E0.0000
G1 X142.624 Y102.296 E0.1927 F1000
G1 X143.384 Y102.005 E0.2418
G1 X143.605 Y101.217 E0.2911
G1 X145.951 Y99.133 E0.4801
G1 X146.771 Y98.981 E0.5303
G1 X147.180 Y98.250 E0.5808
G1 X149.860 Y96.724 E0.7666
G1 X150.696 Y96.728 E0.8170
G1 X151.261 Y96.106 E0.8676
G1 X154.155 Y95.180 E1.0507
G1 X154.989 Y95.339 E1.1018
G1 X155.693 Y94.856 E1.1533
G1 X158.679 Y94.548 E1.3341
G1 X159.465 Y94.862 E1.3851
G1 X160.255 Y94.547 E1.4363
G1 X163.211 Y94.856 E1.6154
G1 X163.934 Y95.316 E1.6670
G1 X164.785 Y95.184 E1.7189
G1 X167.592 Y96.084 E1.8965
G1 X168.209 Y96.675 E1.9480
G1 X169.064 Y96.727 E1.9996
G1 X171.626 Y98.179 E2.1769
G1 X172.111 Y98.880 E2.2283
G1 X172.933 Y99.109 E2.2797
G1 X175.144 Y101.052 E2.4570
G1 X175.476 Y101.838 E2.5084
G1 X176.234 Y102.229 E2.5598
G1 X178.002 Y104.583 E2.7372
G1 X178.164 Y105.424 E2.7888
G1 X178.829 Y105.960 E2.8402
G1 X180.081 Y108.628 E3.0178
G1 X180.060 Y109.488 E3.0696
G1 X180.609 Y110.146 E3.1212
G1 X181.294 Y113.037 E3.3002
G1 X181.084 Y113.861 E3.3514
G1 X181.495 Y114.601 E3.4024
G1 X181.574 Y117.600 E3.5831
G1 X181.187 Y118.360 E3.6345
G1 X181.450 Y119.167 E3.6856
G1 X180.904 Y122.153 E3.8685
G1 X180.361 Y122.795 E3.9192
G1 X180.471 Y123.624 E3.9695
G1 X179.304 Y126.474 E4.1551
G1 X178.632 Y126.975 E4.2056
G1 X178.585 Y127.808 E4.2559
G1 X176.823 Y130.399 E4.4446
G1 X176.070 Y130.722 E4.4939
G1 X175.877 Y131.514 E4.5430
G1 X173.571 Y133.724 E4.7354
G1 X172.775 Y133.865 E4.7842
G1 X172.439 Y134.598 E4.8327
G1 X169.667 Y136.313 E5.0291
G1 X168.886 Y136.266 E5.0762
G1 X168.436 Y136.903 E5.1232
G1 X165.300 Y138.022 E5.3238
G1 X164.565 Y137.804 E5.3700
G1 X164.011 Y138.333 E5.4161
G1 X160.643 Y138.777 E5.6208
G1 X160.003 Y138.410 E5.6652
G1 X159.383 Y138.808 E5.7096
G1 X155.934 Y138.527 E5.9181
G1 X155.403 Y138.036 E5.9616
G1 X154.730 Y138.298 E6.0051
G1 X151.380 Y137.283 E6.2159
G1 X150.976 Y136.697 E6.2588
G1 X150.275 Y136.815 E6.3017
G1 X147.194 Y135.102 E6.5140
G1 X146.928 Y134.449 E6.5565
G1 X146.223 Y134.418 E6.5990
G1 X143.567 Y132.086 E6.8120
G1 X143.446 Y131.391 E6.8544
G1 X142.764 Y131.213 E6.8969
G1 X140.667 Y128.377 E7.1094
G1 X140.693 Y127.667 E7.1522
G1 X140.061 Y127.343 E7.1950
G1 X138.620 Y124.149 E7.4060
G1 X138.793 Y123.449 E7.4495
G1 X138.239 Y122.988 E7.4929
G1 X137.514 Y119.599 E7.7017
G1 X137.829 Y118.935 E7.7459
G1 X137.382 Y118.350 E7.7903
G1 X137.388 Y114.946 E7.9953
G1 X137.840 Y114.332 E8.0413
G1 X137.529 Y113.633 E8.0874
G1 X138.235 Y110.373 E8.2884
G1 X138.809 Y109.847 E8.3353
G1 X138.661 Y109.080 E8.3823
G1 X140.007 Y106.104 E8.5791
G1 X140.690 Y105.679 E8.6275
G1 X140.726 Y104.872 E8.6762
G92 E0.0000
G1 E-4.0000 F2400
; feature inner perimeter
G1 X145.983 Y106.704 F4800
G1 E0.0000 F2400
G92 E0.0000
G1 X146.445 Y106.625 E0.0282 F750
G1 X146.831 Y106.491 E0.0528
G1 X147.189 Y106.295 E0.0774
G1 X147.510 Y106.042 E0.1020
G1 X147.785 Y105.741 E0.1266
G1 X148.007 Y105.397 E0.1512
G1 X148.169 Y105.022 E0.1758
G1 X148.267 Y104.626 E0.2005
G1 X148.308 Y104.089 E0.2329
G1 X148.938 Y104.072 E0.2709
G1 X149.351 Y103.990 E0.2962
G1 X149.743 Y103.839 E0.3215
G1 X150.104 Y103.624 E0.3468
G1 X150.423 Y103.350 E0.3722
G1 X150.692 Y103.027 E0.3975
G1 X150.899 Y102.666 E0.4225
G1 X151.046 Y102.269 E0.4481
G1 X151.104 Y101.951 E0.4675
G1 X151.394 Y102.047 E0.4859
G1 X151.792 Y102.111 E0.5102
G1 X152.196 Y102.108 E0.5345
G1 X152.525 Y102.052 E0.5546
G1 X152.965 Y101.914 E0.5824
G1 X153.330 Y101.717 E0.6074
G1 X153.648 Y101.469 E0.6317
G1 X153.923 Y101.173 E0.6560
G1 X154.145 Y100.837 E0.6803
G1 X154.299 Y100.494 E0.7030
G1 X154.704 Y100.700 E0.7304
G1 X155.104 Y100.824 E0.7556
G1 X155.520 Y100.879 E0.7809
G1 X155.935 Y100.863 E0.8059
G1 X156.343 Y100.777 E0.8310
G1 X156.732 Y100.624 E0.8562
G1 X157.090 Y100.407 E0.8814
G1 X157.405 Y100.133 E0.9066
G1 X157.732 Y99.735 E0.9376
G1 X158.128 Y100.038 E0.9677
G1 X158.484 Y100.228 E0.9920
G1 X158.866 Y100.357 E1.0163
G1 X159.263 Y100.423 E1.0405
G1 X159.666 Y100.423 E1.0648
G1 X160.064 Y100.357 E1.0891
G1 X160.446 Y100.228 E1.1134
G1 X160.802 Y100.038 E1.1377
G1 X161.231 Y99.709 E1.1703
G1 X161.673 Y100.172 E1.2088
G1 X162.014 Y100.424 E1.2344
G1 X162.394 Y100.613 E1.2599
G1 X162.799 Y100.735 E1.2854
G1 X163.220 Y100.786 E1.3110
G1 X163.644 Y100.765 E1.3365
G1 X164.057 Y100.671 E1.3620
G1 X164.448 Y100.508 E1.3876
G1 X164.691 Y100.353 E1.4049
G1 X164.804 Y100.618 E1.4223
G1 X165.028 Y100.967 E1.4473
G1 X165.307 Y101.274 E1.4723
G1 X165.634 Y101.530 E1.4973
G1 X165.998 Y101.728 E1.5223
G1 X166.391 Y101.862 E1.5473
G1 X166.554 Y101.888 E1.5572
G1 X166.801 Y101.928 E1.5722
G1 X167.215 Y101.924 E1.5972
G1 X167.624 Y101.852 E1.6222
G1 X167.920 Y101.746 E1.6412
G1 X167.984 Y102.054 E1.6601
G1 X168.133 Y102.436 E1.6848
G1 X168.342 Y102.788 E1.7095
G1 X168.608 Y103.101 E1.7342
G1 X168.921 Y103.365 E1.7589
G1 X169.062 Y103.449 E1.7688
G1 X169.274 Y103.575 E1.7836
G1 X169.656 Y103.722 E1.8083
G1 X170.058 Y103.805 E1.8330
G1 X170.467 Y103.820 E1.8577
G1 X170.621 Y103.800 E1.8671
G1 X170.789 Y103.947 E1.8805
G1 X170.789 Y104.102 E1.8899
G1 X170.856 Y104.507 E1.9146
G1 X170.991 Y104.896 E1.9394
G1 X171.185 Y105.254 E1.9639
G1 X171.438 Y105.577 E1.9886
G1 X171.740 Y105.853 E2.0133
G1 X172.084 Y106.076 E2.0380
G1 X172.460 Y106.239 E2.0627
G1 X172.858 Y106.337 E2.0873
G1 X173.173 Y106.361 E2.1064
G1 X173.106 Y106.671 E2.1255
G1 X173.087 Y107.084 E2.1504
G1 X173.137 Y107.495 E2.1754
G1 X173.255 Y107.892 E2.2003
G1 X173.438 Y108.264 E2.2252
G1 X173.535 Y108.398 E2.2352
G1 X173.681 Y108.599 E2.2502
G1 X173.975 Y108.890 E2.2751
G1 X174.315 Y109.127 E2.3001
G1 X174.689 Y109.304 E2.3250
G1 X174.970 Y109.384 E2.3426
G1 X174.847 Y109.648 E2.3602
G1 X174.736 Y110.056 E2.3857
G1 X174.697 Y110.477 E2.4111
G1 X174.717 Y110.731 E2.4265
G1 X174.730 Y110.899 E2.4366
G1 X174.834 Y111.308 E2.4621
G1 X175.007 Y111.694 E2.4875
G1 X175.101 Y111.833 E2.4976
G1 X175.243 Y112.045 E2.5130
G1 X175.535 Y112.350 E2.5384
G1 X176.053 Y112.733 E2.5772
G1 X175.781 Y113.205 E2.6100
G1 X175.640 Y113.580 E2.6342
G1 X175.562 Y113.974 E2.6584
G1 X175.548 Y114.376 E2.6826
G1 X175.600 Y114.774 E2.7068
G1 X175.715 Y115.159 E2.7310
G1 X175.891 Y115.520 E2.7552
G1 X176.124 Y115.847 E2.7794
G1 X176.479 Y116.206 E2.8098
G1 X176.123 Y116.585 E2.8411
G1 X175.894 Y116.933 E2.8662
G1 X175.726 Y117.315 E2.8914
G1 X175.625 Y117.717 E2.9163
G1 X175.592 Y118.131 E2.9414
G1 X175.630 Y118.545 E2.9664
G1 X175.672 Y118.705 E2.9763
G1 X175.736 Y118.948 E2.9915
G1 X175.909 Y119.326 E3.0165
G1 X176.168 Y119.708 E3.0443
G1 X175.843 Y119.909 E3.0673
G1 X175.540 Y120.172 E3.0915
G1 X175.283 Y120.481 E3.1157
G1 X175.081 Y120.828 E3.1399
G1 X174.936 Y121.203 E3.1641
G1 X174.855 Y121.596 E3.1883
G1 X174.838 Y121.997 E3.2125
G1 X174.887 Y122.396 E3.2367
G1 X175.000 Y122.781 E3.2609
G1 X175.135 Y123.063 E3.2797
G1 X174.821 Y123.165 E3.2996
G1 X174.451 Y123.359 E3.3248
G1 X174.119 Y123.614 E3.3500
G1 X173.834 Y123.920 E3.3752
G1 X173.605 Y124.271 E3.4004
G1 X173.439 Y124.654 E3.4256
G1 X173.400 Y124.816 E3.4356
G1 X173.340 Y125.061 E3.4508
G1 X173.311 Y125.478 E3.4760
G1 X173.374 Y126.110 E3.5143
G1 X172.834 Y126.225 E3.5475
G1 X172.424 Y126.395 E3.5742
G1 X172.114 Y126.580 E3.5960
G1 X171.804 Y126.843 E3.6205
G1 X171.541 Y127.154 E3.6450
G1 X171.333 Y127.503 E3.6695
G1 X171.185 Y127.881 E3.6940
G1 X171.101 Y128.279 E3.7185
G1 X171.080 Y128.753 E3.7470
G1 X170.571 Y128.739 E3.7777
