;Generated with Cura_SteamEngine 15.01
; Default start code
G28 ; Home extruder
G1 Z15 F100
M107 ; Turn off fan
G90 ; Absolute positioning
M82 ; Extruder in absolute mode
M190 S50
; Activate all used extruder
M104 T0 S210
G92 E0 ; Reset extruder position
; Wait for all used extruders to reach temperature
M109 T0 S210
;Layer count: 40
;LAYER:0
M107
G0 F9000 X96.113 Y95.464 Z0.300
;TYPE:SKIRT
G1 F840 X97.654 Y94.135 E0.10152
G1 X99.322 Y92.967 E0.20311
G1 X101.101 Y91.975 E0.30473
G1 X102.969 Y91.167 E0.40627
G1 X104.711 Y90.615 E0.49744
G1 X104.943 Y90.540 E0.50961
G1 X106.911 Y90.137 E0.60983
G1 X108.930 Y89.927 E0.71110
G1 X110.788 Y89.921 E0.80380
G1 X111.017 Y89.921 E0.81522
G1 X112.996 Y90.121 E0.91446
G1 X114.989 Y90.525 E1.01591
G1 X116.782 Y91.083 E1.10959
G1 X116.998 Y91.154 E1.12094
G1 X118.810 Y91.931 E1.21930
G1 X120.589 Y92.912 E1.32065
G1 X122.263 Y94.072 E1.42226
G1 X123.811 Y95.392 E1.52376
G1 X125.219 Y96.866 E1.62545
G1 X126.470 Y98.474 E1.72710
G1 X127.550 Y100.199 E1.82863
G1 X128.451 Y102.024 E1.93017
G1 X129.164 Y103.931 E2.03175
G1 X129.680 Y105.903 E2.13344
G1 X129.993 Y107.914 E2.23498
G1 X130.091 Y109.739 E2.32616
G1 X130.106 Y109.962 E2.33731
G1 X130.012 Y111.846 E2.43142
G1 X129.996 Y112.070 E2.44263
G1 X129.701 Y114.000 E2.54003
G1 X129.196 Y115.969 E2.64145
G1 X128.493 Y117.879 E2.74299
G1 X127.601 Y119.710 E2.84460
G1 X126.529 Y121.441 E2.94618
G1 X125.286 Y123.054 E3.04777
G1 X123.886 Y124.535 E3.14945
G1 X122.345 Y125.864 E3.25097
G1 X120.677 Y127.032 E3.35256
G1 X118.898 Y128.024 E3.45418
G1 X117.030 Y128.832 E3.55572
G1 X115.288 Y129.384 E3.64689
G1 X115.056 Y129.459 E3.65905
G1 X113.088 Y129.862 E3.75927
G1 X111.069 Y130.072 E3.86055
G1 X109.211 Y130.078 E3.95324
G1 X108.982 Y130.078 E3.96467
G1 X107.003 Y129.878 E4.06390
G1 X105.010 Y129.474 E4.16536
G1 X103.217 Y128.916 E4.25904
G1 X103.001 Y128.845 E4.27039
G1 X101.189 Y128.068 E4.36875
G1 X99.410 Y127.087 E4.47010
G1 X97.736 Y125.927 E4.57171
G1 X96.188 Y124.607 E4.67321
G1 X94.780 Y123.133 E4.77490
G1 X93.529 Y121.525 E4.87654
G1 X92.449 Y119.800 E4.97808
G1 X91.548 Y117.975 E5.07962
G1 X90.835 Y116.068 E5.18120
G1 X90.319 Y114.096 E5.28289
G1 X90.006 Y112.084 E5.38448
G1 X89.910 Y110.267 E5.47525
G1 X89.894 Y110.039 E5.48666
G1 X89.987 Y108.154 E5.58081
G1 X90.003 Y107.929 E5.59207
G1 X90.298 Y105.999 E5.68947
G1 X90.803 Y104.030 E5.79089
G1 X91.506 Y102.120 E5.89243
G1 X92.398 Y100.289 E5.99404
G1 X93.470 Y98.558 E6.09562
G1 X94.713 Y96.945 E6.19721
G1 X96.113 Y95.464 E6.29889
G0 F9000 X96.390 Y95.754
G1 F840 X97.900 Y94.452 E6.39836
G1 X99.535 Y93.306 E6.49797
G1 X101.278 Y92.334 E6.59754
G1 X103.109 Y91.542 E6.69707
G1 X104.858 Y90.988 E6.78860
G1 X105.046 Y90.927 E6.79846
G1 X106.972 Y90.533 E6.89654
G1 X108.951 Y90.326 E6.99581
G1 X110.788 Y90.321 E7.08746
G1 X110.996 Y90.321 E7.09784
G1 X112.936 Y90.517 E7.19512
G1 X114.890 Y90.913 E7.29458
G1 X116.660 Y91.465 E7.38708
G1 X116.857 Y91.529 E7.39742
G1 X118.634 Y92.290 E7.49386
G1 X120.378 Y93.253 E7.59325
G1 X122.018 Y94.389 E7.69278
G1 X123.536 Y95.683 E7.79230
G1 X124.916 Y97.128 E7.89198
G1 X126.142 Y98.704 E7.99160
G1 X127.201 Y100.394 E8.09110
G1 X128.084 Y102.183 E8.19063
G1 X128.783 Y104.052 E8.29019
G1 X129.288 Y105.984 E8.38981
G1 X129.595 Y107.956 E8.48938
G1 X129.689 Y109.730 E8.57801
G1 X129.706 Y109.966 E8.58982
G1 X129.612 Y111.822 E8.68253
G1 X129.598 Y112.025 E8.69268
G1 X129.308 Y113.920 E8.78832
G1 X128.813 Y115.850 E8.88773
G1 X128.124 Y117.722 E8.98725
G1 X127.251 Y119.516 E9.08679
G1 X126.199 Y121.213 E9.18640
G1 X124.981 Y122.794 E9.28597
G1 X123.609 Y124.245 E9.38560
G1 X122.099 Y125.547 E9.48507
G1 X120.464 Y126.693 E9.58468
G1 X118.721 Y127.665 E9.68425
G1 X116.890 Y128.457 E9.78377
G1 X115.141 Y129.011 E9.87531
G1 X114.953 Y129.072 E9.88517
G1 X113.027 Y129.466 E9.98324
G1 X111.048 Y129.673 E10.08252
G1 X109.211 Y129.678 E10.17416
G1 X109.003 Y129.678 E10.18454
G1 X107.063 Y129.482 E10.28182
G1 X105.109 Y129.086 E10.38129
G1 X103.339 Y128.534 E10.47379
G1 X103.142 Y128.470 E10.48412
G1 X101.365 Y127.709 E10.58057
G1 X99.621 Y126.746 E10.67996
G1 X97.981 Y125.610 E10.77949
G1 X96.463 Y124.316 E10.87900
G1 X95.083 Y122.871 E10.97869
G1 X93.857 Y121.295 E11.07831
G1 X92.798 Y119.605 E11.17781
G1 X91.915 Y117.816 E11.27734
G1 X91.216 Y115.947 E11.37689
G1 X90.711 Y114.015 E11.47652
G1 X90.404 Y112.042 E11.57614
G1 X90.307 Y110.210 E11.66766
G1 X90.294 Y110.035 E11.67642
G1 X90.387 Y108.178 E11.76918
G1 X90.401 Y107.974 E11.77938
G1 X90.691 Y106.079 E11.87502
G1 X91.186 Y104.149 E11.97443
G1 X91.875 Y102.277 E12.07395
G1 X92.748 Y100.483 E12.17349
G1 X93.800 Y98.786 E12.27310
G1 X95.018 Y97.205 E12.37267
G1 X96.390 Y95.754 E12.47230
G1 F2400 E8.47230
G0 F9000 X99.018 Y98.505
;TYPE:WALL-INNER
G1 F2400 E12.47230
G1 F840 X100.239 Y97.452 E12.55274
G1 X101.553 Y96.532 E12.63276
G1 X102.959 Y95.747 E12.71310
G1 X104.443 Y95.106 E12.79375
G1 X106.007 Y94.610 E12.87561
G1 X107.551 Y94.293 E12.95424
G1 X109.156 Y94.126 E13.03475
G1 X110.795 Y94.121 E13.11652
G1 X112.367 Y94.279 E13.19534
G1 X113.944 Y94.599 E13.27562
G1 X115.505 Y95.085 E13.35719
G1 X115.527 Y95.092 E13.35834
G1 X116.960 Y95.707 E13.43614
G1 X118.371 Y96.485 E13.51653
G1 X119.696 Y97.403 E13.59695
G1 X120.925 Y98.451 E13.67753
G1 X122.033 Y99.611 E13.75756
G1 X123.025 Y100.886 E13.83815
G1 X123.877 Y102.246 E13.91822
G1 X124.592 Y103.695 E13.99883
G1 X125.157 Y105.205 E14.07927
G1 X125.562 Y106.754 E14.15914
G1 X125.811 Y108.353 E14.23988
G1 X125.898 Y109.995 E14.32192
G1 X125.899 Y110.005 E14.32242
G1 X125.820 Y111.584 E14.40129
G1 X125.580 Y113.160 E14.48083
G1 X125.181 Y114.719 E14.56111
G1 X124.624 Y116.232 E14.64155
G1 X123.920 Y117.677 E14.72174
G1 X123.069 Y119.050 E14.80233
G1 X122.090 Y120.321 E14.88237
G1 X120.981 Y121.494 E14.96291
G1 X119.760 Y122.547 E15.04335
G1 X118.446 Y123.467 E15.12337
G1 X117.040 Y124.252 E15.20371
G1 X115.556 Y124.893 E15.28436
G1 X113.992 Y125.389 E15.36622
G1 X112.448 Y125.706 E15.44485
G1 X110.843 Y125.873 E15.52536
G1 X109.204 Y125.878 E15.60713
G1 X107.632 Y125.720 E15.68595
G1 X106.055 Y125.400 E15.76623
G1 X104.494 Y124.914 E15.84780
G1 X104.472 Y124.907 E15.84895
G1 X103.039 Y124.292 E15.92675
G1 X101.628 Y123.514 E16.00714
G1 X100.303 Y122.596 E16.08756
G1 X99.074 Y121.548 E16.16814
G1 X97.966 Y120.388 E16.24817
G1 X96.974 Y119.113 E16.32876
G1 X96.122 Y117.753 E16.40883
G1 X95.407 Y116.304 E16.48944
G1 X94.842 Y114.794 E16.56988
G1 X94.437 Y113.245 E16.64975
G1 X94.188 Y111.647 E16.73044
G1 X94.102 Y110.005 E16.81247
G1 X94.101 Y109.992 E16.81312
G1 X94.179 Y108.415 E16.89190
G1 X94.419 Y106.839 E16.97143
G1 X94.818 Y105.280 E17.05172
G1 X95.375 Y103.767 E17.13215
G1 X96.079 Y102.322 E17.21234
G1 X96.930 Y100.949 E17.29293
G1 X97.909 Y99.678 E17.37297
G1 X99.018 Y98.505 E17.45351
G0 F9000 X100.768 Y99.474
G1 F840 X99.863 Y100.442 E17.51962
G1 X99.384 Y101.063 E17.55875
G1 X99.055 Y101.497 E17.58592
G1 X98.719 Y102.028 E17.61727
G1 X98.399 Y102.543 E17.64752
G1 X97.889 Y103.534 E17.70312
G1 X97.386 Y104.755 E17.76901
G1 X97.084 Y105.764 E17.82155
G1 X96.924 Y106.344 E17.85157
G1 X96.828 Y106.857 E17.87761
G1 X96.689 Y107.545 E17.91263
G1 X96.583 Y108.448 E17.95799
G1 X96.528 Y108.910 E17.98120
G1 X96.497 Y110.213 E18.04622
G1 X96.581 Y111.501 E18.11062
G1 X96.738 Y112.509 E18.16151
G1 X96.961 Y113.504 E18.21239
G1 X97.086 Y114.016 E18.23868
G1 X97.505 Y115.250 E18.30370
G1 X97.770 Y115.856 E18.33669
G1 X97.984 Y116.363 E18.36415
G1 X98.644 Y117.627 E18.43529
G1 X99.371 Y118.725 E18.50099
G1 X100.165 Y119.705 E18.56391
G1 X100.626 Y120.181 E18.59697
G1 X101.037 Y120.600 E18.62626
G1 X101.984 Y121.416 E18.68862
G1 X102.952 Y122.110 E18.74804
G1 X104.129 Y122.805 E18.81624
G1 X105.292 Y123.347 E18.88025
G1 X106.533 Y123.796 E18.94609
G1 X107.800 Y124.122 E19.01136
G1 X108.561 Y124.245 E19.04982
G1 X109.080 Y124.328 E19.07604
G1 X110.375 Y124.417 E19.14080
G1 X110.536 Y124.420 E19.14884
G1 X111.066 Y124.409 E19.17529
G1 X111.678 Y124.393 E19.20583
G1 X112.685 Y124.284 E19.25636
G1 X113.068 Y124.238 E19.27561
G1 X113.741 Y124.097 E19.30991
G1 X114.372 Y123.930 E19.34248
G1 X115.586 Y123.488 E19.40693
G1 X116.845 Y122.894 E19.47638
G1 X117.877 Y122.290 E19.53604
G1 X118.634 Y121.757 E19.58223
G1 X119.096 Y121.418 E19.61082
G1 X119.701 Y120.910 E19.65023
G1 X120.916 Y119.691 E19.73610
G1 X121.982 Y118.335 E19.82215
G1 X122.041 Y118.253 E19.82719
G1 X122.840 Y116.948 E19.90353
G1 X123.503 Y115.545 E19.98095
G1 X124.020 Y114.067 E20.05907
G1 X124.372 Y112.557 E20.13642
G1 X124.425 Y112.234 E20.15275
G1 X124.572 Y110.825 E20.22343
G1 X124.582 Y110.693 E20.23003
G1 X124.576 Y109.228 E20.30312
G1 X124.576 Y109.150 E20.30701
G1 X124.405 Y107.613 E20.38417
G1 X124.076 Y106.126 E20.46015
G1 X123.594 Y104.682 E20.53610
G1 X122.835 Y103.051 E20.62585
G1 X122.010 Y101.706 E20.70457
G1 X121.946 Y101.605 E20.71053
G1 X121.615 Y101.188 E20.73710
G1 X121.012 Y100.413 E20.78609
G1 X120.632 Y100.014 E20.81358
G1 X119.977 Y99.341 E20.86043
G1 X118.847 Y98.388 E20.93418
G1 X118.320 Y98.008 E20.96659
G1 X117.307 Y97.370 E21.02632
G1 X117.030 Y97.206 E21.04238
G1 X116.456 Y96.934 E21.07407
G1 X115.882 Y96.645 E21.10613
G1 X115.690 Y96.555 E21.11671
G1 X114.835 Y96.245 E21.16208
G1 X114.327 Y96.055 E21.18914
G1 X113.291 Y95.786 E21.24254
G1 X112.965 Y95.703 E21.25932
G1 X111.752 Y95.508 E21.32062
G1 X111.185 Y95.464 E21.34899
G1 X110.314 Y95.451 E21.39245
G1 X109.467 Y95.515 E21.43483
G1 X108.968 Y95.554 E21.45980
G1 X108.276 Y95.672 E21.49482
G1 X107.636 Y95.783 E21.52723
G1 X106.968 Y95.963 E21.56174
G1 X106.391 Y96.117 E21.59154
G1 X105.607 Y96.406 E21.63322
G1 X105.095 Y96.597 E21.66049
G1 X104.104 Y97.070 E21.71527
G1 X102.870 Y97.787 E21.78647
G1 X102.208 Y98.265 E21.82721
G1 X101.746 Y98.603 E21.85577
G1 X100.768 Y99.474 E21.92111
G0 F9000 X101.048 Y99.761
;TYPE:WALL-OUTER
G1 F840 X100.168 Y100.701 E21.98535
G1 X99.702 Y101.306 E22.02345
G1 X99.384 Y101.726 E22.04973
G1 X99.058 Y102.241 E22.08014
G1 X98.747 Y102.740 E22.10947
G1 X98.252 Y103.702 E22.16345
G1 X97.763 Y104.889 E22.22750
G1 X97.460 Y105.902 E22.28025
G1 X97.436 Y105.971 E22.28389
G1 X97.220 Y106.936 E22.33323
G1 X97.084 Y107.608 E22.36743
G1 X96.927 Y108.939 E22.43430
G1 X96.897 Y110.204 E22.49743
G1 X96.979 Y111.457 E22.56007
G1 X97.131 Y112.434 E22.60940
G1 X97.350 Y113.413 E22.65945
G1 X97.471 Y113.904 E22.68468
G1 X97.878 Y115.105 E22.74795
G1 X98.139 Y115.701 E22.78041
G1 X98.346 Y116.192 E22.80699
G1 X98.989 Y117.424 E22.87632
G1 X99.694 Y118.488 E22.94000
G1 X100.464 Y119.439 E23.00105
G1 X100.913 Y119.902 E23.03323
G1 X101.311 Y120.308 E23.06159
G1 X102.231 Y121.101 E23.12219
G1 X103.171 Y121.775 E23.17989
G1 X104.316 Y122.450 E23.24620
G1 X105.448 Y122.978 E23.30852
G1 X106.650 Y123.413 E23.37230
G1 X107.882 Y123.730 E23.43576
G1 X109.125 Y123.930 E23.49857
G1 X110.393 Y124.017 E23.56198
G1 X110.536 Y124.020 E23.56912
G1 X111.651 Y123.994 E23.62476
G1 X112.639 Y123.887 E23.67434
G1 X113.003 Y123.843 E23.69263
G1 X113.649 Y123.708 E23.72556
G1 X114.252 Y123.548 E23.75668
G1 X115.432 Y123.119 E23.81932
G1 X116.658 Y122.540 E23.88697
G1 X117.660 Y121.953 E23.94490
G1 X118.401 Y121.432 E23.99010
G1 X118.849 Y121.103 E24.01783
G1 X119.430 Y120.615 E24.05568
G1 X120.623 Y119.418 E24.13999
G1 X121.662 Y118.095 E24.22392
G1 X122.487 Y116.757 E24.30234
G1 X123.140 Y115.378 E24.37847
G1 X123.638 Y113.948 E24.45401
G1 X123.979 Y112.478 E24.52930
G1 X124.028 Y112.181 E24.54431
G1 X124.173 Y110.788 E24.61419
G1 X124.182 Y110.678 E24.61969
G1 X124.176 Y109.172 E24.69483
G1 X124.010 Y107.682 E24.76962
G1 X124.003 Y107.649 E24.77131
G1 X123.689 Y106.229 E24.84386
G1 X123.219 Y104.821 E24.91792
G1 X122.484 Y103.243 E25.00477
G1 X121.671 Y101.918 E25.08232
G1 X121.619 Y101.837 E25.08713
G1 X121.302 Y101.437 E25.11259
G1 X120.709 Y100.674 E25.16080
G1 X120.344 Y100.291 E25.18719
G1 X119.701 Y99.631 E25.23317
G1 X118.601 Y98.704 E25.30493
G1 X118.096 Y98.340 E25.33599
G1 X117.099 Y97.711 E25.39480
G1 X116.843 Y97.560 E25.40963
G1 X116.272 Y97.289 E25.44116
G1 X115.707 Y97.005 E25.47271
G1 X114.698 Y96.621 E25.52657
G1 X114.206 Y96.437 E25.55278
G1 X113.192 Y96.173 E25.60506
G1 X112.884 Y96.095 E25.62091
G1 X111.705 Y95.905 E25.68049
G1 X111.166 Y95.864 E25.70745
G1 X110.326 Y95.851 E25.74937
G1 X109.018 Y95.951 E25.81481
G1 X107.723 Y96.173 E25.88036
G1 X106.511 Y96.499 E25.94298
G1 X105.251 Y96.966 E26.01002
G1 X104.291 Y97.424 E26.06309
G1 X103.088 Y98.123 E26.13250
G1 X102.443 Y98.588 E26.17217
G1 X101.998 Y98.914 E26.19969
G1 X101.048 Y99.761 E26.26319
G0 F9000 X100.829 Y99.556
G0 X98.948 Y98.434
G0 X98.738 Y98.218
G1 F840 X99.988 Y97.141 E26.34551
G1 X101.345 Y96.190 E26.42818
G1 X102.783 Y95.387 E26.51035
G1 X104.301 Y94.732 E26.59283
G1 X105.885 Y94.229 E26.67575
G1 X107.490 Y93.897 E26.75752
G1 X109.134 Y93.726 E26.83998
G1 X110.825 Y93.721 E26.92434
G1 X112.426 Y93.883 E27.00462
G1 X114.046 Y94.211 E27.08709
G1 X115.628 Y94.704 E27.16976
G1 X117.140 Y95.350 E27.25179
G1 X118.587 Y96.148 E27.33423
G1 X119.940 Y97.085 E27.41634
G1 X121.196 Y98.157 E27.49872
G1 X122.338 Y99.351 E27.58115
G1 X123.358 Y100.663 E27.66406
G1 X124.226 Y102.050 E27.74569
G1 X124.959 Y103.533 E27.82822
G1 X125.538 Y105.081 E27.91068
G1 X125.953 Y106.668 E27.99251
G1 X126.209 Y108.310 E28.07542
G1 X126.297 Y109.970 E28.15836
G1 X126.300 Y109.998 E28.15976
G1 X126.218 Y111.617 E28.24064
G1 X126.217 Y111.639 E28.24174
G1 X125.973 Y113.238 E28.32243
G1 X125.562 Y114.839 E28.40490
G1 X124.993 Y116.386 E28.48713
G1 X124.267 Y117.877 E28.56987
G1 X123.400 Y119.277 E28.65202
G1 X122.392 Y120.584 E28.73437
G1 X121.261 Y121.781 E28.81653
G1 X120.011 Y122.858 E28.89885
G1 X118.654 Y123.809 E28.98152
G1 X117.216 Y124.612 E29.06369
G1 X115.698 Y125.267 E29.14617
G1 X114.114 Y125.770 E29.22909
G1 X112.509 Y126.102 E29.31086
G1 X110.865 Y126.273 E29.39332
G1 X109.174 Y126.278 E29.47768
G1 X107.573 Y126.116 E29.55796
G1 X105.953 Y125.788 E29.64043
G1 X104.368 Y125.294 E29.72325
G1 X102.859 Y124.649 E29.80513
G1 X101.412 Y123.851 E29.88757
G1 X100.059 Y122.914 E29.96968
G1 X98.803 Y121.842 E30.05206
G1 X97.661 Y120.648 E30.13449
G1 X96.641 Y119.336 E30.21740
G1 X95.773 Y117.949 E30.29903
G1 X95.039 Y116.462 E30.38176
G1 X94.461 Y114.918 E30.46401
G1 X94.046 Y113.329 E30.54595
G1 X93.790 Y111.689 E30.62876
G1 X93.703 Y110.030 E30.71164
G1 X93.700 Y110.000 E30.71314
G1 X93.781 Y108.382 E30.79397
G1 X93.782 Y108.360 E30.79507
G1 X94.026 Y106.761 E30.87576
G1 X94.437 Y105.160 E30.95823
G1 X95.006 Y103.613 E31.04046
G1 X95.732 Y102.122 E31.12320
G1 X96.599 Y100.722 E31.20535
G1 X97.607 Y99.415 E31.28770
G1 X98.738 Y98.218 E31.36986
G0 F9000 X99.004 Y98.721
;TYPE:SKIN
G1 F840 X100.180 Y99.897 E31.45283
G0 F9000 X100.453 Y99.605
G1 F840 X99.297 Y98.449 E31.53440
G0 F9000 X99.600 Y98.186
G1 F840 X100.731 Y99.317 E31.61419
G0 F9000 X101.030 Y99.050
G1 F840 X99.904 Y97.925 E31.69360
G0 F9000 X98.729 Y99.011
G1 F840 X99.907 Y100.189 E31.77672
G0 F9000 X99.646 Y100.495
G1 F840 X98.454 Y99.302 E31.86086
G0 F9000 X98.179 Y99.593
G1 F840 X99.401 Y100.815 E31.94707
G0 F9000 X99.156 Y101.136
G1 F840 X97.915 Y99.895 E32.03463
G0 F9000 X97.669 Y100.215
G1 F840 X98.914 Y101.459 E32.12244
G0 F9000 X98.696 Y101.807
G1 F840 X97.423 Y100.535 E32.21222
G0 F9000 X97.177 Y100.854
G1 F840 X98.478 Y102.155 E32.30401
G0 F9000 X98.261 Y102.504
G1 F840 X96.945 Y101.187 E32.39690
G0 F9000 X96.728 Y101.536
G1 F840 X98.069 Y102.877 E32.49152
G0 F9000 X97.877 Y103.251
G1 F840 X96.512 Y101.886 E32.58782
G0 F9000 X96.295 Y102.235
