;Generated with Cura_SteamEngine 15.01
; Default start code
G28 ; Home extruder
G1 Z15 F100
M107 ; Turn off fan
G90 ; Absolute positioning
M82 ; Extruder in absolute mode
M190 S50
; Activate all used extruder
M104 T0 S210
G92 E0 ; Reset extruder position
; Wait for all used extruders to reach temperature
M109 T0 S210
;Layer count: 40
;LAYER:0
M107
G0 F9000 X96.185 Y95.534 Z0.300
;TYPE:SKIRT
G1 F840 X97.715 Y94.215 E0.10078
G1 X99.374 Y93.052 E0.20186
G1 X101.145 Y92.065 E0.30301
G1 X103.004 Y91.260 E0.40408
G1 X104.736 Y90.712 E0.49471
G1 X104.968 Y90.637 E0.50688
G1 X106.926 Y90.236 E0.60659
G1 X108.935 Y90.027 E0.70736
G1 X110.783 Y90.021 E0.79956
G1 X111.012 Y90.021 E0.81098
G1 X112.981 Y90.220 E0.90972
G1 X114.963 Y90.622 E1.01061
G1 X116.746 Y91.176 E1.10376
G1 X116.964 Y91.247 E1.11520
G1 X118.766 Y92.021 E1.21304
G1 X120.537 Y92.997 E1.31393
G1 X122.202 Y94.151 E1.41500
G1 X123.743 Y95.465 E1.51603
G1 X125.144 Y96.932 E1.61724
G1 X126.262 Y98.370 E1.70811
G1 X126.410 Y98.558 E1.72005
G1 X127.467 Y100.252 E1.81966
G1 X128.360 Y102.065 E1.92049
G1 X129.068 Y103.963 E2.02156
G1 X129.582 Y105.922 E2.12260
G1 X129.893 Y107.924 E2.22368
G1 X129.990 Y109.734 E2.31411
G1 X130.007 Y109.963 E2.32556
G1 X129.911 Y111.836 E2.41913
G1 X129.896 Y112.059 E2.43028
G1 X129.603 Y113.980 E2.52723
G1 X129.100 Y115.939 E2.62813
G1 X128.401 Y117.841 E2.72923
G1 X127.514 Y119.662 E2.83029
G1 X126.541 Y121.230 E2.92235
G1 X126.429 Y121.414 E2.93310
G1 X125.307 Y122.864 E3.02457
G1 X125.167 Y123.041 E3.03583
G1 X123.814 Y124.465 E3.13382
G1 X122.284 Y125.784 E3.23460
G1 X120.625 Y126.947 E3.33568
G1 X118.854 Y127.934 E3.43684
G1 X116.995 Y128.739 E3.53790
G1 X115.263 Y129.287 E3.62854
G1 X115.031 Y129.362 E3.64070
G1 X113.073 Y129.763 E3.74041
G1 X111.064 Y129.972 E3.84118
G1 X109.216 Y129.978 E3.93338
G1 X108.987 Y129.978 E3.94480
G1 X107.018 Y129.779 E4.04354
G1 X105.036 Y129.377 E4.14443
G1 X103.253 Y128.823 E4.23758
G1 X103.035 Y128.752 E4.24902
G1 X101.233 Y127.978 E4.34687
G1 X99.462 Y127.002 E4.44775
G1 X97.797 Y125.848 E4.54882
G1 X96.256 Y124.534 E4.64986
G1 X94.855 Y123.067 E4.75106
G1 X93.723 Y121.611 E4.84307
G1 X93.589 Y121.441 E4.85387
G1 X92.532 Y119.747 E4.95349
G1 X91.639 Y117.934 E5.05431
G1 X90.931 Y116.036 E5.15538
G1 X90.417 Y114.077 E5.25642
G1 X90.106 Y112.075 E5.35750
G1 X90.009 Y110.266 E5.44788
G1 X89.992 Y110.037 E5.45934
G1 X90.087 Y108.163 E5.55295
G1 X90.103 Y107.940 E5.56411
G1 X90.396 Y106.019 E5.66105
G1 X90.899 Y104.060 E5.76196
G1 X91.598 Y102.158 E5.86306
G1 X92.485 Y100.337 E5.96411
G1 X93.458 Y98.769 E6.05618
G1 X93.570 Y98.585 E6.06692
G1 X94.692 Y97.135 E6.15839
G1 X94.832 Y96.958 E6.16965
G1 X96.185 Y95.534 E6.26765
G0 F9000 X96.461 Y95.824
G1 F840 X97.961 Y94.531 E6.36645
G1 X99.587 Y93.391 E6.46552
G1 X101.322 Y92.424 E6.56462
G1 X103.144 Y91.635 E6.66367
G1 X104.884 Y91.085 E6.75472
G1 X105.071 Y91.024 E6.76453
G1 X106.987 Y90.632 E6.86210
G1 X108.956 Y90.427 E6.96086
G1 X110.783 Y90.421 E7.05201
G1 X110.991 Y90.421 E7.06239
G1 X112.921 Y90.616 E7.15917
G1 X114.864 Y91.010 E7.25808
G1 X116.625 Y91.557 E7.35008
G1 X116.823 Y91.622 E7.36047
G1 X118.590 Y92.381 E7.45642
G1 X120.326 Y93.338 E7.55532
G1 X121.958 Y94.468 E7.65435
G1 X123.468 Y95.756 E7.75337
G1 X124.841 Y97.194 E7.85256
G1 X125.948 Y98.618 E7.94254
G1 X126.082 Y98.789 E7.95338
G1 X127.117 Y100.447 E8.05090
G1 X127.993 Y102.224 E8.14974
G1 X128.686 Y104.083 E8.24872
G1 X129.190 Y106.004 E8.34780
G1 X129.495 Y107.966 E8.44686
G1 X129.589 Y109.730 E8.53499
G1 X129.606 Y109.967 E8.54685
G1 X129.512 Y111.812 E8.63901
G1 X129.498 Y112.015 E8.64916
G1 X129.210 Y113.900 E8.74430
G1 X128.717 Y115.820 E8.84320
G1 X128.033 Y117.684 E8.94225
G1 X127.163 Y119.468 E9.04128
G1 X126.212 Y121.001 E9.13128
G1 X126.213 Y121.001 E9.13133
G1 X126.099 Y121.187 E9.14221
G1 X124.991 Y122.618 E9.23251
G1 X124.865 Y122.779 E9.24271
G1 X123.538 Y124.175 E9.33880
G1 X122.038 Y125.468 E9.43760
G1 X120.412 Y126.608 E9.53667
G1 X118.677 Y127.575 E9.63577
G1 X116.855 Y128.364 E9.73482
G1 X115.115 Y128.914 E9.82587
G1 X114.928 Y128.975 E9.83568
G1 X113.012 Y129.367 E9.93325
G1 X111.043 Y129.572 E10.03202
G1 X109.216 Y129.578 E10.12317
G1 X109.008 Y129.578 E10.13354
G1 X107.078 Y129.383 E10.23032
G1 X105.135 Y128.989 E10.32923
G1 X103.374 Y128.442 E10.42123
G1 X103.176 Y128.377 E10.43162
G1 X101.409 Y127.618 E10.52757
G1 X99.673 Y126.661 E10.62647
G1 X98.041 Y125.531 E10.72550
G1 X96.531 Y124.243 E10.82452
G1 X95.158 Y122.805 E10.92371
G1 X94.051 Y121.381 E11.01369
G1 X93.917 Y121.210 E11.02453
G1 X92.882 Y119.552 E11.12205
G1 X92.006 Y117.775 E11.22089
G1 X91.313 Y115.916 E11.31987
G1 X90.809 Y113.995 E11.41895
G1 X90.504 Y112.033 E11.51801
G1 X90.410 Y110.270 E11.60609
G1 X90.393 Y110.033 E11.61795
G1 X90.487 Y108.187 E11.71016
G1 X90.501 Y107.984 E11.72031
G1 X90.789 Y106.099 E11.81545
G1 X91.282 Y104.179 E11.91435
G1 X91.966 Y102.315 E12.01340
G1 X92.836 Y100.531 E12.11243
G1 X93.787 Y98.998 E12.20243
G1 X93.786 Y98.998 E12.20248
G1 X93.900 Y98.812 E12.21336
G1 X95.008 Y97.381 E12.30366
G1 X95.134 Y97.220 E12.31386
G1 X96.461 Y95.824 E12.40995
G1 F2400 E8.40995
G0 F9000 X99.085 Y98.579
;TYPE:WALL-INNER
G1 F2400 E12.40995
G1 F840 X100.300 Y97.531 E12.49000
G1 X101.605 Y96.617 E12.56949
G1 X103.003 Y95.837 E12.64935
G1 X104.478 Y95.199 E12.72953
G1 X106.032 Y94.707 E12.81085
G1 X107.566 Y94.392 E12.88898
G1 X109.161 Y94.226 E12.96899
G1 X110.790 Y94.221 E13.05026
G1 X112.352 Y94.378 E13.12858
G1 X113.919 Y94.696 E13.20835
G1 X115.470 Y95.178 E13.28938
G1 X116.920 Y95.799 E13.36808
G1 X118.320 Y96.570 E13.44781
G1 X119.635 Y97.482 E13.52765
G1 X120.857 Y98.524 E13.60777
G1 X121.957 Y99.676 E13.68724
G1 X122.962 Y100.968 E13.76890
G1 X123.794 Y102.301 E13.84730
G1 X124.499 Y103.730 E13.92680
G1 X125.061 Y105.236 E14.00699
G1 X125.464 Y106.775 E14.08636
G1 X125.711 Y108.363 E14.16654
G1 X125.798 Y109.995 E14.24808
G1 X125.799 Y110.005 E14.24858
G1 X125.720 Y111.574 E14.32695
G1 X125.483 Y113.139 E14.40592
G1 X125.085 Y114.689 E14.48576
G1 X124.532 Y116.194 E14.56575
G1 X123.833 Y117.628 E14.64534
G1 X122.971 Y119.017 E14.72690
G1 X121.994 Y120.282 E14.80664
G1 X120.914 Y121.420 E14.88492
G1 X119.699 Y122.468 E14.96497
G1 X118.394 Y123.382 E15.04445
G1 X116.996 Y124.162 E15.12432
G1 X115.521 Y124.800 E15.20450
G1 X113.967 Y125.292 E15.28582
G1 X112.433 Y125.607 E15.36395
G1 X110.838 Y125.773 E15.44395
G1 X109.209 Y125.778 E15.52523
G1 X107.647 Y125.621 E15.60355
G1 X106.080 Y125.303 E15.68332
G1 X104.529 Y124.821 E15.76435
G1 X103.079 Y124.200 E15.84304
G1 X101.679 Y123.429 E15.92278
G1 X100.364 Y122.517 E16.00262
G1 X99.142 Y121.475 E16.08274
G1 X98.042 Y120.323 E16.16221
G1 X97.037 Y119.031 E16.24387
G1 X96.205 Y117.698 E16.32227
G1 X95.499 Y116.266 E16.40192
G1 X94.938 Y114.763 E16.48196
G1 X94.535 Y113.224 E16.56133
G1 X94.288 Y111.636 E16.64151
G1 X94.201 Y110.005 E16.72299
G1 X94.200 Y109.992 E16.72364
G1 X94.279 Y108.425 E16.80192
G1 X94.280 Y108.410 E16.80267
G1 X94.516 Y106.860 E16.88089
G1 X94.914 Y105.310 E16.96073
G1 X95.467 Y103.805 E17.04072
G1 X96.166 Y102.371 E17.12031
G1 X97.028 Y100.982 E17.20187
G1 X98.005 Y99.717 E17.28161
G1 X99.085 Y98.579 E17.35989
G0 F9000 X100.954 Y99.560
G1 F840 X100.903 Y99.601 E17.36315
G1 X100.029 Y100.540 E17.42715
G1 X99.666 Y101.010 E17.45678
G1 X99.234 Y101.573 E17.49218
G1 X98.578 Y102.605 E17.55319
G1 X98.069 Y103.588 E17.60842
G1 X97.828 Y104.143 E17.63860
G1 X97.532 Y104.898 E17.67906
G1 X97.232 Y105.917 E17.73206
G1 X97.126 Y106.304 E17.75208
G1 X97.007 Y106.908 E17.78279
G1 X96.871 Y107.564 E17.81621
G1 X96.767 Y108.468 E17.86161
G1 X96.719 Y108.849 E17.88077
G1 X96.705 Y109.404 E17.90847
G1 X96.681 Y110.138 E17.94511
G1 X96.760 Y111.417 E18.00904
G1 X96.922 Y112.480 E18.06268
G1 X97.137 Y113.443 E18.11191
G1 X97.249 Y113.911 E18.13592
G1 X97.661 Y115.134 E18.20030
G1 X97.939 Y115.776 E18.23521
G1 X98.142 Y116.266 E18.26167
G1 X98.392 Y116.754 E18.28902
G1 X98.808 Y117.538 E18.33330
G1 X99.148 Y118.042 E18.36363
G1 X99.553 Y118.658 E18.40041
G1 X99.987 Y119.178 E18.43420
G1 X100.388 Y119.675 E18.46606
G1 X100.922 Y120.206 E18.50364
G1 X101.306 Y120.598 E18.53101
G1 X101.981 Y121.156 E18.57470
G1 X102.245 Y121.382 E18.59204
G1 X103.206 Y122.048 E18.65038
G1 X104.446 Y122.757 E18.72164
G1 X105.145 Y123.069 E18.75983
G1 X105.679 Y123.302 E18.78889
G1 X106.824 Y123.686 E18.84915
G1 X108.095 Y123.989 E18.91433
G1 X109.399 Y124.175 E18.98005
G1 X110.125 Y124.211 E19.01631
G1 X110.701 Y124.237 E19.04508
G1 X112.011 Y124.181 E19.11049
G1 X112.667 Y124.098 E19.14348
G1 X113.297 Y124.009 E19.17523
G1 X114.174 Y123.810 E19.22009
G1 X114.644 Y123.699 E19.24419
G1 X115.301 Y123.480 E19.27874
G1 X115.825 Y123.275 E19.30681
G1 X117.056 Y122.667 E19.37531
G1 X118.090 Y122.030 E19.43590
G1 X118.582 Y121.672 E19.46625
G1 X119.256 Y121.161 E19.50845
G1 X119.808 Y120.660 E19.54564
G1 X120.247 Y120.259 E19.57530
G1 X120.762 Y119.715 E19.61268
G1 X121.024 Y119.415 E19.63255
G1 X121.914 Y118.261 E19.70526
G1 X122.751 Y116.901 E19.78493
G1 X123.422 Y115.487 E19.86301
G1 X123.927 Y114.031 E19.93990
G1 X124.271 Y112.546 E20.01595
G1 X124.472 Y110.818 E20.10274
G1 X124.482 Y110.681 E20.10959
G1 X124.476 Y109.234 E20.18178
G1 X124.476 Y109.154 E20.18577
G1 X124.308 Y107.650 E20.26127
G1 X123.982 Y106.162 E20.33727
G1 X123.506 Y104.730 E20.41256
G1 X123.330 Y104.306 E20.43546
G1 X122.756 Y103.119 E20.50124
G1 X122.663 Y102.939 E20.51135
G1 X121.926 Y101.759 E20.58076
G1 X121.503 Y101.205 E20.61553
G1 X120.940 Y100.483 E20.66121
G1 X120.519 Y100.041 E20.69167
G1 X119.918 Y99.422 E20.73471
G1 X119.421 Y98.989 E20.76760
G1 X118.808 Y98.485 E20.80719
G1 X118.220 Y98.061 E20.84335
G1 X117.256 Y97.458 E20.90008
G1 X116.946 Y97.273 E20.91809
G1 X116.257 Y96.948 E20.95610
G1 X115.622 Y96.635 E20.99142
G1 X114.604 Y96.265 E21.04546
G1 X114.286 Y96.148 E21.06236
G1 X112.973 Y95.807 E21.13004
G1 X111.639 Y95.660 E21.19700
G1 X111.006 Y95.648 E21.22858
G1 X110.309 Y95.638 E21.26336
G1 X109.385 Y95.710 E21.30960
G1 X108.981 Y95.739 E21.32981
G1 X107.843 Y95.936 E21.38743
G1 X107.140 Y96.110 E21.42356
G1 X106.449 Y96.297 E21.45927
G1 X105.493 Y96.647 E21.51006
G1 X105.114 Y96.792 E21.53031
G1 X104.160 Y97.252 E21.58315
G1 X102.978 Y97.943 E21.65146
G1 X101.875 Y98.742 E21.71941
G1 X100.954 Y99.560 E21.78086
G0 F9000 X101.210 Y99.868
;TYPE:WALL-OUTER
G1 F840 X100.334 Y100.799 E21.84464
G1 X99.562 Y101.802 E21.90778
G1 X98.925 Y102.804 E21.96702
G1 X98.430 Y103.760 E22.02073
G1 X98.198 Y104.296 E22.04987
G1 X97.911 Y105.028 E22.08909
G1 X97.617 Y106.026 E22.14100
G1 X97.516 Y106.395 E22.16009
G1 X97.400 Y106.983 E22.18999
G1 X97.266 Y107.628 E22.22285
G1 X97.163 Y108.520 E22.26765
G1 X97.118 Y108.879 E22.28570
G1 X97.105 Y109.417 E22.31255
G1 X97.082 Y110.132 E22.34824
G1 X97.158 Y111.374 E22.41032
G1 X97.315 Y112.406 E22.46240
G1 X97.527 Y113.353 E22.51081
G1 X97.634 Y113.800 E22.53375
G1 X98.035 Y114.991 E22.59644
G1 X98.308 Y115.623 E22.63079
G1 X98.505 Y116.098 E22.65644
G1 X98.747 Y116.569 E22.68286
G1 X99.151 Y117.332 E22.72594
G1 X99.482 Y117.822 E22.75544
G1 X99.875 Y118.419 E22.79110
G1 X100.292 Y118.919 E22.82358
G1 X100.685 Y119.407 E22.85484
G1 X101.208 Y119.926 E22.89160
G1 X101.577 Y120.303 E22.91792
G1 X102.233 Y120.845 E22.96037
G1 X102.490 Y121.065 E22.97725
G1 X103.427 Y121.715 E23.03414
G1 X103.705 Y121.892 E23.05058
G1 X104.624 Y122.398 E23.10292
G1 X105.307 Y122.703 E23.14024
G1 X105.823 Y122.929 E23.16834
G1 X106.934 Y123.301 E23.22680
G1 X108.170 Y123.596 E23.29019
G1 X109.437 Y123.776 E23.35404
G1 X110.144 Y123.812 E23.38936
G1 X110.701 Y123.836 E23.41717
G1 X111.977 Y123.782 E23.48089
G1 X112.614 Y123.701 E23.51292
G1 X113.233 Y123.614 E23.54411
G1 X113.302 Y123.602 E23.54760
G1 X114.534 Y123.314 E23.61073
G1 X115.165 Y123.104 E23.64390
G1 X115.663 Y122.909 E23.67059
G1 X116.862 Y122.316 E23.73732
G1 X117.867 Y121.697 E23.79621
G1 X118.343 Y121.351 E23.82557
G1 X119.000 Y120.853 E23.86670
G1 X119.966 Y119.974 E23.93186
G1 X120.466 Y119.446 E23.96814
G1 X120.711 Y119.166 E23.98670
G1 X121.585 Y118.032 E24.05813
G1 X122.399 Y116.710 E24.13558
G1 X123.051 Y115.335 E24.21150
G1 X123.542 Y113.920 E24.28623
G1 X123.878 Y112.468 E24.36058
G1 X123.930 Y112.158 E24.37626
G1 X124.073 Y110.782 E24.44528
G1 X124.082 Y110.666 E24.45109
G1 X124.076 Y109.175 E24.52547
G1 X123.912 Y107.707 E24.59917
G1 X123.595 Y106.263 E24.67292
G1 X123.131 Y104.869 E24.74622
G1 X122.965 Y104.470 E24.76778
G1 X122.398 Y103.298 E24.83274
G1 X122.315 Y103.137 E24.84177
G1 X121.588 Y101.974 E24.91020
G1 X121.533 Y101.889 E24.91525
G1 X121.189 Y101.453 E24.94296
G1 X120.637 Y100.744 E24.98779
G1 X120.231 Y100.318 E25.01715
G1 X119.643 Y99.713 E25.05924
G1 X119.162 Y99.294 E25.09106
G1 X118.563 Y98.802 E25.12974
G1 X117.997 Y98.394 E25.16454
G1 X117.048 Y97.799 E25.22043
G1 X116.758 Y97.627 E25.23725
G1 X116.086 Y97.310 E25.27432
G1 X115.469 Y97.005 E25.30866
G1 X114.461 Y96.639 E25.36216
G1 X114.169 Y96.531 E25.37769
G1 X112.900 Y96.201 E25.44311
G1 X111.614 Y96.059 E25.50765
G1 X110.322 Y96.038 E25.57212
G1 X109.416 Y96.109 E25.61746
G1 X109.030 Y96.136 E25.63677
G1 X107.926 Y96.327 E25.69266
G1 X107.241 Y96.497 E25.72787
G1 X106.490 Y96.700 E25.76669
G1 X105.634 Y97.021 E25.81230
G1 X105.273 Y97.159 E25.83158
G1 X104.336 Y97.611 E25.88348
G1 X103.199 Y98.277 E25.94922
G1 X102.126 Y99.054 E26.01531
G1 X101.210 Y99.868 E26.07645
G0 F9000 X101.019 Y99.637
G0 X99.023 Y98.500
G0 X98.811 Y98.287
G1 F840 X100.049 Y97.220 E26.15799
G1 X101.397 Y96.275 E26.24012
G1 X102.827 Y95.477 E26.32182
G1 X104.336 Y94.825 E26.40383
G1 X105.910 Y94.326 E26.48621
G1 X107.505 Y93.996 E26.56747
G1 X109.139 Y93.826 E26.64943
G1 X110.820 Y93.821 E26.73330
G1 X112.411 Y93.982 E26.81308
G1 X114.021 Y94.308 E26.89503
G1 X115.593 Y94.797 E26.97716
G1 X117.096 Y95.440 E27.05872
G1 X118.535 Y96.233 E27.14069
G1 X119.879 Y97.164 E27.22226
G1 X121.128 Y98.230 E27.30419
G1 X122.262 Y99.416 E27.38605
G1 X123.277 Y100.721 E27.46853
G1 X124.147 Y102.111 E27.55034
G1 X124.867 Y103.571 E27.63156
G1 X125.442 Y105.112 E27.71362
G1 X125.855 Y106.688 E27.79490
G1 X126.109 Y108.320 E27.87730
G1 X126.197 Y109.970 E27.95974
G1 X126.200 Y109.998 E27.96114
G1 X126.118 Y111.607 E28.04152
G1 X126.117 Y111.629 E28.04262
G1 X125.875 Y113.218 E28.12281
G1 X125.466 Y114.809 E28.20476
G1 X124.901 Y116.349 E28.28660
G1 X124.182 Y117.824 E28.36847
G1 X123.312 Y119.227 E28.45083
G1 X122.312 Y120.525 E28.53257
G1 X122.292 Y120.550 E28.53417
G1 X121.188 Y121.712 E28.61414
G1 X119.950 Y122.779 E28.69568
G1 X118.602 Y123.724 E28.77781
G1 X117.172 Y124.522 E28.85951
G1 X115.663 Y125.174 E28.94152
G1 X114.089 Y125.673 E29.02390
G1 X112.494 Y126.003 E29.10516
G1 X110.860 Y126.173 E29.18712
G1 X109.179 Y126.178 E29.27098
G1 X107.588 Y126.017 E29.35076
G1 X105.978 Y125.691 E29.43272
G1 X104.403 Y125.201 E29.51501
G1 X102.903 Y124.559 E29.59641
G1 X101.464 Y123.766 E29.67838
G1 X100.120 Y122.835 E29.75995
G1 X98.871 Y121.769 E29.84187
G1 X97.737 Y120.583 E29.92374
G1 X96.722 Y119.278 E30.00622
G1 X95.852 Y117.888 E30.08803
G1 X95.132 Y116.428 E30.16925
G1 X94.557 Y114.887 E30.25130
G1 X94.144 Y113.309 E30.33268
G1 X93.890 Y111.679 E30.41499
G1 X93.802 Y110.030 E30.49737
G1 X93.799 Y110.002 E30.49878
G1 X93.881 Y108.392 E30.57920
G1 X93.882 Y108.370 E30.58030
G1 X94.124 Y106.781 E30.66049
G1 X94.533 Y105.190 E30.74245
G1 X95.098 Y103.650 E30.82429
G1 X95.819 Y102.171 E30.90638
G1 X96.687 Y100.772 E30.98851
G1 X97.687 Y99.474 E31.07026
G1 X97.707 Y99.449 E31.07186
G1 X98.811 Y98.287 E31.15182
