;Generated with Cura_SteamEngine 15.01
; Default start code
G28 ; Home extruder
G1 Z15 F100
M107 ; Turn off fan
G90 ; Absolute positioning
M82 ; Extruder in absolute mode
M190 S50
; Activate all used extruder
M104 T0 S210
G92 E0 ; Reset extruder position
; Wait for all used extruders to reach temperature
M109 T0 S210
;Layer count: 50
;LAYER:0
M107
G0 F9000 X90.136 Y70.613 Z0.300
;TYPE:SKIRT
G1 F840 X106.674 Y61.066 E0.95269
G1 X108.035 Y61.069 E1.02060
G1 X109.435 Y61.066 E1.09044
G1 X116.273 Y65.015 E1.48439
G1 X125.972 Y70.613 E2.04309
G1 X127.354 Y73.012 E2.18122
G1 X127.354 Y92.098 E3.13342
G1 X125.972 Y94.497 E3.27155
G1 X109.438 Y104.042 E4.22402
G1 X106.669 Y104.042 E4.36217
G1 X90.136 Y94.497 E5.31460
G1 X88.754 Y92.098 E5.45272
G1 X88.754 Y73.012 E6.40493
G1 X90.136 Y70.613 E6.54305
G0 F9000 X90.429 Y70.906
G1 F840 X106.781 Y61.466 E7.48504
G1 X108.035 Y61.469 E7.54760
G1 X109.328 Y61.466 E7.61211
G1 X125.679 Y70.906 E8.55406
G1 X126.954 Y73.119 E8.68148
G1 X126.954 Y91.991 E9.62301
G1 X125.679 Y94.204 E9.75043
G1 X109.331 Y103.642 E10.69219
G1 X106.776 Y103.642 E10.81966
G1 X90.429 Y94.204 E11.76139
G1 X89.154 Y91.991 E11.88881
G1 X89.154 Y73.119 E12.83033
G1 X90.429 Y70.906 E12.95775
G1 F2400 E8.95775
G0 F9000 X93.213 Y73.687
;TYPE:WALL-INNER
G1 F2400 E12.95775
G1 F840 X107.795 Y65.268 E13.79780
G1 X108.034 Y65.269 E13.80972
G1 X108.313 Y65.268 E13.82364
G1 X122.895 Y73.687 E14.66369
G1 X123.154 Y74.136 E14.68955
G1 X123.154 Y90.974 E15.52960
G1 X122.895 Y91.423 E15.55546
G1 X108.313 Y99.842 E16.39551
G1 X107.795 Y99.842 E16.42135
G1 X93.213 Y91.423 E17.26139
G1 X92.954 Y90.974 E17.28726
G1 X92.954 Y74.136 E18.12731
G1 X93.213 Y73.687 E18.15317
G0 F9000 X95.682 Y74.993
G1 F840 X95.106 Y76.037 E18.21265
G1 X94.844 Y76.594 E18.24336
G1 X94.463 Y77.510 E18.29286
G1 X94.226 Y78.217 E18.33006
G1 X94.008 Y78.976 E18.36946
G1 X93.911 Y79.359 E18.38917
G1 X93.800 Y79.954 E18.41937
G1 X93.683 Y80.648 E18.45448
G1 X93.629 Y81.087 E18.47654
G1 X93.563 Y82.168 E18.53058
G1 X93.555 Y82.641 E18.55418
G1 X93.602 Y83.669 E18.60552
G1 X93.677 Y84.436 E18.64397
G1 X93.773 Y85.025 E18.67374
G1 X93.921 Y85.781 E18.71217
G1 X94.135 Y86.602 E18.75450
G1 X94.369 Y87.344 E18.79332
G1 X94.667 Y88.122 E18.83488
G1 X94.995 Y88.857 E18.87504
G1 X95.776 Y90.269 E18.95554
G1 X96.717 Y91.596 E19.03670
G1 X97.800 Y92.809 E19.11783
G1 X99.013 Y93.892 E19.19895
G1 X100.339 Y94.833 E19.28007
G1 X101.762 Y95.620 E19.36120
G1 X103.265 Y96.242 E19.44235
G1 X104.827 Y96.693 E19.52347
G1 X106.431 Y96.965 E19.60463
G1 X108.054 Y97.056 E19.68573
G1 X109.679 Y96.965 E19.76693
G1 X110.130 Y96.887 E19.78976
G1 X111.281 Y96.693 E19.84800
G1 X112.844 Y96.242 E19.92916
G1 X114.346 Y95.621 E20.01024
G1 X115.770 Y94.833 E20.09144
G1 X117.095 Y93.892 E20.17252
G1 X118.308 Y92.809 E20.25365
G1 X119.392 Y91.596 E20.33481
G1 X119.771 Y91.060 E20.36756
G1 X120.333 Y90.270 E20.41593
G1 X121.119 Y88.847 E20.49703
G1 X121.741 Y87.344 E20.57818
G1 X122.192 Y85.782 E20.65930
G1 X122.464 Y84.178 E20.74046
G1 X122.555 Y82.555 E20.82156
G1 X122.464 Y80.932 E20.90266
G1 X122.192 Y79.328 E20.98383
G1 X121.741 Y77.765 E21.06499
G1 X121.119 Y76.263 E21.14609
G1 X120.333 Y74.840 E21.22720
G1 X119.392 Y73.514 E21.30832
G1 X118.308 Y72.301 E21.38948
G1 X117.096 Y71.218 E21.47057
G1 X115.770 Y70.277 E21.55169
G1 X114.822 Y69.753 E21.60573
G1 X114.345 Y69.490 E21.63290
G1 X112.844 Y68.868 E21.71396
G1 X111.281 Y68.418 E21.79511
G1 X110.131 Y68.222 E21.85331
G1 X109.679 Y68.145 E21.87618
G1 X108.065 Y68.055 E21.95683
G1 X107.503 Y68.065 E21.98487
G1 X106.523 Y68.136 E22.03389
G1 X105.154 Y68.359 E22.10309
G1 X104.958 Y68.390 E22.11299
G1 X103.434 Y68.813 E22.19190
G1 X102.911 Y69.009 E22.21977
G1 X101.874 Y69.440 E22.27579
G1 X100.509 Y70.177 E22.35319
G1 X100.055 Y70.470 E22.38014
G1 X99.183 Y71.090 E22.43352
G1 X98.685 Y71.502 E22.46577
G1 X97.918 Y72.190 E22.51717
G1 X97.517 Y72.607 E22.54604
G1 X96.855 Y73.349 E22.59565
G1 X96.483 Y73.827 E22.62586
G1 X95.933 Y74.604 E22.67336
G1 X95.682 Y74.993 E22.69645
G0 F9000 X96.264 Y74.828
;TYPE:WALL-OUTER
G1 F840 X95.463 Y76.219 E22.77654
G1 X95.210 Y76.756 E22.80615
G1 X94.838 Y77.651 E22.85451
G1 X94.608 Y78.336 E22.89056
G1 X94.394 Y79.081 E22.92923
G1 X94.194 Y80.024 E22.97732
G1 X94.079 Y80.706 E23.01183
G1 X94.028 Y81.124 E23.03283
G1 X93.963 Y82.184 E23.08582
G1 X93.955 Y82.636 E23.10837
G1 X94.001 Y83.640 E23.15851
G1 X94.074 Y84.384 E23.19581
G1 X94.167 Y84.954 E23.22462
G1 X94.311 Y85.692 E23.26214
G1 X94.520 Y86.491 E23.30334
G1 X94.747 Y87.212 E23.34105
G1 X95.039 Y87.975 E23.38181
G1 X95.352 Y88.676 E23.42011
G1 X96.115 Y90.057 E23.49883
G1 X97.030 Y91.347 E23.57773
G1 X98.083 Y92.526 E23.65660
G1 X99.263 Y93.579 E23.73550
G1 X100.552 Y94.494 E23.81436
G1 X101.936 Y95.259 E23.89326
G1 X103.397 Y95.864 E23.97215
G1 X104.916 Y96.302 E24.05102
G1 X106.476 Y96.567 E24.12996
G1 X108.054 Y96.655 E24.20881
G1 X109.634 Y96.567 E24.28776
G1 X111.192 Y96.302 E24.36660
G1 X112.711 Y95.864 E24.44548
G1 X114.172 Y95.260 E24.52435
G1 X115.557 Y94.494 E24.60331
G1 X116.846 Y93.579 E24.68217
G1 X118.025 Y92.526 E24.76104
G1 X119.079 Y91.347 E24.83994
G1 X119.994 Y90.056 E24.91888
G1 X120.758 Y88.673 E24.99771
G1 X121.363 Y87.212 E25.07660
G1 X121.801 Y85.693 E25.15547
G1 X122.066 Y84.133 E25.23442
G1 X122.154 Y82.555 E25.31326
G1 X122.066 Y80.977 E25.39211
G1 X121.801 Y79.417 E25.47106
G1 X121.363 Y77.898 E25.54993
G1 X120.758 Y76.437 E25.62882
G1 X119.994 Y75.053 E25.70769
G1 X119.079 Y73.764 E25.78655
G1 X118.025 Y72.584 E25.86549
G1 X116.846 Y71.531 E25.94435
G1 X115.557 Y70.616 E26.02322
G1 X114.172 Y69.852 E26.10213
G1 X112.711 Y69.246 E26.18104
G1 X111.192 Y68.809 E26.25990
G1 X109.633 Y68.543 E26.33880
G1 X108.058 Y68.455 E26.41750
G1 X107.521 Y68.465 E26.44430
G1 X106.570 Y68.534 E26.49187
G1 X105.043 Y68.781 E26.56904
G1 X103.558 Y69.194 E26.64594
G1 X103.058 Y69.381 E26.67257
G1 X102.046 Y69.801 E26.72724
G1 X100.713 Y70.522 E26.80284
G1 X100.279 Y70.801 E26.82858
G1 X99.427 Y71.407 E26.88075
G1 X98.946 Y71.805 E26.91189
G1 X98.196 Y72.478 E26.96217
G1 X97.810 Y72.879 E26.98994
G1 X97.162 Y73.605 E27.03849
G1 X96.804 Y74.066 E27.06761
G1 X96.264 Y74.828 E27.11420
G0 F9000 X96.009 Y74.670
G0 X93.125 Y73.621
G0 X92.919 Y73.394
G1 F840 X107.687 Y64.868 E27.96495
G1 X108.421 Y64.868 E28.00157
G1 X123.189 Y73.394 E28.85232
G1 X123.554 Y74.028 E28.88882
G1 X123.554 Y91.082 E29.73965
G1 X123.189 Y91.716 E29.77614
G1 X108.421 Y100.242 E30.62689
G1 X107.687 Y100.242 E30.66351
G1 X92.919 Y91.716 E31.51427
G1 X92.554 Y91.082 E31.55076
G1 X92.554 Y74.028 E32.40159
G1 X92.919 Y73.394 E32.43809
G0 F9000 X93.310 Y73.794
;TYPE:SKIN
G1 F840 X95.162 Y75.646 E32.56876
G0 F9000 X94.963 Y76.012
G1 F840 X93.104 Y74.153 E32.69992
G0 F9000 X93.093 Y74.708
G1 F840 X94.782 Y76.397 E32.81909
G0 F9000 X94.610 Y76.791
G1 F840 X93.093 Y75.274 E32.92612
G0 F9000 X93.093 Y75.840
G1 F840 X94.444 Y77.190 E33.02140
G0 F9000 X94.286 Y77.598
G1 F840 X93.093 Y76.405 E33.10558
G0 F9000 X93.093 Y76.971
G1 F840 X94.143 Y78.021 E33.17966
G0 F9000 X94.011 Y78.455
G1 F840 X93.093 Y77.537 E33.24443
G0 F9000 X93.093 Y78.102
G1 F840 X93.885 Y78.894 E33.30031
G0 F9000 X93.770 Y79.345
G1 F840 X93.093 Y78.668 E33.34808
G0 F9000 X93.093 Y79.234
G1 F840 X93.681 Y79.822 E33.38956
G0 F9000 X93.599 Y80.305
G1 F840 X93.093 Y79.799 E33.42526
G0 F9000 X95.363 Y75.281
G1 F840 X93.667 Y73.585 E33.54493
G0 F9000 X94.026 Y73.378
G1 F840 X95.564 Y74.916 E33.65344
G0 F9000 X95.786 Y74.572
G1 F840 X94.384 Y73.171 E33.75232
G0 F9000 X94.743 Y72.964
G1 F840 X96.018 Y74.239 E33.84228
G0 F9000 X96.253 Y73.908
G1 F840 X95.102 Y72.757 E33.92349
G0 F9000 X95.460 Y72.550
G1 F840 X96.494 Y73.584 E33.99645
G0 F9000 X96.742 Y73.266
G1 F840 X95.819 Y72.343 E34.06157
G0 F9000 X96.177 Y72.136
G1 F840 X97.008 Y72.967 E34.12020
G0 F9000 X97.274 Y72.667
G1 F840 X96.537 Y71.929 E34.17223
G0 F9000 X96.895 Y71.722
G1 F840 X97.546 Y72.373 E34.21817
G0 F9000 X97.823 Y72.085
G1 F840 X97.254 Y71.515 E34.25835
G0 F9000 X97.612 Y71.308
G1 F840 X98.270 Y71.683 E34.29415
G1 X98.150 Y70.997 E34.32577
G1 X98.877 Y71.158 E34.35335
G1 X98.867 Y70.583 E34.37752
G1 X99.524 Y70.673 E34.39944
G1 X99.584 Y70.168 E34.41942
G1 X100.194 Y70.212 E34.43757
G1 X100.301 Y69.755 E34.45473
G1 X100.911 Y69.799 E34.47204
G1 X101.019 Y69.340 E34.49004
G1 X101.647 Y69.403 E34.50870
G1 X101.736 Y68.926 E34.52800
G1 X102.431 Y69.055 E34.55022
G1 X102.454 Y68.512 E34.57537
G1 X103.244 Y68.737 E34.60375
G1 X103.171 Y68.098 E34.63616
G1 X103.895 Y68.539 E34.67845
G0 F9000 X104.337 Y68.416
G1 F840 X103.709 Y67.788 E34.72276
G0 F9000 X104.068 Y67.581
G1 F840 X104.779 Y68.293 E34.77296
G0 F9000 X105.252 Y68.199
G1 F840 X104.426 Y67.374 E34.83120
G0 F9000 X104.785 Y67.167
G1 F840 X105.738 Y68.120 E34.89844
G0 F9000 X106.225 Y68.041
G1 F840 X105.143 Y66.960 E34.97475
G0 F9000 X105.502 Y66.753
G1 F840 X106.729 Y67.979 E35.06128
G0 F9000 X107.256 Y67.941
G1 F840 X105.860 Y66.545 E35.15978
G0 F9000 X106.220 Y66.339
G1 F840 X107.800 Y67.919 E35.27126
G0 F9000 X108.378 Y67.932
G1 F840 X106.578 Y66.132 E35.39826
G0 F9000 X106.937 Y65.924
G1 F840 X108.977 Y67.965 E35.54222
G0 F9000 X109.576 Y67.998
G1 F840 X107.295 Y65.717 E35.70316
G0 F9000 X107.654 Y65.510
G1 F840 X110.242 Y68.098 E35.88576
G0 F9000 X110.924 Y68.215
G1 F840 X108.117 Y65.408 E36.08381
G0 F9000 X109.239 Y65.964
G1 F840 X111.655 Y68.380 E36.25427
G0 F9000 X112.449 Y68.609
G1 F840 X110.578 Y66.737 E36.38631
G0 F9000 X111.915 Y67.509
G1 F840 X113.319 Y68.913 E36.48537
G0 F9000 X113.254 Y68.282
G1 F840 X114.286 Y69.314 E36.55819
G0 F9000 X114.593 Y69.055
G1 F840 X115.512 Y69.975 E36.62306
G0 F9000 X115.930 Y69.827
G1 F840 X117.461 Y71.357 E36.73105
G0 F9000 X117.269 Y70.600
G1 F840 X123.013 Y76.344 E37.13632
G0 F9000 X123.013 Y76.909
G1 F840 X119.258 Y73.155 E37.40122
G0 F9000 X119.945 Y72.145
G1 F840 X123.013 Y75.212 E37.61765
G0 F9000 X123.013 Y74.647
G1 F840 X121.284 Y72.918 E37.73964
G0 F9000 X122.622 Y73.690
G1 F840 X122.890 Y73.958 E37.75854
G0 F9000 X123.013 Y75.778
G1 F840 X118.607 Y71.372 E38.06941
G0 F9000 X120.633 Y75.095
G1 F840 X123.013 Y77.475 E38.23733
G0 F9000 X123.013 Y78.041
G1 F840 X121.292 Y76.320 E38.35876
G0 F9000 X121.693 Y77.287
G1 F840 X123.013 Y78.606 E38.45186
G0 F9000 X123.013 Y79.172
G1 F840 X121.999 Y78.158 E38.52340
G0 F9000 X122.228 Y78.953
G1 F840 X123.013 Y79.738 E38.57879
G0 F9000 X123.013 Y80.303
G1 F840 X122.393 Y79.684 E38.62250
G0 F9000 X122.509 Y80.365
G1 F840 X122.810 Y80.949 E38.65798
G1 X122.827 Y81.532 E38.68649
G1 X122.844 Y82.115 E38.71268
G1 X122.846 Y82.682 E38.73644
G1 X122.831 Y83.233 E38.75989
G1 X122.816 Y83.784 E38.78546
G1 X122.791 Y84.324 E38.81317
G1 X122.750 Y84.849 E38.84444
G1 X123.013 Y85.395 E38.87467
G0 F9000 X123.013 Y85.960
G1 F840 X122.405 Y85.352 E38.91757
G0 F9000 X122.320 Y85.834
G1 F840 X123.013 Y86.526 E38.96643
G0 F9000 X123.013 Y87.092
G1 F840 X122.193 Y86.272 E39.02429
G0 F9000 X122.067 Y86.711
G1 F840 X123.013 Y87.657 E39.09103
G0 F9000 X123.013 Y88.223
G1 F840 X121.940 Y87.150 E39.16674
G0 F9000 X121.796 Y87.572
G1 F840 X123.013 Y88.789 E39.25260
G0 F9000 X123.013 Y89.354
G1 F840 X121.630 Y87.972 E39.35015
G0 F9000 X121.465 Y88.372
G1 F840 X123.013 Y89.920 E39.45937
G0 F9000 X123.013 Y90.486
G1 F840 X121.299 Y88.773 E39.58026
G0 F9000 X121.110 Y89.149
G1 F840 X122.971 Y91.010 E39.71157
G0 F9000 X122.743 Y91.348
G1 F840 X120.908 Y89.513 E39.84104
G0 F9000 X120.708 Y89.878
G1 F840 X122.385 Y91.555 E39.95936
G0 F9000 X122.026 Y91.762
G1 F840 X120.506 Y90.242 E40.06660
G0 F9000 X120.281 Y90.583
G1 F840 X121.667 Y91.969 E40.16439
G0 F9000 X121.309 Y92.176
G1 F840 X120.046 Y90.914 E40.25347
G0 F9000 X119.812 Y91.245
G1 F840 X120.950 Y92.383 E40.33376
G0 F9000 X120.592 Y92.590
G1 F840 X119.577 Y91.575 E40.40537
G0 F9000 X119.320 Y91.884
G1 F840 X120.233 Y92.797 E40.46979
G0 F9000 X119.875 Y93.005
G1 F840 X119.053 Y92.183 E40.52779
G0 F9000 X118.786 Y92.482
G1 F840 X119.515 Y93.211 E40.57922
G0 F9000 X119.157 Y93.418
G1 F840 X118.519 Y92.780 E40.62424
G0 F9000 X118.234 Y93.061
G1 F840 X118.619 Y93.729 E40.66395
G1 X117.786 Y93.461 E40.69942
G1 X117.901 Y94.143 E40.73074
G1 X117.181 Y93.987 E40.75784
G1 X117.184 Y94.557 E40.78173
G1 X116.527 Y94.466 E40.80374
G1 X116.467 Y94.971 E40.82378
G1 X115.858 Y94.928 E40.84190
G1 X115.749 Y95.385 E40.85901
G1 X115.139 Y95.340 E40.87648
G1 X115.032 Y95.799 E40.89441
G1 X114.402 Y95.735 E40.91266
G1 X114.315 Y96.213 E40.93259
G1 X113.611 Y96.075 E40.95550
G1 X113.598 Y96.627 E40.98119
G1 X112.797 Y96.393 E41.00991
G1 X112.881 Y97.041 E41.04349
G1 X112.145 Y96.588 E41.08661
G0 F9000 X111.705 Y96.715
G1 F840 X112.343 Y97.353 E41.13162
G0 F9000 X111.984 Y97.559
G1 F840 X111.263 Y96.838 E41.18249
G0 F9000 X110.779 Y96.920
G1 F840 X111.625 Y97.766 E41.24218
G0 F9000 X111.267 Y97.973
G1 F840 X110.295 Y97.002 E41.31073
G0 F9000 X109.812 Y97.085
G1 F840 X110.908 Y98.181 E41.38806
G0 F9000 X110.550 Y98.388
G1 F840 X109.289 Y97.127 E41.47703
G0 F9000 X108.753 Y97.157
G1 F840 X110.191 Y98.594 E41.57845
G0 F9000 X109.832 Y98.801
G1 F840 X108.217 Y97.186 E41.69240
G0 F9000 X107.637 Y97.172
G1 F840 X109.474 Y99.009 E41.82201
G0 F9000 X109.115 Y99.216
G1 F840 X107.038 Y97.138 E41.96859
G0 F9000 X106.439 Y97.105
G1 F840 X108.757 Y99.423 E42.13213
G0 F9000 X108.398 Y99.629
G1 F840 X105.761 Y96.993 E42.31815
G0 F9000 X105.081 Y96.878
G1 F840 X107.904 Y99.702 E42.51737
G0 F9000 X106.666 Y99.029
G1 F840 X104.332 Y96.696 E42.68201
G0 F9000 X103.537 Y96.466
G1 F840 X105.327 Y98.256 E42.80830
G0 F9000 X103.989 Y97.484
G1 F840 X102.640 Y96.135 E42.90348
G0 F9000 X102.651 Y96.711
G1 F840 X101.665 Y95.725 E42.97305
G0 F9000 X101.313 Y95.939
G1 F840 X100.402 Y95.028 E43.03732
G0 F9000 X99.974 Y95.166
G1 F840 X97.847 Y93.038 E43.18743
G0 F9000 X97.569 Y92.761
G1 F840 X93.093 Y88.285 E43.50324
G0 F9000 X93.093 Y88.850
G1 F840 X98.636 Y94.393 E43.89433
G0 F9000 X97.298 Y93.621
G1 F840 X93.093 Y89.416 E44.19101
G0 F9000 X93.093 Y89.982
G1 F840 X95.960 Y92.848 E44.39326
G0 F9000 X94.622 Y92.076
G1 F840 X93.093 Y90.547 E44.50114
G0 F9000 X94.882 Y88.942
G1 F840 X93.093 Y87.153 E44.62736
G0 F9000 X93.093 Y86.588
G1 F840 X94.446 Y87.941 E44.72282
G0 F9000 X94.132 Y87.061
G1 F840 X93.093 Y86.022 E44.79613
G0 F9000 X93.093 Y85.456
G1 F840 X93.903 Y86.266 E44.85328
G0 F9000 X93.727 Y85.525
G1 F840 X93.093 Y84.890 E44.89805
G0 F9000 X93.599 Y84.830
G1 F840 X93.302 Y84.251 E44.93368
G1 X93.274 Y83.658 E44.96315
G1 X93.261 Y83.078 E44.98876
G1 X93.255 Y82.507 E45.01241
G1 X93.267 Y81.953 E45.03528
G1 X93.284 Y81.404 E45.05988
G1 X93.308 Y80.863 E45.08683
G1 X93.093 Y80.365 E45.11389
G0 F9000 X93.093 Y87.719
G1 F840 X95.580 Y90.206 E45.28936
;LAYER:1
M106 S63
G0 F9000 X95.746 Y90.221 Z0.500
;TYPE:WALL-INNER
G1 F960 X96.665 Y91.528 E45.34250
G1 X97.720 Y92.724 E45.39555
G1 X98.879 Y93.774 E45.44756
G1 X99.023 Y93.900 E45.45393
G1 X100.322 Y94.821 E45.50689
G1 X101.716 Y95.597 E45.55995
G1 X103.186 Y96.212 E45.61295
G1 X104.710 Y96.662 E45.66580
G1 X105.390 Y96.785 E45.68879
G1 X106.460 Y96.968 E45.72489
G1 X106.998 Y96.996 E45.74281
G1 X108.044 Y97.056 E45.77766
G1 X108.614 Y97.027 E45.79664
G1 X109.633 Y96.970 E45.83059
G1 X110.223 Y96.875 E45.85046
G1 X111.198 Y96.711 E45.88335
G1 X111.746 Y96.560 E45.90225
G1 X112.721 Y96.281 E45.93598
G1 X113.316 Y96.050 E45.95721
G1 X114.398 Y95.594 E45.99626
G1 X114.996 Y95.261 E46.01903
G1 X115.779 Y94.826 E46.04882
G1 X116.236 Y94.504 E46.06742
G1 X117.068 Y93.914 E46.10134
G1 X117.542 Y93.495 E46.12238
G1 X118.248 Y92.867 E46.15381
