;Generated with Cura_SteamEngine 15.01
; Default start code
G28 ; Home extruder
G1 Z15 F100
M107 ; Turn off fan
G90 ; Absolute positioning
M82 ; Extruder in absolute mode
M190 S50
; Activate all used extruder
M104 T0 S210
G92 E0 ; Reset extruder position
; Wait for all used extruders to reach temperature
M109 T0 S210
;Layer count: 40
;LAYER:0
M107
G0 F9000 X96.185 Y95.534 Z0.300
;TYPE:SKIRT
G1 F840 X97.715 Y94.215 E0.10078
G1 X99.374 Y93.052 E0.20186
G1 X101.145 Y92.065 E0.30301
G1 X103.004 Y91.260 E0.40408
G1 X104.736 Y90.712 E0.49471
G1 X104.968 Y90.637 E0.50688
G1 X106.926 Y90.236 E0.60659
G1 X108.935 Y90.027 E0.70736
G1 X110.783 Y90.021 E0.79956
G1 X111.012 Y90.021 E0.81098
G1 X112.981 Y90.220 E0.90972
G1 X114.963 Y90.622 E1.01061
G1 X116.746 Y91.176 E1.10376
G1 X116.964 Y91.247 E1.11520
G1 X118.766 Y92.021 E1.21304
G1 X120.537 Y92.997 E1.31393
G1 X122.202 Y94.151 E1.41500
G1 X123.743 Y95.465 E1.51603
G1 X125.144 Y96.932 E1.61724
G1 X126.262 Y98.370 E1.70811
G1 X126.410 Y98.558 E1.72005
G1 X127.467 Y100.252 E1.81966
G1 X128.360 Y102.065 E1.92049
G1 X129.068 Y103.963 E2.02156
G1 X129.582 Y105.922 E2.12260
G1 X129.893 Y107.924 E2.22368
G1 X129.990 Y109.734 E2.31411
G1 X130.007 Y109.963 E2.32556
G1 X129.911 Y111.836 E2.41913
G1 X129.896 Y112.059 E2.43028
G1 X129.603 Y113.980 E2.52723
G1 X129.100 Y115.939 E2.62813
G1 X128.401 Y117.841 E2.72923
G1 X127.514 Y119.662 E2.83029
G1 X126.541 Y121.230 E2.92235
G1 X126.429 Y121.414 E2.93310
G1 X125.307 Y122.864 E3.02457
G1 X125.167 Y123.041 E3.03583
G1 X123.814 Y124.465 E3.13382
G1 X122.284 Y125.784 E3.23460
G1 X120.625 Y126.947 E3.33568
G1 X118.854 Y127.934 E3.43684
G1 X116.995 Y128.739 E3.53790
G1 X115.263 Y129.287 E3.62854
G1 X115.031 Y129.362 E3.64070
G1 X113.073 Y129.763 E3.74041
G1 X111.064 Y129.972 E3.84118
G1 X109.216 Y129.978 E3.93338
G1 X108.987 Y129.978 E3.94480
G1 X107.018 Y129.779 E4.04354
G1 X105.036 Y129.377 E4.14443
G1 X103.253 Y128.823 E4.23758
G1 X103.035 Y128.752 E4.24902
G1 X101.233 Y127.978 E4.34687
G1 X99.462 Y127.002 E4.44775
G1 X97.797 Y125.848 E4.54882
G1 X96.256 Y124.534 E4.64986
G1 X94.855 Y123.067 E4.75106
G1 X93.723 Y121.611 E4.84307
G1 X93.589 Y121.441 E4.85387
G1 X92.532 Y119.747 E4.95349
G1 X91.639 Y117.934 E5.05431
G1 X90.931 Y116.036 E5.15538
G1 X90.417 Y114.077 E5.25642
G1 X90.106 Y112.075 E5.35750
G1 X90.009 Y110.266 E5.44788
G1 X89.992 Y110.037 E5.45934
G1 X90.087 Y108.163 E5.55295
G1 X90.103 Y107.940 E5.56411
G1 X90.396 Y106.019 E5.66105
G1 X90.899 Y104.060 E5.76196
G1 X91.598 Y102.158 E5.86306
G1 X92.485 Y100.337 E5.96411
G1 X93.458 Y98.769 E6.05618
G1 X93.570 Y98.585 E6.06692
G1 X94.692 Y97.135 E6.15839
G1 X94.832 Y96.958 E6.16965
G1 X96.185 Y95.534 E6.26765
G0 F9000 X96.461 Y95.824
G1 F840 X97.961 Y94.531 E6.36645
G1 X99.587 Y93.391 E6.46552
G1 X101.322 Y92.424 E6.56462
G1 X103.144 Y91.635 E6.66367
G1 X104.884 Y91.085 E6.75472
G1 X105.071 Y91.024 E6.76453
G1 X106.987 Y90.632 E6.86210
G1 X108.956 Y90.427 E6.96086
G1 X110.783 Y90.421 E7.05201
G1 X110.991 Y90.421 E7.06239
G1 X112.921 Y90.616 E7.15917
G1 X114.864 Y91.010 E7.25808
G1 X116.625 Y91.557 E7.35008
G1 X116.823 Y91.622 E7.36047
G1 X118.590 Y92.381 E7.45642
G1 X120.326 Y93.338 E7.55532
G1 X121.958 Y94.468 E7.65435
G1 X123.468 Y95.756 E7.75337
G1 X124.841 Y97.194 E7.85256
G1 X125.948 Y98.618 E7.94254
G1 X126.082 Y98.789 E7.95338
G1 X127.117 Y100.447 E8.05090
G1 X127.993 Y102.224 E8.14974
G1 X128.686 Y104.083 E8.24872
G1 X129.190 Y106.004 E8.34780
G1 X129.495 Y107.966 E8.44686
G1 X129.589 Y109.730 E8.53499
G1 X129.606 Y109.967 E8.54685
G1 X129.512 Y111.812 E8.63901
G1 X129.498 Y112.015 E8.64916
G1 X129.210 Y113.900 E8.74430
G1 X128.717 Y115.820 E8.84320
G1 X128.033 Y117.684 E8.94225
G1 X127.163 Y119.468 E9.04128
G1 X126.212 Y121.001 E9.13128
G1 X126.213 Y121.001 E9.13133
G1 X126.099 Y121.187 E9.14221
G1 X124.991 Y122.618 E9.23251
G1 X124.865 Y122.779 E9.24271
G1 X123.538 Y124.175 E9.33880
G1 X122.038 Y125.468 E9.43760
G1 X120.412 Y126.608 E9.53667
G1 X118.677 Y127.575 E9.63577
G1 X116.855 Y128.364 E9.73482
G1 X115.115 Y128.914 E9.82587
G1 X114.928 Y128.975 E9.83568
G1 X113.012 Y129.367 E9.93325
G1 X111.043 Y129.572 E10.03202
G1 X109.216 Y129.578 E10.12317
G1 X109.008 Y129.578 E10.13354
G1 X107.078 Y129.383 E10.23032
G1 X105.135 Y128.989 E10.32923
G1 X103.374 Y128.442 E10.42123
G1 X103.176 Y128.377 E10.43162
G1 X101.409 Y127.618 E10.52757
G1 X99.673 Y126.661 E10.62647
G1 X98.041 Y125.531 E10.72550
G1 X96.531 Y124.243 E10.82452
G1 X95.158 Y122.805 E10.92371
G1 X94.051 Y121.381 E11.01369
G1 X93.917 Y121.210 E11.02453
G1 X92.882 Y119.552 E11.12205
G1 X92.006 Y117.775 E11.22089
G1 X91.313 Y115.916 E11.31987
G1 X90.809 Y113.995 E11.41895
G1 X90.504 Y112.033 E11.51801
G1 X90.410 Y110.270 E11.60609
G1 X90.393 Y110.033 E11.61795
G1 X90.487 Y108.187 E11.71016
G1 X90.501 Y107.984 E11.72031
G1 X90.789 Y106.099 E11.81545
G1 X91.282 Y104.179 E11.91435
G1 X91.966 Y102.315 E12.01340
G1 X92.836 Y100.531 E12.11243
G1 X93.787 Y98.998 E12.20243
G1 X93.786 Y98.998 E12.20248
G1 X93.900 Y98.812 E12.21336
G1 X95.008 Y97.381 E12.30366
G1 X95.134 Y97.220 E12.31386
G1 X96.461 Y95.824 E12.40995
G1 F2400 E8.40995
G0 F9000 X99.085 Y98.579
;TYPE:WALL-INNER
G1 F2400 E12.40995
G1 F840 X100.300 Y97.531 E12.49000
G1 X101.605 Y96.617 E12.56949
G1 X103.003 Y95.837 E12.64935
G1 X104.478 Y95.199 E12.72953
G1 X106.032 Y94.707 E12.81085
G1 X107.566 Y94.392 E12.88898
G1 X109.161 Y94.226 E12.96899
G1 X110.790 Y94.221 E13.05026
G1 X112.352 Y94.378 E13.12858
G1 X113.919 Y94.696 E13.20835
G1 X115.470 Y95.178 E13.28938
G1 X116.920 Y95.799 E13.36808
G1 X118.320 Y96.570 E13.44781
G1 X119.635 Y97.482 E13.52765
G1 X120.857 Y98.524 E13.60777
G1 X121.957 Y99.676 E13.68724
G1 X122.962 Y100.968 E13.76890
G1 X123.794 Y102.301 E13.84730
G1 X124.499 Y103.730 E13.92680
G1 X125.061 Y105.236 E14.00699
G1 X125.464 Y106.775 E14.08636
G1 X125.711 Y108.363 E14.16654
G1 X125.798 Y109.995 E14.24808
G1 X125.799 Y110.005 E14.24858
G1 X125.720 Y111.574 E14.32695
G1 X125.483 Y113.139 E14.40592
G1 X125.085 Y114.689 E14.48576
G1 X124.532 Y116.194 E14.56575
G1 X123.833 Y117.628 E14.64534
G1 X122.971 Y119.017 E14.72690
G1 X121.994 Y120.282 E14.80664
G1 X120.914 Y121.420 E14.88492
G1 X119.699 Y122.468 E14.96497
G1 X118.394 Y123.382 E15.04445
G1 X116.996 Y124.162 E15.12432
G1 X115.521 Y124.800 E15.20450
G1 X113.967 Y125.292 E15.28582
G1 X112.433 Y125.607 E15.36395
G1 X110.838 Y125.773 E15.44395
G1 X109.209 Y125.778 E15.52523
G1 X107.647 Y125.621 E15.60355
G1 X106.080 Y125.303 E15.68332
G1 X104.529 Y124.821 E15.76435
G1 X103.079 Y124.200 E15.84304
G1 X101.679 Y123.429 E15.92278
G1 X100.364 Y122.517 E16.00262
G1 X99.142 Y121.475 E16.08274
G1 X98.042 Y120.323 E16.16221
G1 X97.037 Y119.031 E16.24387
G1 X96.205 Y117.698 E16.32227
G1 X95.500 Y116.269 E16.40176
G1 X94.938 Y114.763 E16.48196
G1 X94.535 Y113.224 E16.56133
G1 X94.288 Y111.636 E16.64151
G1 X94.201 Y110.005 E16.72299
G1 X94.200 Y109.992 E16.72364
G1 X94.279 Y108.425 E16.80192
G1 X94.280 Y108.410 E16.80267
G1 X94.516 Y106.860 E16.88089
G1 X94.914 Y105.310 E16.96073
G1 X95.467 Y103.805 E17.04072
G1 X96.166 Y102.371 E17.12031
G1 X97.028 Y100.982 E17.20187
G1 X98.005 Y99.717 E17.28161
G1 X99.085 Y98.579 E17.35989
G0 F9000 X100.989 Y99.587
G1 F840 X100.930 Y99.635 E17.36368
G1 X100.062 Y100.570 E17.42733
G1 X99.268 Y101.600 E17.49221
G1 X98.860 Y102.244 E17.53025
G1 X98.579 Y102.693 E17.55667
G1 X98.097 Y103.629 E17.60920
G1 X97.607 Y104.822 E17.67354
G1 X97.294 Y105.865 E17.72787
G1 X97.168 Y106.314 E17.75114
G1 X97.049 Y106.918 E17.78185
G1 X96.913 Y107.572 E17.81518
G1 X96.808 Y108.479 E17.86073
G1 X96.762 Y108.853 E17.87953
G1 X96.748 Y109.407 E17.90718
G1 X96.725 Y110.138 E17.94366
G1 X96.803 Y111.412 E18.00734
G1 X96.964 Y112.473 E18.06088
G1 X97.179 Y113.433 E18.10996
G1 X97.291 Y113.898 E18.13383
G1 X97.701 Y115.117 E18.19799
G1 X97.978 Y115.757 E18.23278
G1 X98.177 Y116.237 E18.25871
G1 X98.810 Y117.459 E18.32737
G1 X99.466 Y118.460 E18.38707
G1 X99.514 Y118.534 E18.39148
G1 X100.244 Y119.443 E18.44964
G1 X100.673 Y119.902 E18.48098
G1 X101.079 Y120.319 E18.51002
G1 X101.174 Y120.415 E18.51676
G1 X101.696 Y120.871 E18.55134
G1 X102.048 Y121.176 E18.57457
G1 X102.750 Y121.685 E18.61784
G1 X103.108 Y121.941 E18.63979
G1 X103.974 Y122.455 E18.69003
G1 X105.254 Y123.084 E18.76119
G1 X106.478 Y123.537 E18.82630
G1 X107.454 Y123.800 E18.87673
G1 X107.704 Y123.865 E18.88962
G1 X108.668 Y124.033 E18.93844
G1 X109.440 Y124.119 E18.97719
G1 X110.237 Y124.186 E19.01709
G1 X111.318 Y124.177 E19.07103
G1 X112.470 Y124.082 E19.12870
G1 X113.023 Y124.010 E19.15652
G1 X113.963 Y123.823 E19.20433
G1 X114.294 Y123.745 E19.22130
G1 X115.289 Y123.450 E19.27308
G1 X116.084 Y123.146 E19.31554
G1 X116.626 Y122.896 E19.34532
G1 X117.242 Y122.547 E19.38064
G1 X117.742 Y122.259 E19.40943
G1 X118.578 Y121.678 E19.46022
G1 X118.904 Y121.441 E19.48033
G1 X119.776 Y120.704 E19.53729
G1 X120.734 Y119.748 E19.60481
G1 X121.362 Y119.008 E19.65323
G1 X121.918 Y118.254 E19.69997
G1 X122.751 Y116.901 E19.77924
G1 X123.421 Y115.488 E19.85726
G1 X123.926 Y114.034 E19.93405
G1 X124.271 Y112.550 E20.01006
G1 X124.472 Y110.817 E20.09710
G1 X124.482 Y110.677 E20.10410
G1 X124.476 Y109.226 E20.17649
G1 X124.474 Y109.147 E20.18043
G1 X124.308 Y107.650 E20.25558
G1 X123.983 Y106.165 E20.33142
G1 X123.509 Y104.738 E20.40644
G1 X123.324 Y104.287 E20.43076
G1 X122.757 Y103.121 E20.49544
G1 X122.405 Y102.538 E20.52942
G1 X121.926 Y101.760 E20.57500
G1 X121.855 Y101.651 E20.58149
G1 X121.482 Y101.178 E20.61154
G1 X120.941 Y100.483 E20.65548
G1 X120.496 Y100.016 E20.68767
G1 X119.925 Y99.430 E20.72849
G1 X119.397 Y98.968 E20.76349
G1 X118.823 Y98.495 E20.80059
G1 X118.189 Y98.040 E20.83953
G1 X117.733 Y97.767 E20.86604
G1 X117.260 Y97.460 E20.89418
G1 X116.921 Y97.260 E20.91381
G1 X116.182 Y96.910 E20.95461
G1 X115.607 Y96.628 E20.98656
G1 X114.460 Y96.211 E21.04745
G1 X114.291 Y96.147 E21.05646
G1 X113.773 Y96.014 E21.08314
G1 X112.948 Y95.847 E21.12514
G1 X111.634 Y95.703 E21.19109
G1 X110.943 Y95.690 E21.22557
G1 X110.308 Y95.681 E21.25725
G1 X109.349 Y95.756 E21.30524
G1 X108.985 Y95.783 E21.32345
G1 X107.829 Y95.981 E21.38196
G1 X106.658 Y96.279 E21.44225
G1 X106.175 Y96.433 E21.46754
G1 X105.313 Y96.757 E21.51348
G1 X104.065 Y97.344 E21.58229
G1 X103.350 Y97.769 E21.62379
G1 X102.870 Y98.063 E21.65187
G1 X101.903 Y98.776 E21.71181
G1 X100.989 Y99.587 E21.77277
G0 F9000 X101.231 Y99.906
;TYPE:WALL-OUTER
G1 F840 X101.203 Y99.929 E21.77458
G1 X100.367 Y100.829 E21.83586
G1 X99.596 Y101.829 E21.89886
G1 X98.927 Y102.891 E21.96148
G1 X98.460 Y103.797 E22.01233
G1 X97.983 Y104.960 E22.07504
G1 X97.679 Y105.975 E22.12791
G1 X97.557 Y106.407 E22.15030
G1 X97.442 Y106.993 E22.18009
G1 X97.308 Y107.636 E22.21286
G1 X97.205 Y108.525 E22.25751
G1 X97.161 Y108.882 E22.27546
G1 X97.148 Y109.420 E22.30231
G1 X97.126 Y110.132 E22.33784
G1 X97.201 Y111.370 E22.39972
G1 X97.357 Y112.399 E22.45165
G1 X97.569 Y113.342 E22.49987
G1 X97.676 Y113.787 E22.52270
G1 X98.075 Y114.974 E22.58518
G1 X98.347 Y115.604 E22.61941
G1 X98.542 Y116.074 E22.64480
G1 X99.155 Y117.256 E22.71123
G1 X99.802 Y118.243 E22.77011
G1 X99.839 Y118.299 E22.77345
G1 X100.547 Y119.181 E22.82988
G1 X100.962 Y119.626 E22.86024
G1 X101.364 Y120.039 E22.88899
G1 X102.296 Y120.862 E22.95102
G1 X102.984 Y121.360 E22.99340
G1 X103.327 Y121.606 E23.01445
G1 X104.165 Y122.103 E23.06306
G1 X105.412 Y122.716 E23.13239
G1 X106.600 Y123.156 E23.19559
G1 X107.556 Y123.413 E23.24498
G1 X108.725 Y123.637 E23.30436
G1 X109.479 Y123.721 E23.34221
G1 X110.252 Y123.786 E23.38091
G1 X111.300 Y123.777 E23.43320
G1 X112.428 Y123.684 E23.48967
G1 X112.958 Y123.615 E23.51633
G1 X113.878 Y123.432 E23.56313
G1 X115.174 Y123.067 E23.63030
G1 X115.927 Y122.778 E23.67054
G1 X116.443 Y122.540 E23.69889
G1 X117.043 Y122.200 E23.73330
G1 X117.528 Y121.921 E23.76121
G1 X118.334 Y121.361 E23.81018
G1 X118.658 Y121.126 E23.83015
G1 X119.505 Y120.409 E23.88551
G1 X120.439 Y119.477 E23.95134
G1 X121.048 Y118.759 E23.99831
G1 X121.586 Y118.030 E24.04351
G1 X122.399 Y116.710 E24.12085
G1 X123.050 Y115.336 E24.19671
G1 X123.541 Y113.923 E24.27134
G1 X123.878 Y112.473 E24.34561
G1 X123.930 Y112.152 E24.36183
G1 X124.073 Y110.782 E24.43055
G1 X124.082 Y110.663 E24.43651
G1 X124.076 Y109.231 E24.50795
G1 X124.075 Y109.173 E24.51084
G1 X123.912 Y107.707 E24.58443
G1 X123.596 Y106.266 E24.65803
G1 X123.134 Y104.877 E24.73106
G1 X122.962 Y104.457 E24.75371
G1 X122.398 Y103.298 E24.81801
G1 X122.310 Y103.128 E24.82756
G1 X121.588 Y101.974 E24.89548
G1 X121.530 Y101.884 E24.90082
G1 X121.168 Y101.426 E24.92994
G1 X120.638 Y100.744 E24.97303
G1 X120.208 Y100.293 E25.00412
G1 X119.648 Y99.719 E25.04413
G1 X119.138 Y99.273 E25.07793
G1 X118.578 Y98.812 E25.11412
G1 X117.970 Y98.375 E25.15147
G1 X117.509 Y98.099 E25.17828
G1 X117.049 Y97.800 E25.20565
G1 X116.734 Y97.614 E25.22390
G1 X115.998 Y97.265 E25.26454
G1 X115.453 Y96.997 E25.29484
G1 X114.323 Y96.587 E25.35481
G1 X113.684 Y96.404 E25.38797
G1 X112.886 Y96.242 E25.42860
G1 X111.609 Y96.102 E25.49269
G1 X110.321 Y96.081 E25.55696
G1 X109.033 Y96.180 E25.62141
G1 X107.912 Y96.372 E25.67815
G1 X106.768 Y96.664 E25.73705
G1 X105.468 Y97.126 E25.80588
G1 X104.253 Y97.697 E25.87286
G1 X103.557 Y98.112 E25.91329
G1 X103.093 Y98.395 E25.94040
G1 X102.155 Y99.087 E25.99856
G1 X101.231 Y99.906 E26.06016
G0 F9000 X101.045 Y99.672
G0 X99.023 Y98.500
G0 X98.811 Y98.287
G1 F840 X100.049 Y97.220 E26.14169
G1 X101.397 Y96.275 E26.22383
G1 X102.827 Y95.477 E26.30553
G1 X104.336 Y94.825 E26.38754
G1 X105.910 Y94.326 E26.46992
G1 X107.505 Y93.996 E26.55118
G1 X109.139 Y93.826 E26.63314
G1 X110.820 Y93.821 E26.71700
G1 X112.411 Y93.982 E26.79678
G1 X114.021 Y94.308 E26.87874
G1 X115.593 Y94.797 E26.96087
G1 X117.096 Y95.440 E27.04243
G1 X118.535 Y96.233 E27.12440
G1 X119.879 Y97.164 E27.20597
G1 X121.128 Y98.230 E27.28789
G1 X122.262 Y99.416 E27.36976
G1 X123.277 Y100.721 E27.45224
G1 X124.147 Y102.111 E27.53405
G1 X124.867 Y103.571 E27.61526
G1 X125.442 Y105.112 E27.69732
G1 X125.855 Y106.688 E27.77860
G1 X126.109 Y108.320 E27.86101
G1 X126.197 Y109.970 E27.94344
G1 X126.200 Y109.998 E27.94485
G1 X126.118 Y111.607 E28.02522
G1 X126.117 Y111.629 E28.02632
G1 X125.875 Y113.218 E28.10651
G1 X125.466 Y114.809 E28.18847
G1 X124.901 Y116.349 E28.27031
G1 X124.180 Y117.828 E28.35240
G1 X123.312 Y119.227 E28.43453
G1 X122.312 Y120.525 E28.51628
G1 X122.292 Y120.550 E28.51788
G1 X121.188 Y121.712 E28.59784
G1 X119.952 Y122.778 E28.67927
G1 X118.602 Y123.724 E28.76152
G1 X117.172 Y124.522 E28.84322
G1 X115.663 Y125.174 E28.92523
G1 X114.089 Y125.673 E29.00761
G1 X112.494 Y126.003 E29.08887
G1 X110.860 Y126.173 E29.17083
G1 X109.179 Y126.178 E29.25469
G1 X107.588 Y126.017 E29.33447
G1 X105.978 Y125.691 E29.41643
G1 X104.403 Y125.201 E29.49872
G1 X102.903 Y124.559 E29.58012
G1 X101.464 Y123.766 E29.66209
G1 X100.120 Y122.835 E29.74366
G1 X98.871 Y121.769 E29.82558
G1 X97.737 Y120.583 E29.90745
G1 X96.722 Y119.278 E29.98993
G1 X95.852 Y117.888 E30.07174
G1 X95.132 Y116.428 E30.15296
G1 X94.557 Y114.887 E30.23501
G1 X94.144 Y113.309 E30.31639
G1 X93.890 Y111.679 E30.39869
G1 X93.802 Y110.030 E30.48108
G1 X93.799 Y110.002 E30.48249
G1 X93.881 Y108.392 E30.56291
G1 X93.882 Y108.370 E30.56401
G1 X94.124 Y106.781 E30.64420
G1 X94.533 Y105.190 E30.72616
G1 X95.098 Y103.650 E30.80800
G1 X95.819 Y102.171 E30.89008
G1 X96.687 Y100.772 E30.97222
G1 X97.687 Y99.474 E31.05397
G1 X97.707 Y99.449 E31.05557
G1 X98.811 Y98.287 E31.13553
G0 F9000 X99.074 Y98.792
;TYPE:SKIN
